;FLAVOR:Marlin
;TIME:1123
;Filament used: 0.632945m
;Layer height: 0.1
;Generated with Cura_SteamEngine 1.2.1
M104 S220
M109 S220
G90
G28
M132 X Y Z A
G1 Z100 F3300
G1 X-110.5 Y-74 F6000
M6 T0
M907 X100 Y100 Z60 A100
G1 Z0.6 F3300
G4 P2000
M108 T0

;LAYER_COUNT:51
;LAYER:0
M107
M204 S5000
G0 F2592 X-11.95 Y14.224 Z0.125
M204 S3000
;TYPE:SKIRT
G1 F1080 X-11.917 Y-18.385 E0.67786
G1 X-11.876 Y-19.052 E0.69175
G1 X-11.756 Y-19.711 E0.70568
G1 X-11.559 Y-20.35 E0.71958
G1 X-11.286 Y-20.961 E0.73349
G1 X-11.046 Y-21.378 E0.74349
G1 X-10.748 Y-21.848 E0.75506
G1 X-10.357 Y-22.39 E0.76895
G1 X-9.904 Y-22.882 E0.78286
G1 X-9.395 Y-23.317 E0.79677
G1 X-8.838 Y-23.688 E0.81069
G1 X-8.358 Y-23.937 E0.82193
G1 X-7.973 Y-24.114 E0.83073
G1 X-7.35 Y-24.357 E0.84464
G1 X-6.702 Y-24.523 E0.85854
G1 X-6.039 Y-24.611 E0.87244
G1 X-5.633 Y-24.626 E0.88089
G1 X5.639 Y-24.624 E1.11521
G1 X6.307 Y-24.584 E1.12912
G1 X6.965 Y-24.464 E1.14302
G1 X7.604 Y-24.267 E1.15692
G1 X8.231 Y-23.987 E1.1712
G1 X8.675 Y-23.755 E1.18161
G1 X9.249 Y-23.411 E1.19552
G1 X9.777 Y-23 E1.20943
G1 X10.252 Y-22.529 E1.22334
G1 X10.668 Y-22.005 E1.23724
G1 X11.081 Y-21.317 E1.25392
G1 X11.33 Y-20.824 E1.26541
G1 X11.595 Y-20.21 E1.27931
G1 X11.785 Y-19.568 E1.29323
G1 X11.898 Y-18.909 E1.30712
G1 X11.931 Y-18.302 E1.31976
G1 X11.949 Y15.791 E2.02847
G1 X11.947 Y15.929 E2.03134
G1 X11.882 Y18.618 E2.08726
G1 X11.826 Y19.285 E2.10117
G1 X11.691 Y19.94 E2.11507
G1 X11.479 Y20.575 E2.12899
G1 X11.192 Y21.179 E2.14289
G1 X11.006 Y21.493 E2.15048
G1 X10.809 Y21.802 E2.15809
G1 X10.416 Y22.344 E2.17201
G1 X9.962 Y22.835 E2.18591
G1 X9.452 Y23.268 E2.19982
G1 X8.894 Y23.638 E2.21374
G1 X8.286 Y23.942 E2.22787
G1 X7.71 Y24.188 E2.24089
G1 X7.081 Y24.414 E2.25478
G1 X6.428 Y24.562 E2.2687
G1 X5.513 Y24.638 E2.28779
G1 X-1.873 Y24.64 E2.44132
G1 X-2.541 Y24.6 E2.45523
G1 X-3.251 Y24.468 E2.47025
G1 X-3.839 Y24.319 E2.48286
G1 X-4.476 Y24.117 E2.49675
G1 X-5.085 Y23.839 E2.51066
G1 X-5.656 Y23.491 E2.52456
G1 X-6.412 Y22.861 E2.54502
G1 X-10.057 Y19.235 E2.6519
G1 X-10.503 Y18.736 E2.66581
G1 X-10.827 Y18.281 E2.67742
G1 X-10.997 Y18.015 E2.68398
G1 X-11.323 Y17.43 E2.69791
G1 X-11.577 Y16.811 E2.71181
G1 X-11.755 Y16.167 E2.7257
G1 X-11.854 Y15.521 E2.73929
G1 X-11.926 Y14.752 E2.75534
G1 X-11.95 Y14.224 E2.76633
M204 S5000
G0 F2592 X-11.55 Y14.225
M204 S3000
G1 F1080 X-11.517 Y-18.384 E3.44419
G1 X-11.476 Y-19.028 E3.45761
G1 X-11.356 Y-19.661 E3.471
G1 X-11.159 Y-20.275 E3.48441
G1 X-10.887 Y-20.859 E3.4978
G1 X-10.709 Y-21.163 E3.50512
G1 X-10.411 Y-21.633 E3.51669
G1 X-10.032 Y-22.156 E3.53012
G1 X-9.592 Y-22.627 E3.54351
G1 X-9.097 Y-23.04 E3.55692
G1 X-8.555 Y-23.389 E3.57032
G1 X-8.191 Y-23.574 E3.5788
G1 X-7.806 Y-23.751 E3.58761
G1 X-7.205 Y-23.983 E3.601
G1 X-6.579 Y-24.139 E3.61442
G1 X-5.633 Y-24.226 E3.63416
G1 X5.639 Y-24.224 E3.86848
G1 X6.282 Y-24.184 E3.88187
G1 X6.916 Y-24.065 E3.89528
G1 X7.53 Y-23.868 E3.90869
G1 X8.046 Y-23.633 E3.92047
G1 X8.49 Y-23.401 E3.93089
G1 X9.042 Y-23.067 E3.9443
G1 X9.548 Y-22.668 E3.95769
G1 X10.001 Y-22.21 E3.97109
G1 X10.394 Y-21.698 E3.9845
G1 X10.724 Y-21.136 E3.99805
G1 X10.973 Y-20.643 E4.00953
G1 X11.227 Y-20.051 E4.02292
G1 X11.406 Y-19.432 E4.03632
G1 X11.507 Y-18.795 E4.04972
G1 X11.531 Y-18.302 E4.05998
G1 X11.549 Y15.791 E4.7687
G1 X11.547 Y15.92 E4.77138
G1 X11.482 Y18.609 E4.82729
G1 X11.427 Y19.251 E4.84069
G1 X11.292 Y19.881 E4.85408
G1 X11.081 Y20.49 E4.86748
G1 X10.669 Y21.278 E4.88596
G1 X10.472 Y21.587 E4.89358
G1 X10.092 Y22.108 E4.90699
G1 X9.651 Y22.579 E4.9204
G1 X9.155 Y22.99 E4.93379
G1 X8.612 Y23.338 E4.9472
G1 X8.129 Y23.574 E4.95837
G1 X7.553 Y23.82 E4.97139
G1 X6.946 Y24.036 E4.98478
G1 X6.316 Y24.175 E4.99819
G1 X5.512 Y24.238 E5.01496
G1 X-1.874 Y24.24 E5.1685
G1 X-2.517 Y24.2 E5.18189
G1 X-3.152 Y24.081 E5.19532
G1 X-3.74 Y23.932 E5.20793
G1 X-4.354 Y23.735 E5.22133
G1 X-4.939 Y23.464 E5.23473
G1 X-5.486 Y23.122 E5.24814
G1 X-6.13 Y22.578 E5.26567
G1 X-9.775 Y18.952 E5.37255
G1 X-10.203 Y18.469 E5.38596
G1 X-10.49 Y18.065 E5.39626
G1 X-10.66 Y17.799 E5.40282
G1 X-10.972 Y17.236 E5.41621
G1 X-11.213 Y16.638 E5.42961
G1 X-11.378 Y16.014 E5.44303
G1 X-11.455 Y15.484 E5.45416
G1 X-11.527 Y14.715 E5.47021
G1 X-11.55 Y14.225 E5.48041
M204 S5000
G0 F2592 X-11.15 Y14.225
M204 S3000
G1 F1080 X-11.117 Y-18.384 E6.15827
G1 X-11.076 Y-19.002 E6.17115
G1 X-10.957 Y-19.61 E6.18403
G1 X-10.76 Y-20.197 E6.1969
G1 X-10.371 Y-20.949 E6.2145
G1 X-10.073 Y-21.419 E6.22607
G1 X-9.708 Y-21.92 E6.23895
G1 X-9.282 Y-22.369 E6.25182
G1 X-8.802 Y-22.76 E6.26469
G1 X-8.024 Y-23.21 E6.28337
G1 X-7.639 Y-23.387 E6.29218
G1 X-7.061 Y-23.609 E6.30505
G1 X-6.459 Y-23.755 E6.31793
G1 X-5.633 Y-23.826 E6.33516
G1 X5.639 Y-23.824 E6.56948
G1 X6.257 Y-23.784 E6.58235
G1 X6.865 Y-23.665 E6.59523
G1 X7.452 Y-23.468 E6.6081
G1 X7.861 Y-23.278 E6.61748
G1 X8.305 Y-23.046 E6.62789
G1 X8.834 Y-22.725 E6.64075
G1 X9.318 Y-22.337 E6.65365
G1 X9.747 Y-21.891 E6.66651
G1 X10.116 Y-21.394 E6.67938
G1 X10.367 Y-20.956 E6.68987
G1 X10.616 Y-20.463 E6.70136
G1 X10.858 Y-19.893 E6.71423
G1 X11.026 Y-19.297 E6.7271
G1 X11.116 Y-18.684 E6.73998
G1 X11.131 Y-18.302 E6.74793
G1 X11.149 Y15.791 E7.45664
G1 X11.148 Y15.91 E7.45911
G1 X11.083 Y18.599 E7.51503
G1 X11.028 Y19.216 E7.5279
G1 X10.894 Y19.821 E7.54078
G1 X10.683 Y20.403 E7.55365
G1 X10.331 Y21.063 E7.5692
G1 X10.134 Y21.372 E7.57682
G1 X9.768 Y21.872 E7.5897
G1 X9.341 Y22.32 E7.60257
G1 X8.86 Y22.71 E7.61544
G1 X8.332 Y23.035 E7.62833
G1 X7.972 Y23.206 E7.63661
G1 X7.396 Y23.452 E7.64963
G1 X6.812 Y23.658 E7.6625
G1 X6.206 Y23.787 E7.67538
G1 X5.512 Y23.838 E7.68985
G1 X-1.874 Y23.84 E7.84339
G1 X-2.492 Y23.8 E7.85626
G1 X-3.054 Y23.693 E7.86815
G1 X-3.642 Y23.544 E7.88076
G1 X-4.231 Y23.353 E7.89363
G1 X-4.791 Y23.089 E7.9065
G1 X-5.312 Y22.754 E7.91938
G1 X-5.848 Y22.294 E7.93406
G1 X-9.493 Y18.668 E8.04094
G1 X-9.903 Y18.204 E8.05381
G1 X-10.153 Y17.85 E8.06282
G1 X-10.323 Y17.584 E8.06938
G1 X-10.622 Y17.042 E8.08225
G1 X-10.849 Y16.465 E8.09514
G1 X-10.999 Y15.865 E8.108
G1 X-11.057 Y15.446 E8.11679
G1 X-11.129 Y14.677 E8.13284
G1 X-11.15 Y14.225 E8.14225
M204 S5000
G0 F2592 X-10.75 Y14.226
M204 S3000
G1 F1080 X-10.717 Y-18.383 E8.82011
G1 X-10.676 Y-18.975 E8.83245
G1 X-10.557 Y-19.556 E8.84478
G1 X-10.36 Y-20.115 E8.8571
G1 X-10.033 Y-20.735 E8.87167
G1 X-9.735 Y-21.205 E8.88324
G1 X-9.384 Y-21.683 E8.89557
G1 X-8.973 Y-22.11 E8.90789
G1 X-8.508 Y-22.478 E8.92021
G1 X-7.857 Y-22.847 E8.93577
G1 X-7.472 Y-23.024 E8.94458
G1 X-6.918 Y-23.235 E8.9569
G1 X-6.34 Y-23.369 E8.96923
G1 X-5.633 Y-23.426 E8.98398
G1 X5.639 Y-23.424 E9.2183
G1 X6.23 Y-23.384 E9.23061
G1 X6.811 Y-23.265 E9.24294
G1 X7.371 Y-23.068 E9.25528
G1 X7.676 Y-22.924 E9.26229
G1 X8.12 Y-22.692 E9.2727
G1 X8.626 Y-22.382 E9.28504
G1 X9.085 Y-22.008 E9.29735
G1 X9.49 Y-21.575 E9.30967
G1 X9.833 Y-21.091 E9.322
G1 X10.009 Y-20.776 E9.3295
G1 X10.258 Y-20.283 E9.34098
G1 X10.49 Y-19.737 E9.35332
G1 X10.645 Y-19.164 E9.36566
G1 X10.731 Y-18.301 E9.38368
G1 X10.749 Y15.792 E10.0924
G1 X10.748 Y15.9 E10.09464
G1 X10.683 Y18.589 E10.15056
G1 X10.628 Y19.18 E10.16289
G1 X10.495 Y19.758 E10.17522
G1 X10.286 Y20.312 E10.18753
G1 X9.994 Y20.848 E10.20022
G1 X9.797 Y21.157 E10.20784
G1 X9.445 Y21.635 E10.22018
G1 X9.033 Y22.06 E10.23248
G1 X8.566 Y22.427 E10.24483
G1 X7.815 Y22.838 E10.26263
G1 X7.239 Y23.084 E10.27565
G1 X6.679 Y23.28 E10.28798
G1 X6.098 Y23.399 E10.30031
G1 X5.512 Y23.438 E10.31252
G1 X-1.874 Y23.44 E10.46605
G1 X-2.465 Y23.4 E10.47837
G1 X-2.956 Y23.305 E10.48876
G1 X-3.544 Y23.156 E10.50137
G1 X-4.107 Y22.972 E10.51368
G1 X-4.641 Y22.714 E10.52601
G1 X-5.136 Y22.386 E10.53836
G1 X-5.566 Y22.01 E10.55023
G1 X-9.211 Y18.384 E10.65711
G1 X-9.602 Y17.939 E10.66942
G1 X-9.816 Y17.634 E10.67717
G1 X-9.986 Y17.368 E10.68373
G1 X-10.27 Y16.848 E10.69605
G1 X-10.483 Y16.295 E10.70836
G1 X-10.619 Y15.718 E10.72069
G1 X-10.659 Y15.409 E10.72716
G1 X-10.731 Y14.64 E10.74322
G1 X-10.75 Y14.226 E10.75184
M204 S5000
G0 F2592 X-10.35 Y14.226
M204 S3000
G1 F1080 X-10.317 Y-18.383 E11.4297
G1 X-10.276 Y-18.947 E11.44145
G1 X-10.157 Y-19.499 E11.45319
G1 X-9.961 Y-20.03 E11.46496
G1 X-9.695 Y-20.521 E11.47657
G1 X-9.397 Y-20.991 E11.48813
G1 X-9.061 Y-21.446 E11.49989
G1 X-8.665 Y-21.849 E11.51164
G1 X-8.216 Y-22.192 E11.52338
G1 X-7.69 Y-22.483 E11.53588
G1 X-7.305 Y-22.66 E11.54469
G1 X-6.776 Y-22.86 E11.55644
G1 X-6.224 Y-22.982 E11.56819
G1 X-5.633 Y-23.026 E11.58051
G1 X5.639 Y-23.024 E11.81483
G1 X6.203 Y-22.984 E11.82659
G1 X6.755 Y-22.865 E11.83832
G1 X7.49 Y-22.569 E11.8548
G1 X7.934 Y-22.337 E11.86521
G1 X8.416 Y-22.041 E11.87697
G1 X8.85 Y-21.679 E11.88872
G1 X9.23 Y-21.26 E11.90047
G1 X9.652 Y-20.595 E11.91685
G1 X9.901 Y-20.102 E11.92833
G1 X10.12 Y-19.581 E11.94008
G1 X10.263 Y-19.034 E11.95183
G1 X10.331 Y-18.301 E11.96713
G1 X10.349 Y15.792 E12.67584
G1 X10.348 Y15.891 E12.6779
G1 X10.283 Y18.58 E12.73381
G1 X10.229 Y19.142 E12.74555
G1 X10.097 Y19.692 E12.75731
G1 X9.888 Y20.218 E12.76907
G1 X9.657 Y20.633 E12.77895
G1 X9.46 Y20.942 E12.78657
G1 X9.123 Y21.396 E12.79832
G1 X8.726 Y21.798 E12.81006
G1 X8.275 Y22.14 E12.82183
G1 X7.658 Y22.471 E12.83638
G1 X7.082 Y22.717 E12.8494
G1 X6.548 Y22.901 E12.86115
G1 X5.993 Y23.009 E12.8729
G1 X5.512 Y23.038 E12.88292
G1 X-1.874 Y23.04 E13.03645
G1 X-2.438 Y23 E13.04821
G1 X-2.858 Y22.917 E13.05711
G1 X-3.446 Y22.768 E13.06972
G1 X-3.982 Y22.591 E13.08145
G1 X-4.489 Y22.34 E13.09321
G1 X-4.955 Y22.02 E13.10496
G1 X-5.284 Y21.727 E13.11412
G1 X-8.929 Y18.101 E13.221
G1 X-9.301 Y17.675 E13.23275
G1 X-9.478 Y17.419 E13.23922
G1 X-9.648 Y17.153 E13.24579
G1 X-9.918 Y16.656 E13.25754
G1 X-10.116 Y16.127 E13.26928
G1 X-10.261 Y15.372 E13.28527
G1 X-10.333 Y14.603 E13.30132
G1 X-10.35 Y14.226 E13.30917
M204 S5000
G0 F2592 X-9.95 Y14.226
M204 S3000
G1 F1080 X-9.917 Y-18.383 E13.98703
G1 X-9.877 Y-18.917 E13.99816
G1 X-9.757 Y-19.44 E14.00932
G1 X-9.561 Y-19.939 E14.02046
G1 X-9.357 Y-20.307 E14.02921
G1 X-9.059 Y-20.777 E14.04077
G1 X-8.739 Y-21.207 E14.05192
G1 X-8.359 Y-21.585 E14.06306
G1 X-7.926 Y-21.902 E14.07421
G1 X-7.523 Y-22.12 E14.08374
G1 X-7.138 Y-22.297 E14.09255
G1 X-6.635 Y-22.484 E14.1037
G1 X-6.11 Y-22.594 E14.11485
G1 X-5.633 Y-22.626 E14.12479
G1 X5.639 Y-22.624 E14.35911
G1 X6.173 Y-22.584 E14.37024
G1 X6.696 Y-22.465 E14.38139
G1 X7.305 Y-22.215 E14.39508
G1 X7.749 Y-21.983 E14.40549
G1 X8.205 Y-21.7 E14.41665
G1 X8.613 Y-21.352 E14.42779
G1 X8.965 Y-20.948 E14.43893
G1 X9.295 Y-20.415 E14.45196
G1 X9.544 Y-19.922 E14.46344
G1 X9.75 Y-19.427 E14.47459
G1 X9.879 Y-18.906 E14.48575
G1 X9.931 Y-18.301 E14.49837
G1 X9.949 Y15.792 E15.20708
G1 X9.948 Y15.881 E15.20893
G1 X9.883 Y18.57 E15.26485
G1 X9.83 Y19.104 E15.276
G1 X9.699 Y19.624 E15.28715
G1 X9.491 Y20.118 E15.29829
G1 X9.32 Y20.418 E15.30547
G1 X9.123 Y20.727 E15.31309
G1 X8.801 Y21.157 E15.32425
G1 X8.42 Y21.534 E15.33539
G1 X7.987 Y21.85 E15.34654
G1 X7.501 Y22.103 E15.35793
G1 X6.925 Y22.349 E15.37095
G1 X6.417 Y22.522 E15.3821
G1 X5.89 Y22.618 E15.39324
G1 X5.512 Y22.638 E15.40111
G1 X-1.874 Y22.64 E15.55464
G1 X-2.409 Y22.6 E15.5658
G1 X-2.759 Y22.53 E15.57322
G1 X-3.347 Y22.381 E15.58583
G1 X-3.856 Y22.211 E15.59698
G1 X-4.334 Y21.967 E15.60814
G1 X-4.77 Y21.655 E15.61928
G1 X-5.002 Y21.443 E15.62582
G1 X-8.647 Y17.817 E15.73269
G1 X-9.141 Y17.204 E15.74906
G1 X-9.311 Y16.938 E15.75562
G1 X-9.566 Y16.466 E15.76677
G1 X-9.747 Y15.961 E15.77792
G1 X-9.862 Y15.335 E15.79116
G1 X-9.934 Y14.566 E15.80721
G1 X-9.95 Y14.226 E15.81429
M204 S5000
G0 F2592 X-9.55 Y14.227
M204 S3000
G1 F1080 X-9.517 Y-18.382 E16.49215
G1 X-9.477 Y-18.886 E16.50266
G1 X-9.357 Y-19.377 E16.51317
G1 X-9.162 Y-19.844 E16.52369
G1 X-9.02 Y-20.093 E16.52964
G1 X-8.722 Y-20.563 E16.54121
G1 X-8.418 Y-20.967 E16.55172
G1 X-8.054 Y-21.318 E16.56223
G1 X-7.64 Y-21.608 E16.57274
G1 X-7.356 Y-21.756 E16.5794
G1 X-6.971 Y-21.933 E16.58821
G1 X-6.496 Y-22.108 E16.59873
G1 X-6 Y-22.205 E16.60924
G1 X-5.633 Y-22.226 E16.61688
G1 X5.639 Y-22.224 E16.8512
G1 X6.143 Y-22.184 E16.86171
G1 X6.634 Y-22.065 E16.87221
G1 X7.12 Y-21.86 E16.88317
G1 X7.564 Y-21.628 E16.89359
G1 X7.992 Y-21.359 E16.9041
G1 X8.373 Y-21.026 E16.91461
G1 X8.696 Y-20.638 E16.92511
G1 X8.938 Y-20.235 E16.93488
G1 X9.187 Y-19.742 E16.94636
G1 X9.379 Y-19.274 E16.95688
G1 X9.494 Y-18.782 E16.96738
G1 X9.531 Y-18.301 E16.97741
G1 X9.549 Y15.792 E17.68612
G1 X9.548 Y15.871 E17.68776
G1 X9.483 Y18.56 E17.74368
G1 X9.431 Y19.063 E17.75419
G1 X9.3 Y19.552 E17.76471
G1 X8.982 Y20.203 E17.77977
G1 X8.785 Y20.512 E17.78739
G1 X8.481 Y20.916 E17.7979
G1 X8.116 Y21.266 E17.80841
G1 X7.701 Y21.555 E17.81893
G1 X7.344 Y21.735 E17.82724
G1 X6.768 Y21.981 E17.84026
G1 X6.289 Y22.142 E17.85076
G1 X5.79 Y22.226 E17.86128
G1 X5.512 Y22.238 E17.86706
G1 X-1.874 Y22.24 E18.0206
G1 X-2.378 Y22.2 E18.03111
G1 X-2.661 Y22.142 E18.03712
G1 X-3.249 Y21.993 E18.04973
G1 X-3.728 Y21.83 E18.06024
G1 X-4.175 Y21.595 E18.07074
G1 X-4.72 Y21.16 E18.08524
G1 X-8.365 Y17.534 E18.19211
G1 X-8.804 Y16.988 E18.20668
G1 X-8.974 Y16.722 E18.21324
G1 X-9.212 Y16.276 E18.22375
G1 X-9.377 Y15.798 E18.23426
G1 X-9.464 Y15.297 E18.24483
G1 X-9.536 Y14.528 E18.26089
G1 X-9.55 Y14.227 E18.26715
M204 S5000
G1 F1500 E16.26715
G0 F2592 X-7.015 Y14.228
G0 X-5.73 Y14.228
G0 X-5.35 Y14.539
M204 S3000
;TYPE:WALL-INNER
G1 F1500 E18.3503
G1 F1080 X-5.343 Y-18.05 E19.02775
G1 X5.345 Y-18.05 E19.24993
G1 X5.35 Y-13.603 E19.34237
G1 X0.649 Y-13.596 E19.44009
G1 X0.361 Y-13.569 E19.4461
G1 X0.022 Y-13.472 E19.45343
G1 X-.328 Y-13.287 E19.46166
G1 X-.621 Y-13.046 E19.46955
G1 X-.846 Y-12.765 E19.47703
G1 X-1.025 Y-12.424 E19.48504
G1 X-1.12 Y-12.096 E19.49214
G1 X-1.152 Y-11.785 E19.49864
G1 X-1.152 Y-10.407 E19.52728
G1 X-1.114 Y-10.084 E19.53404
G1 X-1.018 Y-9.757 E19.54113
G1 X-.848 Y-9.436 E19.54868
G1 X-.583 Y-9.118 E19.55728
G1 X-.301 Y-8.893 E19.56478
G1 X0.01 Y-8.734 E19.57204
G1 X0.366 Y-8.628 E19.57976
G1 X0.652 Y-8.602 E19.58573
G1 X5.345 Y-8.601 E19.68329
G1 X5.349 Y-7.5 E19.70618
G1 X5.349 Y-7.3 E19.71033
G1 X5.149 Y-7.3 E19.71303
G1 X0.664 Y-7.299 E19.80626
G1 X0.376 Y-7.272 E19.81227
G1 X0.009 Y-7.167 E19.82021
G1 X-.318 Y-6.995 E19.82789
G1 X-.637 Y-6.729 E19.83652
G1 X-.86 Y-6.447 E19.844
G1 X-1.019 Y-6.136 E19.85126
G1 X-1.125 Y-5.781 E19.85896
G1 X-1.151 Y-5.494 E19.86495
G1 X-1.15 Y-4.484 E19.88594
G1 X-1.123 Y-4.197 E19.89194
G1 X-1.026 Y-3.858 E19.89927
G1 X-.84 Y-3.508 E19.9075
G1 X-.601 Y-3.218 E19.91532
G1 X-.324 Y-2.989 E19.92279
G1 X0.028 Y-2.807 E19.93103
G1 X0.396 Y-2.704 E19.93897
G1 X0.671 Y-2.683 E19.9447
G1 X5.35 Y-2.676 E20.04197
G1 X5.35 Y-1.005 E20.0767
G1 X0.664 Y-1 E20.17411
G1 X0.376 Y-.973 E20.18013
G1 X0.009 Y-.868 E20.18806
G1 X-.318 Y-.696 E20.19574
G1 X-.639 Y-.428 E20.20444
G1 X-.86 Y-.146 E20.21188
G1 X-1.019 Y0.161 E20.21907
G1 X-1.125 Y0.518 E20.22681
G1 X-1.151 Y0.803 E20.23276
G1 X-1.152 Y1.363 E20.2444
G1 X-1.126 Y1.717 E20.25178
G1 X-1.025 Y2.06 E20.25921
G1 X-.84 Y2.415 E20.26753
G1 X-.578 Y2.723 E20.27594
G1 X-.299 Y2.943 E20.28333
G1 X0.009 Y3.102 E20.29053
G1 X0.366 Y3.208 E20.29827
G1 X0.652 Y3.234 E20.30424
G1 X5.345 Y3.235 E20.4018
G1 X5.348 Y5.099 E20.44055
G1 X5.348 Y5.299 E20.4447
G1 X5.148 Y5.299 E20.4474
G1 X0.653 Y5.299 E20.54084
G1 X0.327 Y5.337 E20.54766
G1 X0.003 Y5.434 E20.55469
G1 X-.32 Y5.603 E20.56227
G1 X-.637 Y5.872 E20.57091
G1 X-.86 Y6.151 E20.57834
G1 X-1.019 Y6.462 E20.5856
G1 X-1.125 Y6.818 E20.59332
G1 X-1.151 Y7.099 E20.59918
G1 X-1.152 Y7.328 E20.60394
