;FLAVOR:Marlin
;TIME:1055
;Filament used: 0.6382m
;Layer height: 0.1
;Generated with Cura_SteamEngine 1.2.1
M190 S35
M104 S220
M109 S220
G28
G1 Z50.00 F400
G92 E0
G1 F200 E3
G92 E0
M132 X Y Z A
M907 X100 Y100 Z50 A100
;LAYER_COUNT:49
;LAYER:0
M107
G0 F3600 X13.399 Y12.938 Z0.3
;TYPE:SKIRT
G1 F1500 X-19.653 Y8.644 E1.66283
G1 X-20.261 Y8.525 E1.69374
G1 X-20.849 Y8.328 E1.72468
G1 X-21.406 Y8.058 E1.75556
G1 X-21.871 Y7.756 E1.78322
G1 X-22.256 Y7.474 E1.80703
G1 X-22.731 Y7.077 E1.83791
G1 X-23.151 Y6.622 E1.86881
G1 X-23.509 Y6.116 E1.89973
G1 X-23.84 Y5.473 E1.93581
G1 X-24.008 Y5.076 E1.95732
G1 X-24.213 Y4.491 E1.98824
G1 X-24.34 Y3.885 E2.01913
G1 X-24.388 Y3.267 E2.05006
G1 X-24.347 Y2.577 E2.08454
G1 X-22.85 Y-8.775 E2.6558
G1 X-22.729 Y-9.382 E2.68668
G1 X-22.532 Y-9.969 E2.71757
G1 X-22.26 Y-10.526 E2.7485
G1 X-22.095 Y-10.795 E2.76424
G1 X-21.929 Y-11.046 E2.77925
G1 X-21.554 Y-11.539 E2.81016
G1 X-21.12 Y-11.98 E2.84102
G1 X-20.632 Y-12.362 E2.87194
G1 X-19.89 Y-12.777 E2.91436
G1 X-19.333 Y-13.027 E2.94482
G1 X-18.753 Y-13.244 E2.97571
G1 X-18.15 Y-13.384 E3.0066
G1 X-17.534 Y-13.445 E3.03748
G1 X-16.747 Y-13.408 E3.07679
G1 X19.556 Y-8.674 E4.90328
G1 X20.163 Y-8.554 E4.93415
G1 X20.751 Y-8.357 E4.96509
G1 X21.11 Y-8.193 E4.98478
G1 X21.476 Y-8.007 E5.00527
G1 X22.009 Y-7.691 E5.03618
G1 X22.496 Y-7.31 E5.06703
G1 X22.911 Y-6.892 E5.09641
G1 X23.053 Y-6.73 E5.10716
G1 X23.43 Y-6.239 E5.13805
G1 X23.741 Y-5.703 E5.16896
G1 X24.018 Y-5.018 E5.20583
G1 X24.17 Y-4.539 E5.2309
G1 X24.319 Y-3.938 E5.26179
G1 X24.389 Y-3.322 E5.29272
G1 X24.355 Y-2.468 E5.33536
G1 X23.366 Y5.131 E5.71767
G1 X23.246 Y5.739 E5.74859
G1 X23.05 Y6.327 E5.77951
G1 X22.866 Y6.723 E5.8013
G1 X22.675 Y7.091 E5.82198
G1 X22.355 Y7.621 E5.85287
G1 X21.969 Y8.106 E5.8838
G1 X21.35 Y8.678 E5.92584
G1 X17.713 Y11.488 E6.15514
G1 X17.369 Y11.731 E6.17616
G1 X16.608 Y12.219 E6.22126
G1 X16.066 Y12.519 E6.25216
G1 X15.49 Y12.746 E6.28305
G1 X14.89 Y12.898 E6.31393
G1 X14.275 Y12.971 E6.34483
G1 X13.399 Y12.938 E6.38856
G0 F3600 X13.45 Y12.541
G1 F1500 X-19.602 Y8.247 E8.05139
G1 X-20.183 Y8.131 E8.08095
G1 X-20.744 Y7.939 E8.11053
G1 X-21.274 Y7.672 E8.14014
G1 X-21.635 Y7.434 E8.16171
G1 X-22.02 Y7.152 E8.18552
G1 X-22.474 Y6.77 E8.21512
G1 X-22.872 Y6.33 E8.24472
G1 X-23.207 Y5.842 E8.27425
G1 X-23.472 Y5.317 E8.30359
G1 X-23.64 Y4.92 E8.3251
G1 X-23.834 Y4.359 E8.35472
G1 X-23.951 Y3.778 E8.38428
G1 X-23.988 Y3.186 E8.41388
G1 X-23.95 Y2.63 E8.44168
G1 X-22.453 Y-8.722 E9.01294
G1 X-22.336 Y-9.304 E9.04255
G1 X-22.142 Y-9.864 E9.07212
G1 X-21.761 Y-10.574 E9.11232
G1 X-21.595 Y-10.825 E9.12733
G1 X-21.235 Y-11.297 E9.15695
G1 X-20.816 Y-11.715 E9.18648
G1 X-20.343 Y-12.074 E9.2161
G1 X-19.727 Y-12.412 E9.25116
G1 X-19.17 Y-12.662 E9.28162
G1 X-18.614 Y-12.868 E9.3112
G1 X-18.035 Y-12.997 E9.34079
G1 X-17.444 Y-13.047 E9.37038
G1 X-16.799 Y-13.011 E9.40261
G1 X19.504 Y-8.277 E11.22911
G1 X20.085 Y-8.161 E11.25867
G1 X20.646 Y-7.968 E11.28827
G1 X20.928 Y-7.837 E11.30378
G1 X21.294 Y-7.651 E11.32426
G1 X21.804 Y-7.347 E11.35389
G1 X22.268 Y-6.978 E11.38346
G1 X22.61 Y-6.628 E11.40788
G1 X22.752 Y-6.466 E11.41862
G1 X23.112 Y-5.995 E11.4482
G1 X23.405 Y-5.48 E11.47776
G1 X23.637 Y-4.897 E11.50906
G1 X23.789 Y-4.418 E11.53414
G1 X23.93 Y-3.842 E11.56372
G1 X23.992 Y-3.252 E11.59332
G1 X23.958 Y-2.519 E11.62993
G1 X22.969 Y5.08 E12.01224
G1 X22.853 Y5.661 E12.0418
G1 X22.66 Y6.222 E12.0714
G1 X22.511 Y6.539 E12.08887
G1 X22.32 Y6.907 E12.10956
G1 X22.012 Y7.414 E12.13915
G1 X21.639 Y7.874 E12.1687
G1 X21.105 Y8.362 E12.20479
G1 X17.468 Y11.172 E12.43409
G1 X17.153 Y11.394 E12.45332
G1 X16.392 Y11.882 E12.49842
G1 X15.873 Y12.168 E12.52798
G1 X15.319 Y12.381 E12.55759
G1 X14.742 Y12.518 E12.58718
G1 X14.152 Y12.576 E12.61676
G1 X13.45 Y12.541 E12.65182
G0 F3600 X13.502 Y12.145
G1 F1500 X-19.55 Y7.851 E14.31465
G1 X-20.104 Y7.738 E14.34286
G1 X-20.637 Y7.549 E14.37107
G1 X-21.138 Y7.287 E14.39928
G1 X-21.399 Y7.111 E14.41499
G1 X-21.784 Y6.829 E14.4388
G1 X-22.215 Y6.463 E14.467
G1 X-22.59 Y6.041 E14.49517
G1 X-22.903 Y5.57 E14.52338
G1 X-23.104 Y5.161 E14.54612
G1 X-23.272 Y4.764 E14.56763
G1 X-23.455 Y4.229 E14.59584
G1 X-23.56 Y3.674 E14.62402
G1 X-23.587 Y3.109 E14.65224
G1 X-23.554 Y2.682 E14.6736
G1 X-22.057 Y-8.67 E15.24486
G1 X-21.943 Y-9.224 E15.27308
G1 X-21.753 Y-9.756 E15.30126
G1 X-21.427 Y-10.354 E15.33524
G1 X-21.261 Y-10.605 E15.35025
G1 X-20.917 Y-11.053 E15.37843
G1 X-20.513 Y-11.448 E15.40662
G1 X-20.057 Y-11.782 E15.43482
G1 X-19.563 Y-12.047 E15.46279
G1 X-19.006 Y-12.297 E15.49325
G1 X-18.475 Y-12.492 E15.52147
G1 X-17.922 Y-12.609 E15.54967
G1 X-17.358 Y-12.648 E15.57788
G1 X-16.851 Y-12.614 E15.60323
G1 X19.452 Y-7.88 E17.42973
G1 X20.006 Y-7.768 E17.45793
G1 X20.747 Y-7.48 E17.49759
G1 X21.113 Y-7.294 E17.51807
G1 X21.598 Y-7.003 E17.54629
G1 X22.037 Y-6.646 E17.57452
G1 X22.309 Y-6.365 E17.59403
G1 X22.451 Y-6.203 E17.60478
G1 X22.793 Y-5.752 E17.63302
G1 X23.067 Y-5.258 E17.6612
G1 X23.256 Y-4.776 E17.68703
G1 X23.408 Y-4.297 E17.7121
G1 X23.54 Y-3.747 E17.74032
G1 X23.594 Y-3.184 E17.76854
G1 X23.562 Y-2.571 E17.79916
G1 X22.573 Y5.028 E18.18147
G1 X22.46 Y5.582 E18.20968
G1 X22.156 Y6.355 E18.25112
G1 X21.965 Y6.723 E18.27181
G1 X21.67 Y7.205 E18.3
G1 X21.31 Y7.64 E18.32817
G1 X20.861 Y8.045 E18.35834
G1 X17.224 Y10.855 E18.58764
G1 X16.937 Y11.057 E18.60515
G1 X16.176 Y11.545 E18.65025
G1 X15.68 Y11.816 E18.67845
G1 X15.15 Y12.014 E18.70667
G1 X14.598 Y12.136 E18.73488
G1 X14.035 Y12.178 E18.76304
G1 X13.502 Y12.145 E18.78969
G0 F3600 X13.553 Y11.748
G1 F1500 X-19.499 Y7.454 E20.45251
G1 X-20.024 Y7.345 E20.47926
G1 X-20.527 Y7.16 E20.506
G1 X-21.162 Y6.788 E20.54272
G1 X-21.547 Y6.506 E20.56653
G1 X-21.955 Y6.158 E20.59328
G1 X-22.307 Y5.753 E20.62005
G1 X-22.594 Y5.3 E20.64681
G1 X-22.735 Y5.005 E20.66312
G1 X-22.903 Y4.608 E20.68463
G1 X-23.075 Y4.1 E20.71138
G1 X-23.169 Y3.572 E20.73814
G1 X-23.184 Y3.036 E20.76489
G1 X-23.157 Y2.734 E20.78002
G1 X-21.66 Y-8.618 E21.35128
G1 X-21.551 Y-9.143 E21.37803
G1 X-21.364 Y-9.646 E21.4048
G1 X-21.094 Y-10.133 E21.43258
G1 X-20.928 Y-10.384 E21.44759
G1 X-20.599 Y-10.808 E21.47437
G1 X-20.212 Y-11.178 E21.50108
G1 X-19.773 Y-11.487 E21.52786
G1 X-19.399 Y-11.682 E21.54891
G1 X-18.842 Y-11.932 E21.57937
G1 X-18.338 Y-12.115 E21.60612
G1 X-17.812 Y-12.221 E21.63289
G1 X-17.276 Y-12.247 E21.65966
G1 X-16.902 Y-12.218 E21.67837
G1 X19.401 Y-7.484 E23.50487
G1 X19.926 Y-7.375 E23.53162
G1 X20.566 Y-7.123 E23.56594
G1 X20.932 Y-6.937 E23.58642
G1 X21.391 Y-6.659 E23.61319
G1 X21.803 Y-6.316 E23.63994
G1 X22.008 Y-6.101 E23.65476
G1 X22.15 Y-5.939 E23.66551
G1 X22.473 Y-5.51 E23.6923
G1 X22.728 Y-5.039 E23.71902
G1 X22.874 Y-4.655 E23.73952
G1 X23.026 Y-4.176 E23.76459
G1 X23.15 Y-3.654 E23.79135
G1 X23.195 Y-3.12 E23.81809
G1 X23.165 Y-2.622 E23.84298
G1 X22.176 Y4.977 E24.22529
G1 X22.067 Y5.502 E24.25204
G1 X21.801 Y6.17 E24.28792
G1 X21.61 Y6.538 E24.3086
G1 X21.328 Y6.995 E24.33539
G1 X20.982 Y7.404 E24.36212
G1 X20.616 Y7.729 E24.38654
G1 X16.979 Y10.539 E24.61584
G1 X16.721 Y10.72 E24.63156
G1 X15.96 Y11.208 E24.67666
G1 X15.489 Y11.464 E24.70341
G1 X14.984 Y11.646 E24.73019
G1 X14.458 Y11.751 E24.75695
G1 X13.923 Y11.777 E24.78367
G1 X13.553 Y11.748 E24.80219
G0 F3600 X13.605 Y11.351
G1 F1500 X-19.447 Y7.057 E26.46502
G1 X-19.942 Y6.953 E26.49025
G1 X-20.414 Y6.772 E26.51547
G1 X-20.926 Y6.466 E26.54523
G1 X-21.311 Y6.184 E26.56904
G1 X-21.694 Y5.854 E26.59426
G1 X-22.02 Y5.467 E26.61951
G1 X-22.367 Y4.849 E26.65487
G1 X-22.535 Y4.452 E26.67637
G1 X-22.695 Y3.972 E26.70162
G1 X-22.777 Y3.474 E26.7268
G1 X-22.761 Y2.787 E26.76108
G1 X-21.264 Y-8.565 E27.33234
G1 X-21.158 Y-9.06 E27.35759
G1 X-20.976 Y-9.531 E27.38278
G1 X-20.76 Y-9.912 E27.40463
G1 X-20.594 Y-10.163 E27.41965
G1 X-20.283 Y-10.562 E27.44489
G1 X-19.913 Y-10.906 E27.47009
G1 X-19.493 Y-11.188 E27.49533
G1 X-19.235 Y-11.317 E27.50972
G1 X-18.678 Y-11.567 E27.54018
G1 X-18.202 Y-11.737 E27.5654
G1 X-17.705 Y-11.83 E27.59062
G1 X-16.954 Y-11.821 E27.62809
G1 X19.349 Y-7.087 E29.45459
G1 X19.843 Y-6.982 E29.47979
G1 X20.385 Y-6.767 E29.50888
G1 X20.751 Y-6.581 E29.52936
G1 X21.182 Y-6.317 E29.55458
G1 X21.707 Y-5.837 E29.59007
G1 X21.849 Y-5.675 E29.60081
G1 X22.152 Y-5.27 E29.62605
G1 X22.386 Y-4.822 E29.65127
G1 X22.493 Y-4.534 E29.66659
G1 X22.645 Y-4.055 E29.69166
G1 X22.759 Y-3.562 E29.71691
G1 X22.795 Y-3.058 E29.74212
G1 X22.768 Y-2.674 E29.76132
G1 X21.779 Y4.925 E30.14364
G1 X21.675 Y5.42 E30.16887
G1 X21.446 Y5.986 E30.19933
G1 X21.255 Y6.354 E30.22002
G1 X20.988 Y6.783 E30.24523
G1 X20.656 Y7.164 E30.27044
G1 X20.371 Y7.412 E30.28929
G1 X16.734 Y10.222 E30.51859
G1 X16.505 Y10.384 E30.53258
G1 X15.744 Y10.872 E30.57768
G1 X15.299 Y11.11 E30.60286
G1 X14.821 Y11.275 E30.62809
G1 X14.323 Y11.363 E30.65332
G1 X13.605 Y11.351 E30.68915
G1 F1500 E28.68915
G0 F3600 X13.764 Y8.865
G0 X13.78 Y7.58
G0 X13.727 Y7.188
;TYPE:WALL-INNER
G1 F1500 E30.7723
G1 X-18.584 Y2.96 E32.39804
G1 X-17.226 Y-7.446 E32.9216
G1 X-17.201 Y-7.644 E32.93156
G1 X-17.003 Y-7.618 E32.93798
G1 X-12.797 Y-7.064 E33.14963
G1 X-13.405 Y-2.357 E33.38641
G1 X-13.406 Y-2.104 E33.39903
G1 X-13.369 Y-1.851 E33.41179
G1 X-13.312 Y-1.64 E33.4227
G1 X-13.212 Y-1.386 E33.43631
G1 X-13.013 Y-1.073 E33.45482
G1 X-12.758 Y-.806 E33.47324
G1 X-12.537 Y-.648 E33.48679
G1 X-12.345 Y-.542 E33.49773
G1 X-12.113 Y-.449 E33.5102
G1 X-11.882 Y-.393 E33.52206
G1 X-10.416 Y-.201 E33.59583
G1 X-10.166 Y-.2 E33.6083
G1 X-9.915 Y-.234 E33.62094
G1 X-9.695 Y-.293 E33.6323
G1 X-9.444 Y-.394 E33.6458
G1 X-9.141 Y-.584 E33.66364
G1 X-8.935 Y-.774 E33.67762
G1 X-8.79 Y-.946 E33.68885
G1 X-8.647 Y-1.163 E33.70181
G1 X-8.545 Y-1.39 E33.71423
G1 X-8.479 Y-1.592 E33.72483
G1 X-8.441 Y-1.79 E33.73489
G1 X-7.856 Y-6.219 E33.95777
G1 X-7.83 Y-6.417 E33.96773
G1 X-7.632 Y-6.391 E33.97417
G1 X-6.547 Y-6.246 E34.02878
G1 X-7.159 Y-1.538 E34.26564
G1 X-7.159 Y-1.289 E34.27806
G1 X-7.125 Y-1.039 E34.29065
G1 X-7.066 Y-.823 E34.30182
G1 X-6.966 Y-.57 E34.31539
G1 X-6.767 Y-.254 E34.33402
G1 X-6.51 Y0.01 E34.3524
G1 X-6.291 Y0.168 E34.36588
G1 X-6.102 Y0.272 E34.37664
G1 X-5.871 Y0.368 E34.38912
G1 X-5.637 Y0.424 E34.40112
G1 X-4.544 Y0.567 E34.45612
G1 X-4.297 Y0.567 E34.46844
G1 X-4.047 Y0.534 E34.48102
G1 X-3.831 Y0.475 E34.49219
G1 X-3.573 Y0.374 E34.50602
G1 X-3.273 Y0.182 E34.52379
G1 X-3.066 Y-0.006 E34.53774
G1 X-2.919 Y-.184 E34.54925
G1 X-2.766 Y-.417 E34.56316
G1 X-2.616 Y-.796 E34.5835
G1 X-2.573 Y-1.022 E34.59497
G1 X-1.961 Y-5.649 E34.82783
G1 X-.301 Y-5.431 E34.91135
G1 X-.913 Y-.721 E35.14831
G1 X-.913 Y-.473 E35.16069
G1 X-.879 Y-.221 E35.17337
G1 X-.82 Y-0.007 E35.18445
G1 X-.72 Y0.247 E35.19807
G1 X-.521 Y0.56 E35.21657
G1 X-.264 Y0.827 E35.23506
G1 X-0.042 Y0.985 E35.24865
G1 X0.144 Y1.088 E35.25926
G1 X0.375 Y1.184 E35.27174
G1 X0.609 Y1.24 E35.28374
G1 X1.316 Y1.333 E35.31932
G1 X1.571 Y1.335 E35.33204
G1 X1.823 Y1.3 E35.34474
G1 X2.037 Y1.244 E35.35577
G1 X2.294 Y1.141 E35.36959
G1 X2.596 Y0.949 E35.38744
G1 X2.802 Y0.76 E35.40139
G1 X2.949 Y0.584 E35.41283
G1 X3.102 Y0.348 E35.42686
G1 X3.249 Y-0.022 E35.44672
G1 X3.296 Y-.247 E35.45819
G1 X3.908 Y-4.879 E35.69129
G1 X5.942 Y-4.616 E35.79361
G1 X5.334 Y0.091 E36.0304
G1 X5.333 Y0.342 E36.04292
G1 X5.367 Y0.595 E36.05565
G1 X5.426 Y0.809 E36.06673
G1 X5.526 Y1.063 E36.08035
G1 X5.725 Y1.379 E36.09898
G1 X5.982 Y1.643 E36.11736
G1 X6.199 Y1.799 E36.13069
G1 X6.394 Y1.908 E36.14184
G1 X6.641 Y2.005 E36.15508
G1 X6.99 Y2.08 E36.17289
G1 X7.416 Y2.107 E36.19418
G1 X7.695 Y2.065 E36.20826
G1 X7.907 Y2.008 E36.21921
G1 X8.16 Y1.908 E36.23278
G1 X8.476 Y1.709 E36.25141
G1 X8.74 Y1.452 E36.2698
G1 X8.896 Y1.235 E36.28313
G1 X9.003 Y1.045 E36.29401
G1 X9.098 Y0.81 E36.30665
G1 X9.154 Y0.58 E36.31846
G1 X9.775 Y-4.112 E36.55459
G1 X12.187 Y-3.799 E36.67593
G1 X11.563 Y1.031 E36.91891
G1 X11.563 Y1.266 E36.93063
G1 X11.597 Y1.498 E36.94233
G1 X11.651 Y1.699 E36.95271
G1 X11.744 Y1.933 E36.96527
G1 X11.929 Y2.224 E36.98248
G1 X12.162 Y2.467 E36.99927
G1 X12.372 Y2.621 E37.01227
G1 X12.555 Y2.719 E37.02262
G1 X12.786 Y2.814 E37.03508
G1 X13.15 Y2.884 E37.05358
G1 X13.414 Y2.884 E37.06675
G1 X13.644 Y2.852 E37.07833
G1 X13.843 Y2.799 E37.08861
G1 X14.084 Y2.704 E37.10153
G1 X14.365 Y2.523 E37.11821
G1 X14.549 Y2.354 E37.13067
G1 X14.691 Y2.191 E37.14146
G1 X14.837 Y1.965 E37.15488
G1 X14.976 Y1.618 E37.17353
G1 X15.016 Y1.406 E37.18429
G1 X15.643 Y-3.345 E37.42338
G1 X18.389 Y-2.988 E37.56153
G1 X18.587 Y-2.963 E37.57148
G1 X18.562 Y-2.765 E37.57791
G1 X17.656 Y4.163 E37.9265
G1 X15.919 Y3.943 E38.01385
G1 X15.671 Y3.942 E38.02622
G1 X15.415 Y3.976 E38.0391
G1 X15.199 Y4.036 E38.05029
G1 X14.947 Y4.136 E38.06381
G1 X14.636 Y4.335 E38.08223
G1 X14.37 Y4.589 E38.10058
G1 X14.212 Y4.811 E38.11418
G1 X14.107 Y5.002 E38.12505
G1 X14.012 Y5.231 E38.13742
G1 X13.956 Y5.462 E38.14928
G1 X13.727 Y7.188 E38.23614
G0 F3600 X13.779 Y7.599
G1 F1500 X-18.825 Y3.332 E39.87664
G1 X-18.892 Y3.298 E39.88038
G1 X-18.954 Y3.237 E39.88472
G1 X-18.976 Y3.2 E39.88687
G1 X-19.006 Y3.097 E39.89222
G1 X-17.579 Y-7.84 E40.4425
G1 X-17.579 Y-7.845 E40.44275
G1 X-17.561 Y-7.905 E40.44587
G1 X-17.525 Y-7.961 E40.44919
G1 X-17.44 Y-8.031 E40.45469
G1 X-17.388 Y-8.052 E40.45749
G1 X-17.251 Y-8.054 E40.46432
G1 X-17.246 Y-8.054 E40.46457
G1 X-12.57 Y-7.438 E40.69987
G1 X-12.465 Y-7.381 E40.70583
G1 X-12.431 Y-7.345 E40.7083
G1 X-12.402 Y-7.296 E40.71114
G1 X-12.376 Y-7.195 E40.71635
G1 X-13.005 Y-2.33 E40.96108
G1 X-13.006 Y-2.132 E40.97096
G1 X-12.977 Y-1.932 E40.98104
G1 X-12.932 Y-1.766 E40.98962
G1 X-12.854 Y-1.568 E41.00024
G1 X-12.697 Y-1.321 E41.01484
G1 X-12.495 Y-1.11 E41.02942
G1 X-12.323 Y-.987 E41.03997
G1 X-12.173 Y-.904 E41.04852
G1 X-11.991 Y-.831 E41.0583
G1 X-11.809 Y-.787 E41.06764
G1 X-10.389 Y-.601 E41.13909
G1 X-10.192 Y-.6 E41.14892
G1 X-9.994 Y-.627 E41.15889
G1 X-9.822 Y-.673 E41.16777
G1 X-9.626 Y-.752 E41.17832
G1 X-9.385 Y-.903 E41.19251
G1 X-9.225 Y-1.051 E41.20338
G1 X-9.111 Y-1.186 E41.21219
G1 X-8.999 Y-1.356 E41.22235
G1 X-8.919 Y-1.535 E41.23213
G1 X-8.867 Y-1.693 E41.24043
G1 X-8.836 Y-1.854 E41.24861
G1 X-8.208 Y-6.612 E41.48805
G1 X-8.204 Y-6.645 E41.48971
G1 X-8.149 Y-6.744 E41.49536
G1 X-8.113 Y-6.779 E41.49786
G1 X-8.065 Y-6.808 E41.50066
G1 X-7.993 Y-6.831 E41.50443
G1 X-7.931 Y-6.834 E41.50753
G1 X-7.898 Y-6.83 E41.50919
G1 X-6.311 Y-6.617 E41.58907
G1 X-6.243 Y-6.584 E41.59284
G1 X-6.176 Y-6.518 E41.59753
G1 X-6.148 Y-6.466 E41.60048
G1 X-6.13 Y-6.35 E41.60634
G1 X-6.759 Y-1.512 E41.84974
G1 X-6.759 Y-1.316 E41.85952
G1 X-6.732 Y-1.119 E41.86944
G1 X-6.686 Y-.949 E41.87822
G1 X-6.608 Y-.752 E41.88879
G1 X-6.451 Y-.503 E41.90348
G1 X-6.248 Y-.294 E41.91801
G1 X-6.077 Y-.171 E41.92852
G1 X-5.928 Y-0.089 E41.93701
G1 X-5.747 Y-0.014 E41.94678
G1 X-5.564 Y0.03 E41.95617
G1 X-4.518 Y0.167 E42.0088
G1 X-4.323 Y0.167 E42.01853
G1 X-4.126 Y0.141 E42.02845
G1 X-3.957 Y0.095 E42.03718
G1 X-3.756 Y0.016 E42.04796
G1 X-3.517 Y-.137 E42.06212
G1 X-3.356 Y-.283 E42.07296
G1 X-3.241 Y-.422 E42.08196
G1 X-3.123 Y-.602 E42.0927
G1 X-3.002 Y-.908 E42.10912
G1 X-2.968 Y-1.086 E42.11816
G1 X-2.333 Y-5.887 E42.35977
G1 X-2.272 Y-5.986 E42.36557
G1 X-2.188 Y-6.045 E42.37069
G1 X-2.128 Y-6.063 E42.37381
G1 X-2.064 Y-6.067 E42.37701
G1 X-0.078 Y-5.805 E42.47695
G1 X0.005 Y-5.765 E42.48155
G1 X0.067 Y-5.705 E42.48585
G1 X0.1 Y-5.645 E42.48927
G1 X0.116 Y-5.533 E42.49491
G1 X-.513 Y-.695 E42.73831
G1 X-.513 Y-.5 E42.74804
G1 X-.486 Y-.301 E42.75806
