;FLAVOR:Marlin
;TIME:1120
;Filament used: 0.633061m
;Layer height: 0.1
;Generated with Cura_SteamEngine 1.2.1
M104 S220
M109 S220
G90
G28
M132 X Y Z A
G1 Z100 F3300
G1 X-110.5 Y-74 F6000
M6 T0
M907 X100 Y100 Z60 A100
G1 Z0.6 F3300
G4 P2000
M108 T0

;LAYER_COUNT:51
;LAYER:0
M107
M204 S5000
G0 F2592 X13.181 Y13.748 Z0.125
M204 S3000
;TYPE:SKIRT
G1 F1080 X-19.405 Y9.507 E0.6831
G1 X-20.097 Y9.372 E0.69775
G1 X-20.568 Y9.249 E0.70787
G1 X-21.204 Y9.042 E0.72178
G1 X-21.811 Y8.76 E0.73569
G1 X-22.38 Y8.408 E0.7496
G1 X-22.799 Y8.082 E0.76063
G1 X-23.066 Y7.853 E0.76795
G1 X-23.547 Y7.388 E0.78185
G1 X-23.969 Y6.868 E0.79577
G1 X-24.326 Y6.303 E0.80967
G1 X-24.714 Y5.429 E0.82955
G1 X-24.889 Y4.922 E0.8407
G1 X-25.069 Y4.278 E0.8546
G1 X-25.171 Y3.617 E0.8685
G1 X-25.193 Y2.948 E0.88241
G1 X-25.147 Y2.364 E0.89459
G1 X-23.675 Y-8.82 E1.12908
G1 X-23.548 Y-9.477 E1.14299
G1 X-23.344 Y-10.114 E1.1569
G1 X-23.065 Y-10.722 E1.1708
G1 X-22.877 Y-11.048 E1.17863
G1 X-22.694 Y-11.342 E1.18583
G1 X-22.307 Y-11.888 E1.19974
G1 X-21.858 Y-12.384 E1.21365
G1 X-21.353 Y-12.823 E1.22756
G1 X-20.706 Y-13.252 E1.24369
G1 X-20.273 Y-13.498 E1.25405
G1 X-19.673 Y-13.793 E1.26794
G1 X-19.042 Y-14.015 E1.28185
G1 X-18.388 Y-14.159 E1.29577
G1 X-17.723 Y-14.225 E1.30966
G1 X-16.789 Y-14.183 E1.3291
G1 X19.422 Y-9.504 E2.08809
G1 X20.165 Y-9.356 E2.10384
G1 X20.62 Y-9.233 E2.11364
G1 X21.255 Y-9.02 E2.12756
G1 X21.859 Y-8.733 E2.14146
G1 X22.425 Y-8.376 E2.15537
G1 X22.855 Y-8.034 E2.1668
G1 X23.127 Y-7.795 E2.17432
G1 X23.603 Y-7.324 E2.18824
G1 X24.018 Y-6.8 E2.20214
G1 X24.487 Y-5.995 E2.22151
G1 X24.626 Y-5.703 E2.22823
G1 X24.877 Y-5.083 E2.24213
G1 X25.053 Y-4.437 E2.25605
G1 X25.149 Y-3.775 E2.26996
G1 X25.155 Y-2.892 E2.28831
G1 X25.065 Y-1.649 E2.31422
G1 X25.032 Y-1.321 E2.32107
G1 X24.201 Y4.979 E2.45317
G1 X24.074 Y5.636 E2.46708
G1 X23.946 Y6.063 E2.47634
G1 X23.74 Y6.664 E2.48955
G1 X23.486 Y7.283 E2.50346
G1 X23.16 Y7.867 E2.51736
G1 X22.766 Y8.408 E2.53128
G1 X22.311 Y8.898 E2.54518
G1 X21.879 Y9.27 E2.55703
G1 X17.759 Y12.471 E2.66548
G1 X17.207 Y12.849 E2.67939
G1 X16.614 Y13.159 E2.6933
G1 X16.166 Y13.337 E2.70332
G1 X15.747 Y13.483 E2.71254
G1 X15.103 Y13.665 E2.72646
G1 X14.442 Y13.769 E2.74037
G1 X13.773 Y13.793 E2.75428
G1 X13.181 Y13.748 E2.76662
M204 S5000
G0 F2592 X13.233 Y13.352
M204 S3000
G1 F1080 X-19.353 Y9.111 E3.44972
G1 X-19.996 Y8.985 E3.46334
G1 X-20.467 Y8.862 E3.47346
G1 X-21.079 Y8.661 E3.48685
G1 X-21.662 Y8.386 E3.50025
G1 X-22.206 Y8.04 E3.51365
G1 X-22.538 Y7.778 E3.52244
G1 X-22.805 Y7.549 E3.52976
G1 X-23.268 Y7.1 E3.54316
G1 X-23.671 Y6.597 E3.55656
G1 X-24.009 Y6.048 E3.56996
G1 X-24.335 Y5.299 E3.58694
G1 X-24.51 Y4.792 E3.59809
G1 X-24.683 Y4.17 E3.61151
G1 X-24.777 Y3.533 E3.6249
G1 X-24.791 Y2.888 E3.63831
G1 X-24.751 Y2.416 E3.64816
G1 X-23.279 Y-8.768 E3.88265
G1 X-23.155 Y-9.4 E3.89604
G1 X-22.954 Y-10.013 E3.90945
G1 X-22.538 Y-10.837 E3.92864
G1 X-22.355 Y-11.131 E3.93584
G1 X-21.981 Y-11.656 E3.94924
G1 X-21.545 Y-12.131 E3.96264
G1 X-21.053 Y-12.548 E3.97605
G1 X-20.509 Y-12.904 E3.98956
G1 X-20.076 Y-13.15 E3.99991
G1 X-19.496 Y-13.433 E4.01333
G1 X-18.887 Y-13.643 E4.02672
G1 X-18.256 Y-13.775 E4.04012
G1 X-17.613 Y-13.828 E4.05353
G1 X-16.841 Y-13.786 E4.0696
G1 X19.37 Y-9.107 E4.8286
G1 X20.061 Y-8.97 E4.84324
G1 X20.516 Y-8.847 E4.85304
G1 X21.127 Y-8.64 E4.86645
G1 X21.707 Y-8.36 E4.87984
G1 X22.248 Y-8.01 E4.89324
G1 X22.591 Y-7.733 E4.9024
G1 X22.863 Y-7.494 E4.90993
G1 X23.32 Y-7.04 E4.92332
G1 X23.718 Y-6.532 E4.93673
G1 X24.126 Y-5.823 E4.95374
G1 X24.265 Y-5.531 E4.96046
G1 X24.506 Y-4.933 E4.97386
G1 X24.67 Y-4.31 E4.98725
G1 X24.756 Y-3.671 E5.00066
G1 X24.756 Y-2.92 E5.01627
G1 X24.666 Y-1.677 E5.04218
G1 X24.635 Y-1.373 E5.04853
G1 X23.804 Y4.927 E5.18062
G1 X23.681 Y5.56 E5.19403
G1 X23.568 Y5.933 E5.20213
G1 X23.362 Y6.534 E5.21534
G1 X23.116 Y7.13 E5.22874
G1 X22.797 Y7.69 E5.24214
G1 X22.412 Y8.207 E5.25554
G1 X21.966 Y8.673 E5.26895
G1 X21.633 Y8.954 E5.278
G1 X17.513 Y12.155 E5.38646
G1 X16.981 Y12.519 E5.39986
G1 X16.407 Y12.813 E5.41327
G1 X16.034 Y12.959 E5.42159
G1 X15.615 Y13.105 E5.43082
G1 X14.994 Y13.279 E5.44422
G1 X14.357 Y13.375 E5.45761
G1 X13.712 Y13.391 E5.47103
G1 X13.233 Y13.352 E5.48102
M204 S5000
G0 F2592 X13.285 Y12.955
M204 S3000
G1 F1080 X-19.301 Y8.714 E6.16411
G1 X-19.895 Y8.598 E6.17669
G1 X-20.366 Y8.475 E6.18681
G1 X-20.954 Y8.28 E6.19969
G1 X-21.512 Y8.012 E6.21256
G1 X-22.03 Y7.673 E6.22543
G1 X-22.278 Y7.474 E6.23204
G1 X-22.545 Y7.245 E6.23935
G1 X-22.988 Y6.813 E6.25221
G1 X-23.372 Y6.327 E6.26509
G1 X-23.69 Y5.795 E6.27797
G1 X-23.957 Y5.168 E6.29214
G1 X-24.132 Y4.661 E6.30329
G1 X-24.296 Y4.064 E6.31616
G1 X-24.382 Y3.45 E6.32905
G1 X-24.388 Y2.831 E6.34191
G1 X-24.354 Y2.469 E6.34947
G1 X-22.882 Y-8.715 E6.58397
G1 X-22.762 Y-9.323 E6.59685
G1 X-22.564 Y-9.91 E6.60973
G1 X-22.198 Y-10.626 E6.62644
G1 X-22.015 Y-10.92 E6.63364
G1 X-21.655 Y-11.423 E6.6465
G1 X-21.232 Y-11.876 E6.65938
G1 X-20.755 Y-12.271 E6.67226
G1 X-20.311 Y-12.556 E6.68323
G1 X-19.878 Y-12.802 E6.69358
G1 X-19.321 Y-13.073 E6.70645
G1 X-18.734 Y-13.27 E6.71932
G1 X-18.126 Y-13.389 E6.7322
G1 X-17.508 Y-13.429 E6.74508
G1 X-16.892 Y-13.389 E6.75791
G1 X19.319 Y-8.71 E7.51691
G1 X19.957 Y-8.584 E7.53043
G1 X20.412 Y-8.461 E7.54022
G1 X20.998 Y-8.261 E7.55309
G1 X21.553 Y-7.987 E7.56596
G1 X22.069 Y-7.644 E7.57884
G1 X22.327 Y-7.433 E7.58577
G1 X22.599 Y-7.194 E7.5933
G1 X23.037 Y-6.756 E7.60617
G1 X23.415 Y-6.265 E7.61905
G1 X23.765 Y-5.651 E7.63375
G1 X23.904 Y-5.359 E7.64047
G1 X24.134 Y-4.784 E7.65334
G1 X24.287 Y-4.184 E7.66621
G1 X24.362 Y-3.569 E7.67909
G1 X24.357 Y-2.949 E7.69198
G1 X24.267 Y-1.706 E7.71789
G1 X24.239 Y-1.425 E7.72376
G1 X23.408 Y4.875 E7.85585
G1 X23.287 Y5.482 E7.86872
G1 X23.19 Y5.803 E7.87569
G1 X22.984 Y6.404 E7.8889
G1 X22.745 Y6.976 E7.90178
G1 X22.436 Y7.512 E7.91465
G1 X22.059 Y8.004 E7.92753
G1 X21.388 Y8.638 E7.94672
G1 X17.268 Y11.839 E8.05518
G1 X16.755 Y12.187 E8.06806
G1 X16.202 Y12.466 E8.08094
G1 X15.902 Y12.582 E8.08762
G1 X15.483 Y12.728 E8.09685
G1 X14.887 Y12.893 E8.1097
G1 X14.273 Y12.981 E8.1226
G1 X13.654 Y12.988 E8.13547
G1 X13.285 Y12.955 E8.14317
M204 S5000
G0 F2592 X13.336 Y12.558
M204 S3000
G1 F1080 X-19.25 Y8.317 E8.82626
G1 X-19.794 Y8.211 E8.83779
G1 X-20.265 Y8.088 E8.84791
G1 X-20.827 Y7.9 E8.86022
G1 X-21.359 Y7.638 E8.87255
G1 X-22.018 Y7.171 E8.88934
G1 X-22.285 Y6.942 E8.89665
G1 X-22.708 Y6.526 E8.90899
G1 X-23.071 Y6.058 E8.9213
G1 X-23.368 Y5.545 E8.93362
G1 X-23.579 Y5.038 E8.94504
G1 X-23.754 Y4.531 E8.95619
G1 X-23.909 Y3.958 E8.96853
G1 X-23.986 Y3.37 E8.98085
G1 X-23.957 Y2.521 E8.99851
G1 X-22.485 Y-8.663 E9.233
G1 X-22.369 Y-9.245 E9.24534
G1 X-22.175 Y-9.805 E9.25766
G1 X-21.858 Y-10.414 E9.27193
G1 X-21.675 Y-10.708 E9.27913
G1 X-21.329 Y-11.189 E9.29145
G1 X-20.921 Y-11.619 E9.30377
G1 X-20.459 Y-11.991 E9.3161
G1 X-20.113 Y-12.209 E9.3246
G1 X-19.68 Y-12.455 E9.33495
G1 X-19.146 Y-12.712 E9.34727
G1 X-18.582 Y-12.896 E9.35961
G1 X-17.999 Y-13.001 E9.37192
G1 X-17.407 Y-13.028 E9.38424
G1 X-16.943 Y-12.993 E9.39391
G1 X19.268 Y-8.314 E10.15291
G1 X19.852 Y-8.198 E10.16529
G1 X20.307 Y-8.075 E10.17508
G1 X20.868 Y-7.882 E10.18742
G1 X21.398 Y-7.615 E10.19975
G1 X22.063 Y-7.132 E10.21684
G1 X22.335 Y-6.893 E10.22437
G1 X22.753 Y-6.473 E10.23668
G1 X23.111 Y-6 E10.24901
G1 X23.404 Y-5.479 E10.26144
G1 X23.543 Y-5.187 E10.26816
G1 X23.761 Y-4.636 E10.28048
G1 X23.903 Y-4.06 E10.29281
G1 X23.967 Y-3.471 E10.30513
G1 X23.959 Y-2.978 E10.31538
G1 X23.869 Y-1.735 E10.34128
G1 X23.842 Y-1.478 E10.34666
G1 X23.011 Y4.822 E10.47875
G1 X22.811 Y5.674 E10.49695
G1 X22.605 Y6.275 E10.51015
G1 X22.376 Y6.821 E10.52246
G1 X22.075 Y7.332 E10.53479
G1 X21.708 Y7.798 E10.54712
G1 X21.143 Y8.323 E10.56315
G1 X17.023 Y11.524 E10.67161
G1 X16.531 Y11.855 E10.68393
G1 X15.771 Y12.204 E10.70132
G1 X15.352 Y12.35 E10.71054
G1 X14.78 Y12.507 E10.72287
G1 X14.192 Y12.586 E10.73521
G1 X13.336 Y12.558 E10.75301
M204 S5000
G0 F2592 X13.388 Y12.162
M204 S3000
G1 F1080 X-19.198 Y7.921 E11.43611
G1 X-19.693 Y7.824 E11.44659
G1 X-20.164 Y7.701 E11.45671
G1 X-20.699 Y7.52 E11.46845
G1 X-21.204 Y7.265 E11.48021
G1 X-21.757 Y6.867 E11.49438
G1 X-22.024 Y6.638 E11.50169
G1 X-22.426 Y6.241 E11.51343
G1 X-22.768 Y5.791 E11.52518
G1 X-23.043 Y5.297 E11.53693
G1 X-23.201 Y4.907 E11.54568
G1 X-23.376 Y4.4 E11.55683
G1 X-23.522 Y3.854 E11.56858
G1 X-23.59 Y3.293 E11.58033
G1 X-23.561 Y2.573 E11.59531
G1 X-22.089 Y-8.611 E11.8298
G1 X-21.976 Y-9.165 E11.84155
G1 X-21.785 Y-9.697 E11.8533
G1 X-21.519 Y-10.203 E11.86519
G1 X-21.336 Y-10.497 E11.87239
G1 X-21.004 Y-10.954 E11.88413
G1 X-20.611 Y-11.361 E11.89589
G1 X-20.164 Y-11.707 E11.90764
G1 X-19.916 Y-11.861 E11.91371
G1 X-19.483 Y-12.107 E11.92406
G1 X-18.973 Y-12.351 E11.93581
G1 X-18.434 Y-12.52 E11.94756
G1 X-17.876 Y-12.612 E11.95931
G1 X-17.31 Y-12.624 E11.97108
G1 X-16.994 Y-12.596 E11.97767
G1 X19.217 Y-7.917 E12.73667
G1 X19.748 Y-7.811 E12.74793
G1 X20.203 Y-7.688 E12.75773
G1 X20.737 Y-7.503 E12.76947
G1 X21.239 Y-7.244 E12.78122
G1 X21.799 Y-6.832 E12.79567
G1 X22.071 Y-6.593 E12.80319
G1 X22.469 Y-6.191 E12.81495
G1 X22.805 Y-5.736 E12.82671
G1 X23.043 Y-5.307 E12.83691
G1 X23.182 Y-5.015 E12.84363
G1 X23.388 Y-4.489 E12.85538
G1 X23.518 Y-3.939 E12.86712
G1 X23.569 Y-3.376 E12.87888
G1 X23.56 Y-3.007 E12.88655
G1 X23.47 Y-1.764 E12.91245
G1 X23.446 Y-1.53 E12.91734
G1 X22.615 Y4.77 E13.04944
G1 X22.433 Y5.544 E13.06597
G1 X22.227 Y6.145 E13.07918
G1 X22.006 Y6.665 E13.09092
G1 X21.714 Y7.15 E13.10269
G1 X21.357 Y7.588 E13.11444
G1 X20.897 Y8.007 E13.12737
G1 X16.777 Y11.208 E13.23583
G1 X16.307 Y11.522 E13.24758
G1 X15.639 Y11.826 E13.26283
G1 X15.22 Y11.972 E13.27206
G1 X14.675 Y12.12 E13.2838
G1 X14.113 Y12.19 E13.29557
G1 X13.388 Y12.162 E13.31065
M204 S5000
G0 F2592 X13.439 Y11.765
M204 S3000
G1 F1080 X-19.147 Y7.524 E13.99375
G1 X-19.592 Y7.437 E14.00317
G1 X-20.063 Y7.314 E14.01329
G1 X-20.57 Y7.14 E14.02444
G1 X-21.046 Y6.893 E14.03558
G1 X-21.497 Y6.564 E14.04719
G1 X-21.764 Y6.335 E14.0545
G1 X-22.144 Y5.956 E14.06566
G1 X-22.463 Y5.525 E14.0768
G1 X-22.715 Y5.052 E14.08794
G1 X-22.823 Y4.777 E14.09409
G1 X-22.998 Y4.27 E14.10524
G1 X-23.135 Y3.751 E14.11639
G1 X-23.193 Y3.218 E14.12754
G1 X-23.164 Y2.625 E14.13988
G1 X-21.692 Y-8.559 E14.37437
G1 X-21.583 Y-9.084 E14.38552
G1 X-21.397 Y-9.587 E14.39667
G1 X-21.179 Y-9.991 E14.40621
G1 X-20.996 Y-10.285 E14.41341
G1 X-20.68 Y-10.718 E14.42455
G1 X-20.302 Y-11.099 E14.43571
G1 X-19.718 Y-11.513 E14.45059
G1 X-19.285 Y-11.759 E14.46094
G1 X-18.801 Y-11.989 E14.47208
G1 X-18.287 Y-12.143 E14.48324
G1 X-17.756 Y-12.22 E14.49439
G1 X-17.046 Y-12.199 E14.50916
G1 X19.165 Y-7.52 E15.26815
G1 X19.643 Y-7.425 E15.27828
G1 X20.098 Y-7.302 E15.28808
G1 X20.604 Y-7.124 E15.29923
G1 X21.078 Y-6.873 E15.31038
G1 X21.535 Y-6.531 E15.32225
G1 X21.807 Y-6.292 E15.32977
G1 X22.183 Y-5.909 E15.34093
G1 X22.497 Y-5.475 E15.35207
G1 X22.682 Y-5.135 E15.36011
G1 X22.821 Y-4.843 E15.36684
G1 X23.014 Y-4.343 E15.37798
G1 X23.132 Y-3.82 E15.38912
G1 X23.161 Y-3.036 E15.40543
G1 X23.071 Y-1.793 E15.43134
G1 X23.049 Y-1.582 E15.43575
G1 X22.218 Y4.718 E15.56784
G1 X22.055 Y5.414 E15.5827
G1 X21.849 Y6.015 E15.59591
G1 X21.637 Y6.508 E15.60707
G1 X21.355 Y6.964 E15.61821
G1 X21.009 Y7.373 E15.62935
G1 X20.652 Y7.691 E15.63929
G1 X16.532 Y10.892 E15.74774
G1 X16.085 Y11.188 E15.75889
G1 X15.508 Y11.449 E15.77205
G1 X15.089 Y11.595 E15.78127
G1 X14.57 Y11.733 E15.79244
G1 X14.037 Y11.793 E15.80359
G1 X13.439 Y11.765 E15.81603
M204 S5000
G0 F2592 X13.491 Y11.368
M204 S3000
G1 F1080 X-19.095 Y7.127 E16.49913
G1 X-19.491 Y7.05 E16.50752
G1 X-19.962 Y6.927 E16.51763
G1 X-20.439 Y6.761 E16.52813
G1 X-20.885 Y6.522 E16.53865
G1 X-21.236 Y6.26 E16.54776
G1 X-21.503 Y6.031 E16.55507
G1 X-21.86 Y5.673 E16.56558
G1 X-22.155 Y5.262 E16.5761
G1 X-22.445 Y4.646 E16.59025
G1 X-22.62 Y4.139 E16.6014
G1 X-22.747 Y3.65 E16.6119
G1 X-22.795 Y3.146 E16.62243
G1 X-22.768 Y2.677 E16.63219
G1 X-21.296 Y-8.507 E16.86668
G1 X-21.19 Y-9.001 E16.87719
G1 X-21.008 Y-9.473 E16.8877
G1 X-20.84 Y-9.78 E16.89498
G1 X-20.657 Y-10.074 E16.90218
G1 X-20.356 Y-10.481 E16.9127
G1 X-19.996 Y-10.835 E16.92319
G1 X-19.521 Y-11.165 E16.93522
G1 X-19.088 Y-11.411 E16.94557
G1 X-18.63 Y-11.626 E16.95609
G1 X-18.144 Y-11.765 E16.9666
G1 X-17.642 Y-11.826 E16.97711
G1 X-17.097 Y-11.803 E16.98845
G1 X19.114 Y-7.124 E17.74744
G1 X19.539 Y-7.039 E17.75645
G1 X19.994 Y-6.916 E17.76625
G1 X20.47 Y-6.746 E17.77676
G1 X20.914 Y-6.503 E17.78728
G1 X21.271 Y-6.231 E17.79661
G1 X21.543 Y-5.992 E17.80414
G1 X21.895 Y-5.629 E17.81465
G1 X22.186 Y-5.216 E17.82515
G1 X22.32 Y-4.963 E17.8311
G1 X22.459 Y-4.671 E17.83782
G1 X22.64 Y-4.199 E17.84833
G1 X22.744 Y-3.704 E17.85885
G1 X22.762 Y-3.065 E17.87214
G1 X22.672 Y-1.822 E17.89804
G1 X22.653 Y-1.635 E17.90195
G1 X21.822 Y4.665 E18.03405
G1 X21.676 Y5.285 E18.04729
G1 X21.47 Y5.886 E18.06049
G1 X21.269 Y6.349 E18.07099
G1 X20.997 Y6.776 E18.08151
G1 X20.662 Y7.154 E18.09201
G1 X20.406 Y7.375 E18.09904
G1 X16.286 Y10.576 E18.2075
G1 X15.864 Y10.854 E18.218
G1 X15.376 Y11.071 E18.2291
G1 X14.957 Y11.217 E18.23833
G1 X14.468 Y11.345 E18.24883
G1 X13.965 Y11.394 E18.25934
G1 X13.491 Y11.368 E18.26921
M204 S5000
G1 F1500 E16.26921
G0 F2592 X13.74 Y8.865
G0 X13.781 Y7.581
G0 X13.728 Y7.189
M204 S3000
;TYPE:WALL-INNER
G1 F1500 E18.35236
G1 F1080 X-18.393 Y2.988 E19.02576
G1 X-18.591 Y2.963 E19.02991
G1 X-18.566 Y2.765 E19.03259
G1 X-17.204 Y-7.644 E19.25081
G1 X-12.791 Y-7.067 E19.34333
G1 X-13.4 Y-2.4 E19.44117
G1 X-13.408 Y-2.102 E19.44736
G1 X-13.353 Y-1.769 E19.45438
G1 X-13.222 Y-1.398 E19.46256
G1 X-13.013 Y-1.072 E19.47061
G1 X-12.767 Y-.817 E19.47797
G1 X-12.454 Y-.594 E19.48596
G1 X-12.138 Y-.456 E19.49313
G1 X-11.836 Y-.385 E19.49958
G1 X-10.466 Y-.205 E19.5283
G1 X-10.14 Y-.203 E19.53508
G1 X-9.808 Y-.255 E19.54207
G1 X-9.468 Y-.381 E19.5496
G1 X-9.114 Y-.603 E19.55829
G1 X-8.858 Y-.856 E19.56577
G1 X-8.66 Y-1.139 E19.57295
G1 X-8.509 Y-1.482 E19.58074
G1 X-8.445 Y-1.761 E19.58669
G1 X-7.86 Y-6.221 E19.6802
G1 X-7.835 Y-6.419 E19.68435
G1 X-7.637 Y-6.393 E19.68702
G1 X-6.546 Y-6.25 E19.7099
G1 X-7.152 Y-1.602 E19.80734
G1 X-7.161 Y-1.314 E19.81333
G1 X-7.107 Y-.94 E19.82118
G1 X-6.979 Y-.594 E19.82885
G1 X-6.755 Y-.238 E19.83759
G1 X-6.5 Y0.02 E19.84513
G1 X-6.219 Y0.214 E19.85223
G1 X-5.879 Y0.366 E19.85997
G1 X-5.598 Y0.43 E19.86596
G1 X-4.587 Y0.564 E19.88716
G1 X-4.294 Y0.569 E19.89326
G1 X-3.961 Y0.517 E19.90026
G1 X-3.586 Y0.382 E19.90855
G1 X-3.262 Y0.175 E19.91654
G1 X-3.007 Y-0.07 E19.92389
G1 X-2.78 Y-.389 E19.93203
G1 X-2.629 Y-.747 E19.94011
G1 X-2.573 Y-1.015 E19.9458
G1 X-1.96 Y-5.651 E20.04301
G1 X-.3 Y-5.434 E20.07781
G1 X-.906 Y-.785 E20.17527
G1 X-.915 Y-.498 E20.18124
G1 X-.861 Y-.122 E20.18913
G1 X-.731 Y0.223 E20.1968
G1 X-.51 Y0.575 E20.20544
G1 X-.257 Y0.837 E20.21301
G1 X0.031 Y1.033 E20.22025
G1 X0.368 Y1.182 E20.22791
G1 X0.646 Y1.246 E20.23384
G1 X1.2 Y1.318 E20.24545
G1 X1.56 Y1.34 E20.25295
G1 X1.911 Y1.282 E20.26035
G1 X2.282 Y1.148 E20.26855
G1 X2.627 Y0.926 E20.27707
G1 X2.882 Y0.675 E20.28451
G1 X3.078 Y0.391 E20.29168
G1 X3.224 Y0.059 E20.29922
G1 X3.292 Y-.22 E20.30519
G1 X3.876 Y-4.687 E20.39884
G1 X3.901 Y-4.885 E20.40299
G1 X4.099 Y-4.86 E20.40567
G1 X5.947 Y-4.617 E20.44442
G1 X5.338 Y0.041 E20.54207
G1 X5.336 Y0.368 E20.54887
G1 X5.388 Y0.7 E20.55585
G1 X5.513 Y1.037 E20.56332
G1 X5.736 Y1.395 E20.57209
