;FLAVOR:Marlin
;TIME:1682
;Filament used: 0.999435m
;Layer height: 0.1
;Generated with Cura_SteamEngine 1.2.1
M190 S35
M104 S220
M109 S220
G28
G1 Z50.00 F400
G92 E0
G1 F200 E3
G92 E0
M132 X Y Z A
M907 X100 Y100 Z50 A100
;LAYER_COUNT:30
;LAYER:0
M107
G0 F3600 X15.918 Y9.303 Z0.3
;TYPE:SKIRT
G1 F1500 X-66.764 Y0.987 E4.14583
G1 X-67.375 Y0.885 E4.17674
G1 X-67.968 Y0.706 E4.20764
G1 X-68.533 Y0.452 E4.23855
G1 X-69.06 Y0.127 E4.26944
G1 X-69.541 Y-.263 E4.30033
G1 X-69.968 Y-.712 E4.33124
G1 X-70.334 Y-1.212 E4.36216
G1 X-70.632 Y-1.755 E4.39306
G1 X-70.857 Y-2.332 E4.42396
G1 X-71.007 Y-2.933 E4.45486
G1 X-71.078 Y-3.548 E4.48575
G1 X-71.06 Y-4.267 E4.52163
G1 X-70.498 Y-9.883 E4.80321
G1 X-70.397 Y-10.494 E4.83411
G1 X-70.218 Y-11.087 E4.86501
G1 X-69.964 Y-11.652 E4.89592
G1 X-69.639 Y-12.179 E4.92681
G1 X-69.249 Y-12.66 E4.9577
G1 X-68.801 Y-13.088 E4.98861
G1 X-68.301 Y-13.453 E5.0195
G1 X-67.758 Y-13.752 E5.05042
G1 X-67.182 Y-13.978 E5.08129
G1 X-66.581 Y-14.128 E5.1122
G1 X-65.965 Y-14.199 E5.14313
G1 X-65.245 Y-14.181 E5.17907
G1 X20.052 Y-5.663 E9.45572
G1 X25.414 Y-5.43 E9.72348
G1 X30.826 Y-5.499 E9.99351
G1 X36.178 Y-5.873 E10.26117
G1 X41.529 Y-6.551 E10.53027
G1 X46.823 Y-7.529 E10.79886
G1 X49.423 Y-8.125 E10.93193
G1 X54.628 Y-9.551 E11.20118
G1 X60.821 Y-11.663 E11.52763
G1 X61.419 Y-11.825 E11.55854
G1 X62.032 Y-11.908 E11.5894
G1 X62.849 Y-11.896 E11.63016
G1 X67.809 Y-11.399 E11.87886
G1 X68.42 Y-11.298 E11.90975
G1 X69.012 Y-11.118 E11.94062
G1 X69.577 Y-10.864 E11.97153
G1 X70.105 Y-10.54 E12.00243
G1 X70.586 Y-10.15 E12.03333
G1 X71.013 Y-9.701 E12.06424
G1 X71.379 Y-9.201 E12.09516
G1 X71.677 Y-8.659 E12.12601
G1 X71.903 Y-8.082 E12.15693
G1 X72.053 Y-7.481 E12.18783
G1 X72.124 Y-6.866 E12.21872
G1 X72.106 Y-6.143 E12.2548
G1 X69.445 Y20.361 E13.58374
G1 X69.343 Y20.971 E13.61459
G1 X69.164 Y21.564 E13.6455
G1 X68.91 Y22.129 E13.6764
G1 X68.585 Y22.656 E13.70729
G1 X68.195 Y23.138 E13.73823
G1 X67.747 Y23.565 E13.7691
G1 X67.247 Y23.93 E13.79999
G1 X66.704 Y24.228 E13.83089
G1 X66.127 Y24.454 E13.86181
G1 X65.526 Y24.604 E13.89271
G1 X64.911 Y24.675 E13.9236
G1 X64.191 Y24.657 E13.95953
G1 X59.227 Y24.16 E14.20842
G1 X58.616 Y24.059 E14.23932
G1 X58.023 Y23.88 E14.27022
G1 X57.254 Y23.511 E14.31277
G1 X52.94 Y20.949 E14.56309
G1 X48.173 Y18.458 E14.83143
G1 X43.22 Y16.215 E15.1027
G1 X40.822 Y15.247 E15.23171
G1 X35.687 Y13.431 E15.50345
G1 X30.524 Y11.925 E15.77177
G1 X25.241 Y10.703 E16.0423
G1 X19.949 Y9.794 E16.31018
G1 X15.918 Y9.303 E16.51277
G0 F3600 X15.962 Y8.905
G1 F1500 X-66.724 Y0.589 E20.65881
G1 X-67.309 Y0.49 E20.68841
G1 X-67.875 Y0.313 E20.71799
G1 X-68.412 Y0.062 E20.74757
G1 X-68.911 Y-.259 E20.77717
G1 X-69.361 Y-.644 E20.80671
G1 X-69.756 Y-1.087 E20.83633
G1 X-70.088 Y-1.578 E20.8659
G1 X-70.351 Y-2.11 E20.8955
G1 X-70.54 Y-2.672 E20.92509
G1 X-70.651 Y-3.254 E20.95464
G1 X-70.684 Y-3.846 E20.98423
G1 X-70.662 Y-4.227 E21.00327
G1 X-70.1 Y-9.843 E21.28485
G1 X-70.001 Y-10.428 E21.31445
G1 X-69.825 Y-10.994 E21.34402
G1 X-69.574 Y-11.531 E21.37359
G1 X-69.253 Y-12.03 E21.40319
G1 X-68.868 Y-12.481 E21.43278
G1 X-68.426 Y-12.876 E21.46235
G1 X-67.935 Y-13.208 E21.49192
G1 X-67.404 Y-13.471 E21.52149
G1 X-66.842 Y-13.66 E21.55107
G1 X-66.259 Y-13.772 E21.58069
G1 X-65.667 Y-13.805 E21.61027
G1 X-65.285 Y-13.783 E21.62936
G1 X20.013 Y-5.265 E25.90606
G1 X25.419 Y-5.03 E26.17602
G1 X30.842 Y-5.1 E26.44659
G1 X36.22 Y-5.475 E26.71556
G1 X41.584 Y-6.155 E26.98531
G1 X46.911 Y-7.139 E27.25557
G1 X49.505 Y-7.733 E27.38833
G1 X54.747 Y-9.17 E27.65951
G1 X60.95 Y-11.285 E27.98647
G1 X61.523 Y-11.438 E28.01606
G1 X62.111 Y-11.512 E28.04563
G1 X62.809 Y-11.498 E28.08046
G1 X67.769 Y-11.001 E28.32915
G1 X68.353 Y-10.902 E28.3587
G1 X68.919 Y-10.726 E28.38827
G1 X69.457 Y-10.475 E28.41789
G1 X69.955 Y-10.154 E28.44745
G1 X70.406 Y-9.769 E28.47704
G1 X70.801 Y-9.327 E28.50661
G1 X71.133 Y-8.835 E28.53622
G1 X71.396 Y-8.304 E28.56579
G1 X71.585 Y-7.742 E28.59537
G1 X71.697 Y-7.16 E28.62494
G1 X71.73 Y-6.568 E28.65452
G1 X71.708 Y-6.183 E28.67376
G1 X69.047 Y20.321 E30.00269
G1 X68.948 Y20.905 E30.03224
G1 X68.772 Y21.471 E30.06182
G1 X68.52 Y22.008 E30.09141
G1 X68.199 Y22.507 E30.12101
G1 X67.814 Y22.958 E30.1506
G1 X67.372 Y23.353 E30.18017
G1 X66.881 Y23.685 E30.20974
G1 X66.349 Y23.948 E30.23935
G1 X65.787 Y24.137 E30.26893
G1 X65.205 Y24.248 E30.29849
G1 X64.613 Y24.281 E30.32807
G1 X64.231 Y24.259 E30.34716
G1 X59.267 Y23.762 E30.59605
G1 X58.682 Y23.663 E30.62565
G1 X58.116 Y23.487 E30.65522
G1 X57.458 Y23.167 E30.69173
G1 X53.143 Y20.605 E30.94209
G1 X48.331 Y18.09 E31.21298
G1 X43.386 Y15.851 E31.48379
G1 X40.965 Y14.873 E31.61406
G1 X35.812 Y13.05 E31.88676
G1 X30.621 Y11.536 E32.15653
G1 X25.33 Y10.312 E32.42747
G1 X20 Y9.397 E32.69727
G1 X15.962 Y8.905 E32.90022
G0 F3600 X16.001 Y8.507
G1 F1500 X-66.684 Y0.191 E37.0462
G1 X-67.241 Y0.095 E37.0744
G1 X-67.779 Y-0.079 E37.10261
G1 X-68.287 Y-.327 E37.13081
G1 X-68.756 Y-.644 E37.15906
G1 X-69.174 Y-1.024 E37.18724
G1 X-69.535 Y-1.459 E37.21544
G1 X-69.831 Y-1.94 E37.24362
G1 X-70.056 Y-2.459 E37.27184
G1 X-70.206 Y-3.004 E37.30004
G1 X-70.278 Y-3.565 E37.32826
G1 X-70.264 Y-4.187 E37.3593
G1 X-69.702 Y-9.803 E37.64088
G1 X-69.606 Y-10.36 E37.66908
G1 X-69.433 Y-10.898 E37.69727
G1 X-69.185 Y-11.407 E37.72552
G1 X-68.868 Y-11.875 E37.75372
G1 X-68.489 Y-12.294 E37.78191
G1 X-68.054 Y-12.655 E37.81011
G1 X-67.572 Y-12.951 E37.83833
G1 X-67.054 Y-13.177 E37.86653
G1 X-66.509 Y-13.327 E37.89473
G1 X-65.948 Y-13.399 E37.92295
G1 X-65.325 Y-13.385 E37.95404
G1 X19.99 Y-4.865 E42.23159
G1 X25.407 Y-4.629 E42.5021
G1 X30.856 Y-4.7 E42.77398
G1 X36.263 Y-5.077 E43.04439
G1 X41.655 Y-5.76 E43.31555
G1 X46.982 Y-6.744 E43.58581
G1 X49.603 Y-7.345 E43.71996
G1 X54.866 Y-8.787 E43.99221
G1 X61.079 Y-10.906 E44.31971
G1 X61.626 Y-11.05 E44.34793
G1 X62.187 Y-11.116 E44.37611
G1 X62.769 Y-11.1 E44.40516
G1 X67.729 Y-10.603 E44.65385
G1 X68.286 Y-10.507 E44.68205
G1 X68.824 Y-10.334 E44.71025
G1 X69.332 Y-10.086 E44.73845
G1 X69.8 Y-9.769 E44.76665
G1 X70.219 Y-9.389 E44.79487
G1 X70.58 Y-8.954 E44.82307
G1 X70.877 Y-8.473 E44.85128
G1 X71.102 Y-7.954 E44.8795
G1 X71.252 Y-7.409 E44.9077
G1 X71.324 Y-6.849 E44.93587
G1 X71.31 Y-6.223 E44.96711
G1 X68.649 Y20.281 E46.29605
G1 X68.553 Y20.838 E46.32424
G1 X68.379 Y21.376 E46.35245
G1 X68.131 Y21.884 E46.38066
G1 X67.815 Y22.352 E46.40883
G1 X67.435 Y22.771 E46.43705
G1 X67 Y23.132 E46.46525
G1 X66.518 Y23.428 E46.49347
G1 X66 Y23.653 E46.52165
G1 X65.455 Y23.803 E46.54985
G1 X64.894 Y23.875 E46.57807
G1 X64.271 Y23.861 E46.60916
G1 X59.307 Y23.364 E46.85805
G1 X58.749 Y23.268 E46.8863
G1 X58.211 Y23.095 E46.91449
G1 X57.663 Y22.823 E46.94501
G1 X53.34 Y20.256 E47.19585
G1 X48.516 Y17.735 E47.4674
G1 X43.532 Y15.478 E47.74036
G1 X41.115 Y14.502 E47.87041
G1 X35.931 Y12.668 E48.14474
G1 X30.714 Y11.147 E48.41586
G1 X25.404 Y9.918 E48.68778
G1 X20.077 Y9.004 E48.95743
G1 X16.001 Y8.507 E49.16229
G0 F3600 X16.045 Y8.11
G1 F1500 X-66.644 Y-.207 E53.30847
G1 X-67.172 Y-.3 E53.33522
G1 X-67.681 Y-.471 E53.36201
G1 X-68.158 Y-.715 E53.38874
G1 X-68.594 Y-1.028 E53.41551
G1 X-68.979 Y-1.402 E53.44229
G1 X-69.303 Y-1.828 E53.469
G1 X-69.561 Y-2.299 E53.49579
G1 X-69.746 Y-2.802 E53.52253
G1 X-69.854 Y-3.327 E53.54927
G1 X-69.883 Y-3.863 E53.57605
G1 X-69.866 Y-4.147 E53.59024
G1 X-69.304 Y-9.763 E53.87182
G1 X-69.211 Y-10.292 E53.89862
G1 X-69.041 Y-10.8 E53.92535
G1 X-68.797 Y-11.278 E53.95212
G1 X-68.484 Y-11.714 E53.9789
G1 X-68.111 Y-12.098 E54.00561
G1 X-67.684 Y-12.423 E54.03238
G1 X-67.214 Y-12.681 E54.05913
G1 X-66.711 Y-12.867 E54.08588
G1 X-66.185 Y-12.975 E54.11267
G1 X-65.65 Y-13.004 E54.1394
G1 X-65.364 Y-12.987 E54.1537
G1 X19.952 Y-4.467 E58.4313
G1 X25.413 Y-4.229 E58.70401
G1 X30.872 Y-4.3 E58.97638
G1 X36.305 Y-4.679 E59.2481
G1 X41.706 Y-5.364 E59.51971
G1 X47.074 Y-6.355 E59.79205
G1 X49.701 Y-6.957 E59.92651
G1 X54.988 Y-8.406 E60.2
G1 X61.208 Y-10.527 E60.52787
G1 X61.727 Y-10.662 E60.55462
G1 X62.26 Y-10.718 E60.58136
G1 X62.729 Y-10.702 E60.60477
G1 X67.689 Y-10.205 E60.85346
G1 X68.217 Y-10.112 E60.88021
G1 X68.726 Y-9.942 E60.90699
G1 X69.203 Y-9.697 E60.93374
G1 X69.639 Y-9.385 E60.96049
G1 X70.024 Y-9.011 E60.98726
G1 X70.349 Y-8.585 E61.014
G1 X70.606 Y-8.115 E61.04072
G1 X70.792 Y-7.611 E61.06752
G1 X70.9 Y-7.086 E61.09426
G1 X70.929 Y-6.551 E61.121
G1 X70.912 Y-6.263 E61.13539
G1 X68.251 Y20.241 E62.46433
G1 X68.158 Y20.769 E62.49107
G1 X67.987 Y21.277 E62.51782
G1 X67.743 Y21.755 E62.54459
G1 X67.431 Y22.19 E62.5713
G1 X67.057 Y22.575 E62.59808
G1 X66.63 Y22.9 E62.62485
G1 X66.16 Y23.158 E62.6516
G1 X65.657 Y23.343 E62.67834
G1 X65.131 Y23.451 E62.70512
G1 X64.596 Y23.48 E62.73186
G1 X64.31 Y23.463 E62.74615
G1 X59.346 Y22.966 E62.99504
G1 X58.818 Y22.873 E63.02179
G1 X58.31 Y22.703 E63.04852
G1 X57.867 Y22.479 E63.07328
G1 X53.536 Y19.907 E63.32459
G1 X48.681 Y17.37 E63.59788
G1 X43.698 Y15.113 E63.87079
G1 X41.264 Y14.131 E64.00174
G1 X36.05 Y12.286 E64.27767
G1 X30.811 Y10.758 E64.54994
G1 X25.49 Y9.528 E64.8224
G1 X20.131 Y8.608 E65.09367
G1 X16.045 Y8.11 E65.29903
G0 F3600 X16.084 Y7.711
G1 F1500 X-66.604 Y-.605 E69.44517
G1 X-67.102 Y-.695 E69.47041
G1 X-67.579 Y-.863 E69.49564
G1 X-68.023 Y-1.103 E69.52082
G1 X-68.425 Y-1.411 E69.54609
G1 X-68.773 Y-1.777 E69.57129
G1 X-69.058 Y-2.194 E69.59648
G1 X-69.275 Y-2.651 E69.62172
G1 X-69.417 Y-3.137 E69.64698
G1 X-69.48 Y-3.638 E69.67218
G1 X-69.468 Y-4.108 E69.69563
G1 X-68.906 Y-9.724 E69.97722
G1 X-68.816 Y-10.221 E70.00241
G1 X-68.649 Y-10.698 E70.02763
G1 X-68.409 Y-11.143 E70.05285
G1 X-68.102 Y-11.545 E70.07809
G1 X-67.735 Y-11.893 E70.10332
G1 X-67.318 Y-12.179 E70.12855
G1 X-66.861 Y-12.395 E70.15377
G1 X-66.376 Y-12.537 E70.17898
G1 X-65.874 Y-12.601 E70.20423
G1 X-65.404 Y-12.589 E70.22768
G1 X19.931 Y-4.067 E74.50624
G1 X25.401 Y-3.829 E74.7794
G1 X30.887 Y-3.9 E75.05312
G1 X36.331 Y-4.28 E75.32538
G1 X41.776 Y-4.97 E75.5992
G1 X47.162 Y-5.965 E75.87246
G1 X49.804 Y-6.57 E76.00768
G1 X55.092 Y-8.019 E76.28123
G1 X61.337 Y-10.149 E76.61041
G1 X61.827 Y-10.274 E76.63564
G1 X62.331 Y-10.32 E76.66089
G1 X62.689 Y-10.304 E76.67877
G1 X67.649 Y-9.807 E76.92747
G1 X68.147 Y-9.717 E76.95271
G1 X68.624 Y-9.55 E76.97793
G1 X69.068 Y-9.31 E77.00311
G1 X69.47 Y-9.002 E77.02837
G1 X69.818 Y-8.636 E77.05357
G1 X70.104 Y-8.219 E77.0788
G1 X70.321 Y-7.762 E77.10404
G1 X70.463 Y-7.277 E77.12925
G1 X70.526 Y-6.775 E77.15449
G1 X70.514 Y-6.303 E77.17805
G1 X67.853 Y20.201 E78.50698
G1 X67.763 Y20.698 E78.53218
G1 X67.596 Y21.175 E78.5574
G1 X67.355 Y21.62 E78.58264
G1 X67.048 Y22.021 E78.60784
G1 X66.681 Y22.369 E78.63307
G1 X66.264 Y22.655 E78.6583
G1 X65.807 Y22.872 E78.68354
G1 X65.322 Y23.014 E78.70875
G1 X64.82 Y23.077 E78.73399
G1 X64.35 Y23.065 E78.75745
G1 X59.386 Y22.568 E79.00634
G1 X58.889 Y22.478 E79.03154
G1 X58.412 Y22.311 E79.05676
G1 X58.071 Y22.135 E79.0759
G1 X53.725 Y19.554 E79.32808
G1 X48.867 Y17.015 E79.60155
G1 X43.852 Y14.744 E79.87621
G1 X41.398 Y13.754 E80.00822
G1 X36.174 Y11.906 E80.28468
G1 X30.924 Y10.375 E80.55751
G1 X25.56 Y9.134 E80.83219
G1 X20.188 Y8.212 E81.10412
G1 X16.084 Y7.711 E81.31039
G1 F1500 E79.31039
G0 F3600 X16.34 Y5.189
G0 X16.467 Y3.912
G0 X61.845 Y8.087
;TYPE:WALL-INNER
G1 F1500 E81.39354
G1 X-58.981 Y-4.05 E87.45191
G1 X-65.2 Y-4.675 E87.76374
G1 X-65.188 Y-4.798 E87.76991
G1 X-58.969 Y-4.174 E87.86618
G1 X-58.622 Y-7.629 E88.03942
G1 X-64.841 Y-8.254 E88.35125
G1 X-64.834 Y-8.321 E88.35461
G1 X-58.616 Y-7.697 E88.4072
G1 X62.013 Y4.422 E94.4557
G1 X62.211 Y4.441 E94.46563
G1 X62.229 Y4.243 E94.47203
G1 X62.23 Y4.242 E94.4721
G1 X63.263 Y-6.035 E94.9874
G1 X66.047 Y-5.755 E95.127
G1 X66.246 Y-5.736 E95.13697
G1 X66.227 Y-5.537 E95.14341
G1 X63.782 Y18.797 E96.36355
G1 X60.998 Y18.517 E96.50315
G1 X60.799 Y18.498 E96.51312
G1 X60.818 Y18.299 E96.51956
G1 X61.845 Y8.087 E97.03161
G0 F3600 X61.407 Y8.445
G1 F1500 X61.209 Y8.426 E97.04153
G1 X-65.638 Y-4.317 E103.40181
G1 X-65.565 Y-5.037 E103.43791
G1 X-65.546 Y-5.236 E103.44789
G1 X-65.347 Y-5.217 E103.45433
G1 X-59.327 Y-4.612 E103.75618
G1 X-59.06 Y-7.271 E103.8895
G1 X-65.08 Y-7.876 E104.19135
G1 X-65.279 Y-7.896 E104.20133
G1 X-65.259 Y-8.095 E104.20779
G1 X-65.192 Y-8.759 E104.24109
G1 X61.655 Y3.984 E110.60136
G1 X61.853 Y4.003 E110.61129
G1 X61.871 Y3.805 E110.61769
G1 X61.872 Y3.804 E110.61776
G1 X62.905 Y-6.473 E111.13306
G1 X66.485 Y-6.113 E111.31257
G1 X66.684 Y-6.094 E111.32254
G1 X66.665 Y-5.895 E111.32898
G1 X64.14 Y19.235 E112.58904
G1 X60.56 Y18.875 E112.76855
G1 X60.361 Y18.856 E112.77852
G1 X60.38 Y18.658 E112.78491
G1 X60.381 Y18.657 E112.78498
G1 X61.388 Y8.644 E113.28705
G1 X61.407 Y8.445 E113.29702
G0 F3600 X60.969 Y8.803
;TYPE:WALL-OUTER
G1 F1500 X60.771 Y8.784 E113.30695
G1 X-66.076 Y-3.959 E119.66722
G1 X-65.923 Y-5.475 E119.74324
G1 X-65.904 Y-5.674 E119.75321
G1 X-65.705 Y-5.655 E119.75965
G1 X-59.685 Y-5.05 E120.06151
G1 X-59.498 Y-6.913 E120.15492
G1 X-65.518 Y-7.518 E120.45677
G1 X-65.717 Y-7.538 E120.46675
G1 X-65.697 Y-7.737 E120.47321
G1 X-65.55 Y-9.197 E120.54642
G1 X61.297 Y3.546 E126.90669
G1 X61.495 Y3.565 E126.91662
G1 X61.513 Y3.367 E126.92302
G1 X61.514 Y3.366 E126.92309
G1 X62.547 Y-6.911 E127.43839
G1 X66.923 Y-6.471 E127.65781
G1 X67.122 Y-6.452 E127.66779
G1 X67.103 Y-6.253 E127.67423
G1 X64.498 Y19.673 E128.97419
G1 X60.122 Y19.233 E129.19361
G1 X59.923 Y19.214 E129.20359
G1 X59.942 Y19.016 E129.20998
G1 X59.943 Y19.015 E129.21005
G1 X60.95 Y9.002 E129.71212
G1 X60.969 Y8.803 E129.72209
G0 F3600 X60.771 Y8.784
G0 X60.77 Y8.784
G0 X60.82 Y8.287
G0 X66.027 Y-5.557
G0 X66.035 Y-5.241
;TYPE:SKIN
G1 F1500 X65.64 Y-5.635 E129.74993
G0 F3600 X65.012 Y-5.698
G1 F1500 X65.983 Y-4.727 E129.81844
G1 X66.053 Y-4.657
G0 F3600 X65.932 Y-4.212
G1 F1500 X64.383 Y-5.761 E129.92773
G1 X64.313 Y-5.831
G0 F3600 X63.754 Y-5.824
G1 F1500 X65.88 Y-3.698 E130.07773
G1 X65.95 Y-3.628
G0 F3600 X65.828 Y-3.184
G1 F1500 X63.382 Y-5.631 E130.25034
G1 X63.312 Y-5.701
G0 F3600 X63.33 Y-5.117
G1 F1500 X65.777 Y-2.67 E130.42299
G1 X65.847 Y-2.6
G0 F3600 X65.725 Y-2.156
G1 F1500 X63.278 Y-4.603 E130.59564
G1 X63.208 Y-4.673
G0 F3600 X63.227 Y-4.089
G1 F1500 X65.673 Y-1.642 E130.76825
G1 X65.743 Y-1.572
G0 F3600 X65.622 Y-1.128
G1 F1500 X63.175 Y-3.575 E130.9409
G1 X63.105 Y-3.645
G0 F3600 X63.124 Y-3.061
G1 F1500 X65.57 Y-.614 E131.11351
G1 X65.64 Y-.544
G0 F3600 X65.519 Y-.1
G1 F1500 X63.072 Y-2.546 E131.28613
G1 X63.002 Y-2.616
G0 F3600 X63.02 Y-2.032
G1 F1500 X65.467 Y0.413 E131.45871
G1 X65.537 Y0.483
G0 F3600 X65.415 Y0.927
G1 F1500 X62.968 Y-1.519 E131.63132
G1 X62.898 Y-1.589
G0 F3600 X62.916 Y-1.005
G1 F1500 X65.364 Y1.441 E131.80397
G1 X65.434 Y1.511
G0 F3600 X65.312 Y1.955
G1 F1500 X62.865 Y-.491 E131.97658
G1 X62.795 Y-.561
G0 F3600 X62.813 Y0.022
G1 F1500 X65.261 Y2.469 E132.14927
G1 X65.331 Y2.539
G0 F3600 X65.209 Y2.983
G1 F1500 X62.762 Y0.536 E132.32192
G1 X62.692 Y0.466
G0 F3600 X62.71 Y1.05
G1 F1500 X65.157 Y3.498 E132.4946
G1 X65.227 Y3.568
G0 F3600 X65.106 Y4.012
G1 F1500 X62.658 Y1.564 E132.66732
G1 X62.588 Y1.494
G0 F3600 X62.607 Y2.078
G1 F1500 X65.054 Y4.526 E132.84001
G1 X65.124 Y4.596
G0 F3600 X65.002 Y5.04
G1 F1500 X62.555 Y2.592 E133.01269
G1 X62.485 Y2.522
G0 F3600 X62.503 Y3.107
G1 F1500 X64.951 Y5.554 E133.18537
G1 X65.021 Y5.624
G0 F3600 X64.899 Y6.068
G1 F1500 X62.452 Y3.621 E133.35802
G1 X62.382 Y3.551
G0 F3600 X62.4 Y4.135
G1 F1500 X64.848 Y6.582 E133.53071
G1 X64.918 Y6.652
G0 F3600 X64.796 Y7.096
