;---BEGIN HEADER
; Generated on Thursday, April 25, 2019 by Gradientspace gsSlicer
; Printer: Flashforge Creator Pro
; Print Settings
; Layer Height: 0.2
; Nozzle Diameter: 0.4  Filament Diameter: 1.75
; Extruder Temp: 230
; Speeds Extrude: 3600  Travel: 4800 Z: 1380
; Retract Distance: 1.3  Speed: 1200
; Shells: 2  InteriorShells: 0
; RoofLayers: 2  FloorLayers: 2
; InfillX: 5
; Support: True  Angle 35 SpacingX: 5  Shell: True  Gap: 0.349999994039536  VolScale: 1
; ClipOverlaps: False  Tolerance: 0.75
; LayerRange: 0-999999999
M136 (enable build)
M73 P0 
M135 T0 ;select tool 0
M104 S230 T0 ;set target tool temperature
M140 S25 T0 ;set heated bed temperature
G162 X Y F2000 (home XY axes maximum)
G161 Z F900 (home Z axis minimum)
G92 X0 Y0 Z-5 A0 B0 (set Z to -5)
G1 Z0 F900 (move Z to '0')
G161 Z F100 (home Z axis minimum)
M132 X Y Z A B (Recall stored home offsets for XYZAB axis)
G1 X-103.5 Y-69 Z40 F3300 (move to waiting position)
G130 X20 Y20 A20 B20 (Lower stepper Vrefs while heating)
M134 T0 ;wait for bed to heat
M133 T0 ;wait for tool to heat
G130 X127 Y127 A127 B127 (Set Stepper motor Vref to defaults)
;---begin prime type=line
G92 E0 ;reset extruded length
G1 X103.5 Y-69 Z0.2 F9000 ;start prime
G1 X-103.5 Y-69 Z0.2 F1800 E13.7697 ;extrude prime
G92 E0 ;reset extruded length
;---end prime
G92 A0 B0 (Reset after prime)
G1 Z0 F1000 
M126 T0 
M73 P0 
;---END HEADER
;layer 0 - 0mm
G1 X-103.5 Y-69 Z0 F1000 E0 
G1 X-103.5 Y-69 Z0 F1200 E-1.3 ;Retract
G1 X-103.5 Y-69 Z0 F3000 ;Retract 2?
G1 X-103.5 Y-69 Z0.2 F1380 ;Plane Change
G1 X-6.0976 Y-18.4434 Z0.2 F4800 ;Travel
G1 X-6.0976 Y-18.4434 Z0.2 F1200 E0 ;End Retract
G1 X-6.0366 Y-18.5555 Z0.2 F900 E0.00424 
G1 X-5.9468 Y-18.6635 Z0.2 F900 E0.00892 
G1 X-5.8413 Y-18.7465 Z0.2 F900 E0.01338 
G1 X-5.7519 Y-18.7913 Z0.2 F900 E0.01671 
G1 X-5.65778 Y-18.82384 Z0.2 F900 E0.02003 
G1 X-5.55993 Y-18.84242 Z0.2 F900 E0.02336 
G1 X-5.46027 Y-18.8499 Z0.2 F900 E0.02669 
G1 X5.4764 Y-18.8499 Z0.2 F900 E0.39044 
G1 X5.6135 Y-18.8367 Z0.2 F900 E0.39502 
G1 X5.734 Y-18.8015 Z0.2 F900 E0.3992 
G1 X5.82229 Y-18.75467 Z0.2 F900 E0.40252 
G1 X5.90331 Y-18.69683 Z0.2 F900 E0.40585 
G1 X5.97655 Y-18.62929 Z0.2 F900 E0.40917 
G1 X6.041 Y-18.5496 Z0.2 F900 E0.41258 
G1 X6.08742 Y-18.46111 Z0.2 F900 E0.41591 
G1 X6.12121 Y-18.3674 Z0.2 F900 E0.41924 
G1 X6.14152 Y-18.26986 Z0.2 F900 E0.42256 
G1 X6.1499 Y-18.17024 Z0.2 F900 E0.42589 
G1 X6.1499 Y-13.4718 Z0.2 F900 E0.58216 
G1 X6.1368 Y-13.3354 Z0.2 F900 E0.58672 
G1 X6.0979 Y-13.2055 Z0.2 F900 E0.59123 
G1 X6.05012 Y-13.11765 Z0.2 F900 E0.59455 
G1 X5.99075 Y-13.03766 Z0.2 F900 E0.59788 
G1 X5.92224 Y-12.96548 Z0.2 F900 E0.6012 
G1 X5.8413 Y-12.9018 Z0.2 F900 E0.60463 
G1 X5.7519 Y-12.85699 Z0.2 F900 E0.60796 
G1 X5.65758 Y-12.82486 Z0.2 F900 E0.61128 
G1 X5.55988 Y-12.8055 Z0.2 F900 E0.61461 
G1 X5.46019 Y-12.79919 Z0.2 F900 E0.61793 
G1 X0.7015 Y-12.7983 Z0.2 F900 E0.77621 
G1 X0.5076 Y-12.7796 Z0.2 F900 E0.78269 
G1 X0.3072 Y-12.7196 Z0.2 F900 E0.78964 
G1 X0.149 Y-12.6365 Z0.2 F900 E0.79559 
G1 X0.06843 Y-12.57775 Z0.2 F900 E0.79891 
G1 X-0.0455 Y-12.483 Z0.2 F900 E0.80384 
G1 X-0.10912 Y-12.4059 Z0.2 F900 E0.80717 
G1 X-0.1813 Y-12.314 Z0.2 F900 E0.81105 
G1 X-0.22823 Y-12.22574 Z0.2 F900 E0.81438 
G1 X-0.2806 Y-12.1214 Z0.2 F900 E0.81826 
G1 X-0.3358 Y-11.9265 Z0.2 F900 E0.825 
G1 X-0.3523 Y-11.7438 Z0.2 F900 E0.8311 
G1 X-0.3523 Y-10.4551 Z0.2 F900 E0.87397 
G1 X-0.3341 Y-10.2664 Z0.2 F900 E0.88027 
G1 X-0.30702 Y-10.17018 Z0.2 F900 E0.8836 
G1 X-0.2733 Y-10.0602 Z0.2 F900 E0.88742 
G1 X-0.1905 Y-9.9026 Z0.2 F900 E0.89334 
G1 X-0.13178 Y-9.82201 Z0.2 F900 E0.89667 
G1 X-0.0343 Y-9.7047 Z0.2 F900 E0.90174 
G1 X0.1061 Y-9.5912 Z0.2 F900 E0.90775 
G1 X0.1918 Y-9.54016 Z0.2 F900 E0.91107 
G1 X0.2917 Y-9.4884 Z0.2 F900 E0.91482 
G1 X0.38587 Y-9.45554 Z0.2 F900 E0.91814 
G1 X0.5194 Y-9.4177 Z0.2 F900 E0.92276 
G1 X0.702 Y-9.4011 Z0.2 F900 E0.92886 
G1 X5.4764 Y-9.4011 Z0.2 F900 E1.08765 
G1 X5.6129 Y-9.388 Z0.2 F900 E1.09221 
G1 X5.7385 Y-9.3504 Z0.2 F900 E1.09657 
G1 X5.8523 Y-9.2905 Z0.2 F900 E1.10085 
G1 X5.9602 Y-9.2007 Z0.2 F900 E1.10552 
G1 X6.041 Y-9.1008 Z0.2 F900 E1.10979 
G1 X6.08684 Y-9.01201 Z0.2 F900 E1.11312 
G1 X6.12074 Y-8.91838 Z0.2 F900 E1.11645 
G1 X6.14157 Y-8.82098 Z0.2 F900 E1.11977 
G1 X6.1499 Y-8.72135 Z0.2 F900 E1.1231 
G1 X6.1499 Y-7.1727 Z0.2 F900 E1.17461 
G1 X6.1368 Y-7.0362 Z0.2 F900 E1.17917 
G1 X6.0979 Y-6.9063 Z0.2 F900 E1.18368 
G1 X6.05012 Y-6.81845 Z0.2 F900 E1.187 
G1 X5.99074 Y-6.73847 Z0.2 F900 E1.19033 
G1 X5.92189 Y-6.66657 Z0.2 F900 E1.19366 
G1 X5.84385 Y-6.60408 Z0.2 F900 E1.19698 
G1 X5.75453 Y-6.55912 Z0.2 F900 E1.20031 
G1 X5.66061 Y-6.52604 Z0.2 F900 E1.20363 
G1 X5.56286 Y-6.50694 Z0.2 F900 E1.20696 
G1 X5.46321 Y-6.4992 Z0.2 F900 E1.21029 
G1 X0.7014 Y-6.4992 Z0.2 F900 E1.36866 
G1 X0.5075 Y-6.4804 Z0.2 F900 E1.37514 
G1 X0.3072 Y-6.4204 Z0.2 F900 E1.3821 
G1 X0.149 Y-6.3373 Z0.2 F900 E1.38804 
G1 X0.06843 Y-6.27855 Z0.2 F900 E1.39137 
G1 X-0.0455 Y-6.1838 Z0.2 F900 E1.3963 
G1 X-0.10912 Y-6.1067 Z0.2 F900 E1.39962 
G1 X-0.1813 Y-6.0148 Z0.2 F900 E1.40351 
G1 X-0.22823 Y-5.92654 Z0.2 F900 E1.40683 
G1 X-0.2806 Y-5.8222 Z0.2 F900 E1.41072 
G1 X-0.3358 Y-5.6273 Z0.2 F900 E1.41746 
G1 X-0.3523 Y-5.4444 Z0.2 F900 E1.42356 
G1 X-0.3514 Y-4.5169 Z0.2 F900 E1.45441 
G1 X-0.3335 Y-4.343 Z0.2 F900 E1.46023 
G1 X-0.2848 Y-4.1762 Z0.2 F900 E1.46601 
G1 X-0.24411 Y-4.08508 Z0.2 F900 E1.46933 
G1 X-0.1717 Y-3.9519 Z0.2 F900 E1.47437 
G1 X-0.0343 Y-3.7865 Z0.2 F900 E1.48153 
G1 X0.1061 Y-3.673 Z0.2 F900 E1.48753 
G1 X0.1918 Y-3.62196 Z0.2 F900 E1.49086 
G1 X0.2917 Y-3.5702 Z0.2 F900 E1.4946 
G1 X0.38587 Y-3.53734 Z0.2 F900 E1.49792 
G1 X0.5194 Y-3.4995 Z0.2 F900 E1.50254 
G1 X0.702 Y-3.4829 Z0.2 F900 E1.50864 
G1 X5.4774 Y-3.4829 Z0.2 F900 E1.66747 
G1 X5.6034 Y-3.4716 Z0.2 F900 E1.67168 
G1 X5.69967 Y-3.44485 Z0.2 F900 E1.675 
G1 X5.79079 Y-3.40481 Z0.2 F900 E1.67833 
G1 X5.87575 Y-3.35276 Z0.2 F900 E1.68165 
G1 X5.9602 Y-3.2825 Z0.2 F900 E1.68531 
G1 X6.041 Y-3.1826 Z0.2 F900 E1.68958 
G1 X6.08683 Y-3.09381 Z0.2 F900 E1.69291 
G1 X6.1213 Y-3.00035 Z0.2 F900 E1.69623 
G1 X6.14211 Y-2.90292 Z0.2 F900 E1.69956 
G1 X6.1499 Y-2.80324 Z0.2 F900 E1.70289 
G1 X6.1499 Y-0.8724 Z0.2 F900 E1.76711 
G1 X6.1386 Y-0.7465 Z0.2 F900 E1.77131 
G1 X6.11128 Y-0.6504 Z0.2 F900 E1.77464 
G1 X6.07179 Y-0.55906 Z0.2 F900 E1.77796 
G1 X6.01973 Y-0.47411 Z0.2 F900 E1.78129 
G1 X5.9468 Y-0.3864 Z0.2 F900 E1.78508 
G1 X5.8447 Y-0.3061 Z0.2 F900 E1.7894 
G1 X5.7354 Y-0.2495 Z0.2 F900 E1.7935 
G1 X5.63963 Y-0.22102 Z0.2 F900 E1.79682 
G1 X5.54117 Y-0.20578 Z0.2 F900 E1.80015 
G1 X5.44143 Y-0.2 Z0.2 F900 E1.80348 
G1 X0.7015 Y-0.2 Z0.2 F900 E1.96113 
G1 X0.5076 Y-0.1813 Z0.2 F900 E1.9676 
G1 X0.3072 Y-0.1213 Z0.2 F900 E1.97456 
G1 X0.149 Y-0.0382 Z0.2 F900 E1.98051 
G1 X0.06843 Y0.02055 Z0.2 F900 E1.98383 
G1 X-0.0455 Y0.1153 Z0.2 F900 E1.98876 
G1 X-0.10912 Y0.1924 Z0.2 F900 E1.99209 
G1 X-0.1813 Y0.2843 Z0.2 F900 E1.99597 
G1 X-0.22823 Y0.37256 Z0.2 F900 E1.9993 
G1 X-0.2806 Y0.4769 Z0.2 F900 E2.00318 
G1 X-0.3358 Y0.6718 Z0.2 F900 E2.00992 
G1 X-0.3523 Y0.8547 Z0.2 F900 E2.01603 
G1 X-0.3514 Y1.4012 Z0.2 F900 E2.0342 
G1 X-0.3334 Y1.5758 Z0.2 F900 E2.04004 
G1 X-0.275 Y1.771 Z0.2 F900 E2.04682 
G1 X-0.22946 Y1.85998 Z0.2 F900 E2.05014 
G1 X-0.1717 Y1.9662 Z0.2 F900 E2.05417 
G1 X-0.0371 Y2.1281 Z0.2 F900 E2.06117 
G1 X0.03993 Y2.1918 Z0.2 F900 E2.0645 
G1 X0.1354 Y2.2669 Z0.2 F900 E2.06854 
G1 X0.2961 Y2.3501 Z0.2 F900 E2.07455 
G1 X0.39044 Y2.38286 Z0.2 F900 E2.07788 
G1 X0.5201 Y2.4187 Z0.2 F900 E2.08235 
G1 X0.7021 Y2.4351 Z0.2 F900 E2.08843 
G1 X5.4763 Y2.4351 Z0.2 F900 E2.24722 
G1 X5.6129 Y2.4483 Z0.2 F900 E2.25179 
G1 X5.7385 Y2.4859 Z0.2 F900 E2.25615 
G1 X5.8523 Y2.5458 Z0.2 F900 E2.26043 
G1 X5.9635 Y2.6383 Z0.2 F900 E2.26524 
G1 X6.0438 Y2.7404 Z0.2 F900 E2.26956 
G1 X6.1004 Y2.8497 Z0.2 F900 E2.27365 
G1 X6.12888 Y2.94547 Z0.2 F900 E2.27698 
G1 X6.14412 Y3.04393 Z0.2 F900 E2.2803 
G1 X6.1499 Y3.14367 Z0.2 F900 E2.28363 
G1 X6.1499 Y5.4266 Z0.2 F900 E2.35956 
G1 X6.1386 Y5.5526 Z0.2 F900 E2.36377 
G1 X6.11128 Y5.6487 Z0.2 F900 E2.36709 
G1 X6.07179 Y5.74004 Z0.2 F900 E2.37042 
G1 X6.01973 Y5.82499 Z0.2 F900 E2.37374 
G1 X5.9468 Y5.9127 Z0.2 F900 E2.37754 
G1 X5.8447 Y5.993 Z0.2 F900 E2.38186 
G1 X5.7354 Y6.0496 Z0.2 F900 E2.38595 
G1 X5.63963 Y6.07808 Z0.2 F900 E2.38928 
G1 X5.54117 Y6.09336 Z0.2 F900 E2.3926 
G1 X5.44144 Y6.0992 Z0.2 F900 E2.39593 
G1 X0.7015 Y6.0992 Z0.2 F900 E2.55358 
G1 X0.5076 Y6.1179 Z0.2 F900 E2.56006 
G1 X0.3072 Y6.1779 Z0.2 F900 E2.56702 
G1 X0.149 Y6.261 Z0.2 F900 E2.57296 
G1 X0.06843 Y6.31975 Z0.2 F900 E2.57629 
G1 X-0.0455 Y6.4145 Z0.2 F900 E2.58122 
G1 X-0.10912 Y6.4916 Z0.2 F900 E2.58454 
G1 X-0.1813 Y6.5835 Z0.2 F900 E2.58843 
G1 X-0.22823 Y6.67176 Z0.2 F900 E2.59175 
G1 X-0.2806 Y6.7761 Z0.2 F900 E2.59564 
G1 X-0.3358 Y6.971 Z0.2 F900 E2.60238 
G1 X-0.3524 Y7.1543 Z0.2 F900 E2.6085 
G1 X-0.3513 Y7.3199 Z0.2 F900 E2.614 
G1 X-0.3334 Y7.494 Z0.2 F900 E2.61983 
G1 X-0.2736 Y7.6937 Z0.2 F900 E2.62676 
G1 X-0.1905 Y7.8519 Z0.2 F900 E2.6327 
G1 X-0.13178 Y7.93249 Z0.2 F900 E2.63603 
G1 X-0.0343 Y8.0498 Z0.2 F900 E2.6411 
G1 X0.1061 Y8.1633 Z0.2 F900 E2.64711 
G1 X0.1918 Y8.21434 Z0.2 F900 E2.65043 
G1 X0.2917 Y8.2661 Z0.2 F900 E2.65417 
G1 X0.3858 Y8.29923 Z0.2 F900 E2.6575 
G1 X0.4913 Y8.3299 Z0.2 F900 E2.66115 
G1 X0.59021 Y8.34383 Z0.2 F900 E2.66448 
G1 X0.7027 Y8.3533 Z0.2 F900 E2.66824 
G1 X5.4958 Y8.3543 Z0.2 F900 E2.82765 
G1 X5.6125 Y8.3663 Z0.2 F900 E2.83156 
G1 X5.734 Y8.4018 Z0.2 F900 E2.83577 
G1 X5.82229 Y8.44863 Z0.2 F900 E2.83909 
G1 X5.90332 Y8.50646 Z0.2 F900 E2.84242 
G1 X5.97694 Y8.57358 Z0.2 F900 E2.84574 
G1 X6.0438 Y8.6586 Z0.2 F900 E2.84934 
G1 X6.1004 Y8.7679 Z0.2 F900 E2.85344 
G1 X6.12888 Y8.86367 Z0.2 F900 E2.85676 
G1 X6.14412 Y8.96213 Z0.2 F900 E2.86009 
G1 X6.14989 Y9.06187 Z0.2 F900 E2.86341 
G1 X6.149 Y11.7442 Z0.2 F900 E2.95263 
G1 X6.137 Y11.8609 Z0.2 F900 E2.95653 
G1 X6.1015 Y11.9824 Z0.2 F900 E2.96074 
G1 X6.05522 Y12.07099 Z0.2 F900 E2.96407 
G1 X5.9969 Y12.15165 Z0.2 F900 E2.96739 
G1 X5.92936 Y12.22489 Z0.2 F900 E2.97072 
G1 X5.8496 Y12.2894 Z0.2 F900 E2.97413 
G1 X5.76111 Y12.33582 Z0.2 F900 E2.97746 
G1 X5.6674 Y12.36961 Z0.2 F900 E2.98078 
G1 X5.56986 Y12.38994 Z0.2 F900 E2.98411 
G1 X5.47025 Y12.3984 Z0.2 F900 E2.98743 
G1 X0.5753 Y12.3984 Z0.2 F900 E3.15024 
G1 X0.4321 Y12.4112 Z0.2 F900 E3.15502 
G1 X0.3351 Y12.43496 Z0.2 F900 E3.15835 
G1 X0.2279 Y12.4678 Z0.2 F900 E3.16208 
G1 X0.0897 Y12.5404 Z0.2 F900 E3.16727 
G1 X0.00947 Y12.59966 Z0.2 F900 E3.1706 
G1 X-0.0819 Y12.6756 Z0.2 F900 E3.17455 
G1 X-0.14531 Y12.75288 Z0.2 F900 E3.17787 
G1 X-0.20645 Y12.83193 Z0.2 F900 E3.1812 
G1 X-0.2891 Y12.9938 Z0.2 F900 E3.18725 
G1 X-0.3377 Y13.1654 Z0.2 F900 E3.19318 
G1 X-0.3517 Y13.3102 Z0.2 F900 E3.19802 
G1 X-0.34687 Y13.40997 Z0.2 F900 E3.20134 
G1 X-0.33512 Y13.5092 Z0.2 F900 E3.20467 
G1 X-0.30909 Y13.60563 Z0.2 F900 E3.20799 
G1 X-0.27805 Y13.70052 Z0.2 F900 E3.21132 
G1 X-0.1938 Y13.8581 Z0.2 F900 E3.21726 
G1 X-0.072 Y14.0048 Z0.2 F900 E3.2236 
G1 X0.077 Y14.1236 Z0.2 F900 E3.22994 
G1 X0.243 Y14.2083 Z0.2 F900 E3.23614 
G1 X0.4152 Y14.2571 Z0.2 F900 E3.24209 
G1 X0.5751 Y14.2716 Z0.2 F900 E3.24743 
G1 X5.4958 Y14.2725 Z0.2 F900 E3.4111 
G1 X5.6119 Y14.2845 Z0.2 F900 E3.41498 
G1 X5.7428 Y14.3236 Z0.2 F900 E3.41952 
G1 X5.83065 Y14.37138 Z0.2 F900 E3.42285 
G1 X5.91064 Y14.43075 Z0.2 F900 E3.42618 
G1 X5.98282 Y14.49926 Z0.2 F900 E3.4295 
G1 X6.0465 Y14.5802 Z0.2 F900 E3.43293 
G1 X6.09131 Y14.6696 Z0.2 F900 E3.43625 
G1 X6.12344 Y14.76392 Z0.2 F900 E3.43958 
G1 X6.1428 Y14.86162 Z0.2 F900 E3.4429 
G1 X6.1491 Y14.96131 Z0.2 F900 E3.44623 
G1 X6.149 Y18.1958 Z0.2 F900 E3.55381 
G1 X6.137 Y18.3125 Z0.2 F900 E3.55771 
G1 X6.1015 Y18.434 Z0.2 F900 E3.56192 
G1 X6.05467 Y18.52229 Z0.2 F900 E3.56525 
G1 X5.99683 Y18.60331 Z0.2 F900 E3.56857 
G1 X5.92929 Y18.67655 Z0.2 F900 E3.5719 
G1 X5.8496 Y18.741 Z0.2 F900 E3.57531 
G1 X5.76111 Y18.78742 Z0.2 F900 E3.57864 
G1 X5.6674 Y18.82121 Z0.2 F900 E3.58196 
G1 X5.56986 Y18.84152 Z0.2 F900 E3.58529 
G1 X5.47024 Y18.8499 Z0.2 F900 E3.58861 
G1 X-1.9712 Y18.8499 Z0.2 F900 E3.83612 
G1 X-2.1083 Y18.8367 Z0.2 F900 E3.8407 
G1 X-2.2288 Y18.8015 Z0.2 F900 E3.84487 
G1 X-2.31709 Y18.75467 Z0.2 F900 E3.8482 
G1 X-2.39812 Y18.69684 Z0.2 F900 E3.85152 
G1 X-2.47192 Y18.62987 Z0.2 F900 E3.85485 
G1 X-2.5357 Y18.5499 Z0.2 F900 E3.85825 
G1 X-2.58151 Y18.46109 Z0.2 F900 E3.86158 
G1 X-2.61602 Y18.36764 Z0.2 F900 E3.8649 
G1 X-2.63691 Y18.27022 Z0.2 F900 E3.86823 
G1 X-2.6448 Y18.17055 Z0.2 F900 E3.87156 
G1 X-2.6448 Y16.3995 Z0.2 F900 E3.93046 
G1 X-2.6595 Y16.235 Z0.2 F900 E3.93596 
G1 X-2.68248 Y16.13779 Z0.2 F900 E3.93928 
G1 X-2.7125 Y16.0374 Z0.2 F900 E3.94277 
G1 X-2.75329 Y15.94632 Z0.2 F900 E3.94609 
G1 X-2.8254 Y15.8137 Z0.2 F900 E3.95111 
G1 X-2.9601 Y15.6517 Z0.2 F900 E3.95812 
G1 X-3.03719 Y15.58806 Z0.2 F900 E3.96145 
G1 X-3.1326 Y15.513 Z0.2 F900 E3.96548 
G1 X-3.2933 Y15.4298 Z0.2 F900 E3.9715 
G1 X-3.3876 Y15.39689 Z0.2 F900 E3.97483 
G1 X-3.4892 Y15.3681 Z0.2 F900 E3.97834 
G1 X-3.58811 Y15.35417 Z0.2 F900 E3.98167 
G1 X-3.6998 Y15.3447 Z0.2 F900 E3.9854 
G1 X-5.4774 Y15.3447 Z0.2 F900 E4.04452 
G1 X-5.6034 Y15.3334 Z0.2 F900 E4.04873 
G1 X-5.6995 Y15.30606 Z0.2 F900 E4.05205 
G1 X-5.79085 Y15.26641 Z0.2 F900 E4.05538 
G1 X-5.8758 Y15.21455 Z0.2 F900 E4.0587 
G1 X-5.9635 Y15.1416 Z0.2 F900 E4.0625 
G1 X-6.0438 Y15.0395 Z0.2 F900 E4.06682 
G1 X-6.1004 Y14.9302 Z0.2 F900 E4.07091 
G1 X-6.12888 Y14.83443 Z0.2 F900 E4.07424 
G1 X-6.14412 Y14.73597 Z0.2 F900 E4.07757 
G1 X-6.1499 Y14.63623 Z0.2 F900 E4.08089 
G1 X-6.1499 Y-18.1764 Z0.2 F900 E5.17224 
G1 X-6.1367 Y-18.3135 Z0.2 F900 E5.17682 
G1 X-6.1015 Y-18.434 Z0.2 F900 E5.181 
G1 X-6.0976 Y-18.4434 Z0.2 F900 E5.18134 
G1 X-5.728 Y-18.2858 Z0.2 F4800 ;Travel
G1 X-5.67215 Y-18.36818 Z0.2 F900 E5.18466 
G1 X-5.59067 Y-18.42469 Z0.2 F900 E5.18799 
G1 X-5.49395 Y-18.44672 Z0.2 F900 E5.19132 
G1 X-5.39409 Y-18.4499 Z0.2 F900 E5.19464 
G1 X5.4568 Y-18.4499 Z0.2 F900 E5.55554 
G1 X5.55567 Y-18.4368 Z0.2 F900 E5.55887 
G1 X5.64404 Y-18.39224 Z0.2 F900 E5.5622 
G1 X5.71094 Y-18.31894 Z0.2 F900 E5.56552 
G1 X5.74386 Y-18.22529 Z0.2 F900 E5.56885 
G1 X5.7499 Y-18.12556 Z0.2 F900 E5.57217 
G1 X5.7499 Y-13.4913 Z0.2 F900 E5.72631 
G1 X5.73635 Y-13.39253 Z0.2 F900 E5.72964 
G1 X5.69203 Y-13.30406 Z0.2 F900 E5.73296 
G1 X5.61845 Y-13.2376 Z0.2 F900 E5.73629 
G1 X5.52489 Y-13.20405 Z0.2 F900 E5.73962 
G1 X5.42512 Y-13.19919 Z0.2 F900 E5.74294 
G1 X0.6822 Y-13.1983 Z0.2 F900 E5.90069 
G1 X0.4303 Y-13.174 Z0.2 F900 E5.90911 
G1 X0.1554 Y-13.0917 Z0.2 F900 E5.91865 
G1 X-0.0473 Y-12.9852 Z0.2 F900 E5.92627 
G1 X-0.13156 Y-12.93163 Z0.2 F900 E5.92959 
G1 X-0.325 Y-12.7708 Z0.2 F900 E5.93796 
G1 X-0.39049 Y-12.69526 Z0.2 F900 E5.94129 
G1 X-0.5135 Y-12.5386 Z0.2 F900 E5.94791 
G1 X-0.5625 Y-12.45146 Z0.2 F900 E5.95124 
G1 X-0.6551 Y-12.2669 Z0.2 F900 E5.95811 
G1 X-0.7308 Y-11.9996 Z0.2 F900 E5.96735 
G1 X-0.7523 Y-11.7618 Z0.2 F900 E5.97529 
G1 X-0.7523 Y-10.4359 Z0.2 F900 E6.01939 
G1 X-0.7295 Y-10.1994 Z0.2 F900 E6.02729 
G1 X-0.70466 Y-10.10256 Z0.2 F900 E6.03062 
G1 X-0.6448 Y-9.9072 Z0.2 F900 E6.03741 
G1 X-0.5393 Y-9.7065 Z0.2 F900 E6.04495 
G1 X-0.48581 Y-9.6222 Z0.2 F900 E6.04828 
G1 X-0.3166 Y-9.4186 Z0.2 F900 E6.05708 
G1 X-0.1365 Y-9.2729 Z0.2 F900 E6.06479 
G1 X-0.05381 Y-9.21695 Z0.2 F900 E6.06812 
G1 X0.1173 Y-9.1282 Z0.2 F900 E6.07453 
G1 X0.20944 Y-9.08977 Z0.2 F900 E6.07785 
G1 X0.4461 Y-9.0227 Z0.2 F900 E6.08603 
G1 X0.6839 Y-9.0011 Z0.2 F900 E6.09398 
G1 X5.457 Y-9.0011 Z0.2 F900 E6.25273 
G1 X5.55577 Y-8.98756 Z0.2 F900 E6.25606 
G1 X5.64426 Y-8.94323 Z0.2 F900 E6.25938 
G1 X5.71075 Y-8.86966 Z0.2 F900 E6.26271 
G1 X5.74402 Y-8.77604 Z0.2 F900 E6.26603 
G1 X5.7499 Y-8.6763 Z0.2 F900 E6.26936 
G1 X5.7499 Y-7.1921 Z0.2 F900 E6.31872 
G1 X5.73635 Y-7.09333 Z0.2 F900 E6.32205 
G1 X5.69206 Y-7.00484 Z0.2 F900 E6.32538 
G1 X5.61847 Y-6.93837 Z0.2 F900 E6.3287 
G1 X5.52492 Y-6.90519 Z0.2 F900 E6.33203 
G1 X5.4252 Y-6.8992 Z0.2 F900 E6.33535 
G1 X0.6821 Y-6.8992 Z0.2 F900 E6.49311 
G1 X0.4301 Y-6.8748 Z0.2 F900 E6.50153 
G1 X0.1554 Y-6.7925 Z0.2 F900 E6.51107 
G1 X-0.0473 Y-6.686 Z0.2 F900 E6.51868 
G1 X-0.13156 Y-6.63243 Z0.2 F900 E6.52201 
G1 X-0.325 Y-6.4716 Z0.2 F900 E6.53038 
G1 X-0.39049 Y-6.39606 Z0.2 F900 E6.5337 
G1 X-0.5135 Y-6.2394 Z0.2 F900 E6.54033 
G1 X-0.5625 Y-6.15226 Z0.2 F900 E6.54365 
G1 X-0.6551 Y-5.9677 Z0.2 F900 E6.55052 
G1 X-0.7308 Y-5.7004 Z0.2 F900 E6.55976 
G1 X-0.7523 Y-5.4622 Z0.2 F900 E6.56772 
G1 X-0.7514 Y-4.4962 Z0.2 F900 E6.59985 
G1 X-0.7277 Y-4.2658 Z0.2 F900 E6.60755 
G1 X-0.6656 Y-4.0533 Z0.2 F900 E6.61491 
G1 X-0.6292 Y-3.96027 Z0.2 F900 E6.61824 
G1 X-0.5833 Y-3.87147 Z0.2 F900 E6.62157 
G1 X-0.5044 Y-3.7264 Z0.2 F900 E6.62706 
G1 X-0.3166 Y-3.5004 Z0.2 F900 E6.63683 
G1 X-0.1365 Y-3.3547 Z0.2 F900 E6.64454 
G1 X-0.05381 Y-3.29875 Z0.2 F900 E6.64786 
G1 X0.1173 Y-3.21 Z0.2 F900 E6.65427 
G1 X0.20944 Y-3.17157 Z0.2 F900 E6.6576 
G1 X0.4461 Y-3.1045 Z0.2 F900 E6.66578 
G1 X0.6839 Y-3.0829 Z0.2 F900 E6.67372 
G1 X5.4595 Y-3.0829 Z0.2 F900 E6.83256 
G1 X5.55827 Y-3.06963 Z0.2 F900 E6.83589 
G1 X5.64597 Y-3.02363 Z0.2 F900 E6.83921 
G1 X5.71173 Y-2.94948 Z0.2 F900 E6.84254 
G1 X5.74468 Y-2.85585 Z0.2 F900 E6.84586 
G1 X5.7499 Y-2.75607 Z0.2 F900 E6.84919 
G1 X5.7499 Y-0.8904 Z0.2 F900 E6.91124 
G1 X5.7362 Y-0.79173 Z0.2 F900 E6.91457 
G1 X5.69054 Y-0.70388 Z0.2 F900 E6.91789 
G1 X5.61628 Y-0.63825 Z0.2 F900 E6.92122 
G1 X5.52258 Y-0.6058 Z0.2 F900 E6.92455 
G1 X5.42285 Y-0.6 Z0.2 F900 E6.92787 
G1 X0.6823 Y-0.6 Z0.2 F900 E7.08554 
G1 X0.4303 Y-0.5757 Z0.2 F900 E7.09396 
G1 X0.1554 Y-0.4934 Z0.2 F900 E7.10351 
G1 X-0.0473 Y-0.3869 Z0.2 F900 E7.11112 
G1 X-0.13156 Y-0.33333 Z0.2 F900 E7.11445 
G1 X-0.325 Y-0.1725 Z0.2 F900 E7.12282 
G1 X-0.39049 Y-0.09696 Z0.2 F900 E7.12614 
G1 X-0.5135 Y0.0597 Z0.2 F900 E7.13277 
G1 X-0.5625 Y0.14684 Z0.2 F900 E7.13609 
G1 X-0.6551 Y0.3314 Z0.2 F900 E7.14296 
G1 X-0.7308 Y0.5987 Z0.2 F900 E7.1522 
G1 X-0.7523 Y0.837 Z0.2 F900 E7.16016 
G1 X-0.7514 Y1.4221 Z0.2 F900 E7.17962 
G1 X-0.7274 Y1.6543 Z0.2 F900 E7.18738 
G1 X-0.6498 Y1.9139 Z0.2 F900 E7.1964 
G1 X-0.60649 Y2.004 Z0.2 F900 E7.19972 
G1 X-0.5044 Y2.1917 Z0.2 F900 E7.20683 
G1 X-0.3251 Y2.4073 Z0.2 F900 E7.21615 
G1 X-0.24969 Y2.47294 Z0.2 F900 E7.21948 
G1 X-0.0821 Y2.6047 Z0.2 F900 E7.22657 
G1 X0.1303 Y2.7147 Z0.2 F900 E7.23453 
G1 X0.2255 Y2.7523 Z0.2 F900 E7.23793 
G1 X0.4483 Y2.8138 Z0.2 F900 E7.24562 
G1 X0.6841 Y2.8351 Z0.2 F900 E7.25349 
G1 X5.4575 Y2.8351 Z0.2 F900 E7.41226 
G1 X5.55622 Y2.84885 Z0.2 F900 E7.41558 
G1 X5.64466 Y2.89332 Z0.2 F900 E7.41891 
G1 X5.71079 Y2.96718 Z0.2 F900 E7.42224 
G1 X5.74394 Y3.06067 Z0.2 F900 E7.42556 
G1 X5.7499 Y3.1604 Z0.2 F900 E7.42889 
G1 X5.7499 Y5.4087 Z0.2 F900 E7.50367 
G1 X5.73626 Y5.50737 Z0.2 F900 E7.50699 
G1 X5.69055 Y5.5952 Z0.2 F900 E7.51032 
G1 X5.6163 Y5.66084 Z0.2 F900 E7.51364 
G1 X5.5226 Y5.69331 Z0.2 F900 E7.51697 
G1 X5.42287 Y5.6992 Z0.2 F900 E7.5203 
G1 X0.6823 Y5.6992 Z0.2 F900 E7.67797 
G1 X0.4303 Y5.7235 Z0.2 F900 E7.68639 
G1 X0.1554 Y5.8058 Z0.2 F900 E7.69593 
G1 X-0.0473 Y5.9123 Z0.2 F900 E7.70355 
G1 X-0.13156 Y5.96587 Z0.2 F900 E7.70687 
G1 X-0.325 Y6.1267 Z0.2 F900 E7.71524 
G1 X-0.39049 Y6.20224 Z0.2 F900 E7.71857 
G1 X-0.5135 Y6.3589 Z0.2 F900 E7.72519 
G1 X-0.5625 Y6.44604 Z0.2 F900 E7.72852 
G1 X-0.6551 Y6.6306 Z0.2 F900 E7.73539 
G1 X-0.7308 Y6.8978 Z0.2 F900 E7.74462 
G1 X-0.7525 Y7.1376 Z0.2 F900 E7.75263 
G1 X-0.7512 Y7.3417 Z0.2 F900 E7.75942 
G1 X-0.7274 Y7.5725 Z0.2 F900 E7.76714 
G1 X-0.6457 Y7.8455 Z0.2 F900 E7.77662 
G1 X-0.5393 Y8.048 Z0.2 F900 E7.78422 
G1 X-0.48581 Y8.1323 Z0.2 F900 E7.78755 
G1 X-0.3166 Y8.3359 Z0.2 F900 E7.79635 
G1 X-0.1365 Y8.4816 Z0.2 F900 E7.80406 
G1 X-0.0538 Y8.53755 Z0.2 F900 E7.80739 
G1 X0.1175 Y8.6263 Z0.2 F900 E7.8138 
G1 X0.20969 Y8.66462 Z0.2 F900 E7.81713 
G1 X0.3993 Y8.7197 Z0.2 F900 E7.8237 
G1 X0.49769 Y8.7375 Z0.2 F900 E7.82702 
G1 X0.6859 Y8.7533 Z0.2 F900 E7.8333 
G1 X5.4753 Y8.7543 Z0.2 F900 E7.9926 
G1 X5.57339 Y8.77159 Z0.2 F900 E7.99593 
G1 X5.6582 Y8.82288 Z0.2 F900 E7.99925 
G1 X5.71892 Y8.90109 Z0.2 F900 E8.00258 
G1 X5.74554 Y8.99649 Z0.2 F900 E8.0059 
G1 X5.74988 Y9.09629 Z0.2 F900 E8.00923 
G1 X5.749 Y11.7237 Z0.2 F900 E8.09662 
G1 X5.73176 Y11.82181 Z0.2 F900 E8.09994 
G1 X5.68051 Y11.90655 Z0.2 F900 E8.10327 
G1 X5.60258 Y11.96765 Z0.2 F900 E8.1066 
G1 X5.50702 Y11.99394 Z0.2 F900 E8.10992 
G1 X5.40723 Y11.9984 Z0.2 F900 E8.11325 
G1 X0.5575 Y11.9984 Z0.2 F900 E8.27455 
G1 X0.3758 Y12.0146 Z0.2 F900 E8.28062 
G1 X0.27775 Y12.03416 Z0.2 F900 E8.28394 
G1 X0.075 Y12.0963 Z0.2 F900 E8.291 
G1 X-0.1073 Y12.1921 Z0.2 F900 E8.29785 
G1 X-0.19113 Y12.24632 Z0.2 F900 E8.30117 
G1 X-0.3618 Y12.3881 Z0.2 F900 E8.30855 
G1 X-0.42694 Y12.46395 Z0.2 F900 E8.31188 
G1 X-0.5433 Y12.612 Z0.2 F900 E8.31814 
G1 X-0.6632 Y12.8469 Z0.2 F900 E8.32691 
G1 X-0.7324 Y13.0911 Z0.2 F900 E8.33536 
G1 X-0.7517 Y13.2913 Z0.2 F900 E8.34204 
G1 X-0.75062 Y13.39125 Z0.2 F900 E8.34537 
G1 X-0.7356 Y13.5454 Z0.2 F900 E8.35052 
G1 X-0.71588 Y13.64341 Z0.2 F900 E8.35385 
G1 X-0.6536 Y13.8464 Z0.2 F900 E8.36091 
G1 X-0.5274 Y14.0824 Z0.2 F900 E8.36981 
G1 X-0.3535 Y14.2919 Z0.2 F900 E8.37887 
G1 X-0.1408 Y14.4615 Z0.2 F900 E8.38792 
G1 X0.0962 Y14.5824 Z0.2 F900 E8.39676 
G1 X0.342 Y14.6521 Z0.2 F900 E8.40526 
G1 X0.557 Y14.6716 Z0.2 F900 E8.41244 
G1 X5.475 Y14.6725 Z0.2 F900 E8.57602 
G1 X5.57295 Y14.69038 Z0.2 F900 E8.57934 
G1 X5.65808 Y14.74096 Z0.2 F900 E8.58267 
G1 X5.71879 Y14.81912 Z0.2 F900 E8.58599 
G1 X5.746 Y14.91451 Z0.2 F900 E8.58932 
G1 X5.7491 Y15.01436 Z0.2 F900 E8.59265 
G1 X5.749 Y18.1753 Z0.2 F900 E8.69778 
G1 X5.73171 Y18.27339 Z0.2 F900 E8.70111 
G1 X5.68044 Y18.35821 Z0.2 F900 E8.70443 
G1 X5.6025 Y18.41929 Z0.2 F900 E8.70776 
G1 X5.50693 Y18.44553 Z0.2 F900 E8.71108 
G1 X5.40713 Y18.4499 Z0.2 F900 E8.71441 
G1 X-1.9516 Y18.4499 Z0.2 F900 E8.95916 
G1 X-2.05047 Y18.4368 Z0.2 F900 E8.96249 
G1 X-2.13882 Y18.39219 Z0.2 F900 E8.96581 
G1 X-2.20537 Y18.3188 Z0.2 F900 E8.96914 
G1 X-2.23926 Y18.22544 Z0.2 F900 E8.97247 
G1 X-2.2448 Y18.12567 Z0.2 F900 E8.97579 
G1 X-2.2448 Y16.3817 Z0.2 F900 E9.0338 
G1 X-2.2629 Y16.1787 Z0.2 F900 E9.04057 
G1 X-2.2822 Y16.0803 Z0.2 F900 E9.04391 
G1 X-2.3321 Y15.9132 Z0.2 F900 E9.04971 
G1 X-2.36872 Y15.82026 Z0.2 F900 E9.05304 
G1 X-2.41473 Y15.73152 Z0.2 F900 E9.05636 
G1 X-2.4927 Y15.5881 Z0.2 F900 E9.06179 
G1 X-2.6723 Y15.3722 Z0.2 F900 E9.07113 
G1 X-2.74786 Y15.30673 Z0.2 F900 E9.07446 
G1 X-2.9151 Y15.1752 Z0.2 F900 E9.08154 
G1 X-3.1276 Y15.0652 Z0.2 F900 E9.08949 
G1 X-3.2209 Y15.0284 Z0.2 F900 E9.09283 
G1 X-3.3984 Y14.9781 Z0.2 F900 E9.09897 
G1 X-3.49682 Y14.96051 Z0.2 F900 E9.10229 
G1 X-3.6829 Y14.9447 Z0.2 F900 E9.1085 
G1 X-5.4595 Y14.9447 Z0.2 F900 E9.16759 
G1 X-5.55816 Y14.93102 Z0.2 F900 E9.17092 
G1 X-5.64606 Y14.88539 Z0.2 F900 E9.17425 
G1 X-5.71164 Y14.8111 Z0.2 F900 E9.17757 
G1 X-5.7441 Y14.7174 Z0.2 F900 E9.1809 
G1 X-5.7499 Y14.61767 Z0.2 F900 E9.18422 
G1 X-5.7499 Y-18.1568 Z0.2 F900 E10.27431 
G1 X-5.7368 Y-18.25567 Z0.2 F900 E10.27763 
G1 X-5.728 Y-18.2858 Z0.2 F900 E10.27868 
G1 X-5.4499 Y-18.14424 Z0.2 F4800 ;Travel
G1 X-4.87572 Y-18.1499 Z0.2 F1800 E10.29777 
G1 X-5.4499 Y-17.57572 Z0.2 F1800 E10.32478 
G1 X-5.4499 Y-17.0072 Z0.2 F1800 E10.34369 
G1 X-4.3072 Y-18.1499 Z0.2 F1800 E10.39744 
G1 X-3.73867 Y-18.1499 Z0.2 F1800 E10.41635 
G1 X-5.4499 Y-16.43867 Z0.2 F1800 E10.49684 
G1 X-5.4499 Y-15.87015 Z0.2 F1800 E10.51575 
G1 X-3.17015 Y-18.1499 Z0.2 F1800 E10.62298 
G1 X-2.60163 Y-18.1499 Z0.2 F1800 E10.64189 
G1 X-5.4499 Y-15.30163 Z0.2 F1800 E10.77587 
G1 X-5.4499 Y-14.73311 Z0.2 F1800 E10.79477 
G1 X-2.03311 Y-18.1499 Z0.2 F1800 E10.95549 
G1 X-1.46458 Y-18.1499 Z0.2 F1800 E10.9744 
G1 X-5.4499 Y-14.16458 Z0.2 F1800 E11.16186 
G1 X-5.4499 Y-13.59606 Z0.2 F1800 E11.18077 
G1 X-0.89606 Y-18.1499 Z0.2 F1800 E11.39496 
G1 X-0.32754 Y-18.1499 Z0.2 F1800 E11.41387 
G1 X-5.4499 Y-13.02754 Z0.2 F1800 E11.65481 
G1 X-5.4499 Y-12.45902 Z0.2 F1800 E11.67372 
G1 X0.24098 Y-18.1499 Z0.2 F1800 E11.9414 
G1 X0.80951 Y-18.1499 Z0.2 F1800 E11.96031 
G1 X-5.4499 Y-11.89049 Z0.2 F1800 E12.25474 
G1 X-5.4499 Y-11.32197 Z0.2 F1800 E12.27365 
G1 X1.37803 Y-18.1499 Z0.2 F1800 E12.59481 
G1 X1.94655 Y-18.1499 Z0.2 F1800 E12.61372 
G1 X-5.4499 Y-10.75345 Z0.2 F1800 E12.96163 
G1 X-5.4499 Y-10.18492 Z0.2 F1800 E12.98054 
G1 X2.51508 Y-18.1499 Z0.2 F1800 E13.35518 
G1 X3.0836 Y-18.1499 Z0.2 F1800 E13.37409 
G1 X-5.4499 Y-9.6164 Z0.2 F1800 E13.77548 
G1 X-5.4499 Y-9.04788 Z0.2 F1800 E13.79439 
G1 X3.65212 Y-18.1499 Z0.2 F1800 E14.22252 
G1 X4.22064 Y-18.1499 Z0.2 F1800 E14.24143 
G1 X-5.4499 Y-8.47936 Z0.2 F1800 E14.6963 
G1 X-5.4499 Y-7.91083 Z0.2 F1800 E14.71521 
G1 X-0.88683 Y-12.4739 Z0.2 F1800 E14.92985 
G1 X-1.0523 Y-11.73991 Z0.2 F1800 E14.95487 
G1 X-5.4499 Y-7.34231 Z0.2 F1800 E15.16172 
G1 X-5.4499 Y-6.77379 Z0.2 F1800 E15.18063 
G1 X-1.0523 Y-11.17139 Z0.2 F1800 E15.38748 
G1 X-1.0523 Y-10.60287 Z0.2 F1800 E15.40639 
G1 X-5.4499 Y-6.20527 Z0.2 F1800 E15.61324 
G1 X-5.4499 Y-5.63674 Z0.2 F1800 E15.63215 
G1 X-1.00865 Y-10.078 Z0.2 F1800 E15.84105 
G1 X-0.85532 Y-9.66281 Z0.2 F1800 E15.85577 
G1 X-5.4499 Y-5.06822 Z0.2 F1800 E16.07189 
G1 X-5.4499 Y-4.4997 Z0.2 F1800 E16.0908 
G1 X-0.62694 Y-9.32266 Z0.2 F1800 E16.31765 
G1 X-0.33418 Y-9.04689 Z0.2 F1800 E16.33103 
G1 X-5.4499 Y-3.93117 Z0.2 F1800 E16.57166 
G1 X-5.4499 Y-3.36265 Z0.2 F1800 E16.59057 
G1 X0.02718 Y-8.83973 Z0.2 F1800 E16.84819 
G1 X0.47485 Y-8.71888 Z0.2 F1800 E16.86361 
G1 X-5.4499 Y-2.79413 Z0.2 F1800 E17.1423 
G1 X-5.4499 Y-2.22561 Z0.2 F1800 E17.16121 
G1 X1.02559 Y-8.7011 Z0.2 F1800 E17.46579 
G1 X1.59412 Y-8.7011 Z0.2 F1800 E17.4847 
G1 X-0.12042 Y-6.98656 Z0.2 F1800 E17.56535 
G1 X0.66005 Y-7.19851 Z0.2 F1800 E17.59225 
G1 X2.16264 Y-8.7011 Z0.2 F1800 E17.66292 
G1 X2.73116 Y-8.7011 Z0.2 F1800 E17.68183 
G1 X1.22926 Y-7.1992 Z0.2 F1800 E17.75248 
G1 X1.79778 Y-7.1992 Z0.2 F1800 E17.77139 
G1 X3.29968 Y-8.7011 Z0.2 F1800 E17.84203 
G1 X3.86821 Y-8.7011 Z0.2 F1800 E17.86094 
G1 X2.36631 Y-7.1992 Z0.2 F1800 E17.93159 
G1 X2.93483 Y-7.1992 Z0.2 F1800 E17.9505 
G1 X4.43673 Y-8.7011 Z0.2 F1800 E18.02114 
G1 X5.00525 Y-8.7011 Z0.2 F1800 E18.04005 
G1 X3.50335 Y-7.1992 Z0.2 F1800 E18.11069 
G1 X4.07188 Y-7.1992 Z0.2 F1800 E18.1296 
G1 X5.4499 Y-8.57722 Z0.2 F1800 E18.19442 
G1 X5.4499 Y-8.0087 Z0.2 F1800 E18.21333 
G1 X4.6404 Y-7.1992 Z0.2 F1800 E18.25141 
G1 X5.20892 Y-7.1992 Z0.2 F1800 E18.27032 
G1 X5.4499 Y-7.44018 Z0.2 F1800 E18.28165 
G1 X5.4499 Y-7.44018 Z0.2 F1200 E16.98165 ;Retract
G1 X5.4499 Y-7.44018 Z0.2 F3000 ;Retract 2?
G1 X5.25513 Y-13.49916 Z0.2 F4800 ;Travel
G1 X5.25513 Y-13.49916 Z0.2 F1200 E18.28165 ;End Retract
G1 X5.4499 Y-13.69393 Z0.2 F1800 E18.29081 
G1 X5.4499 Y-14.26245 Z0.2 F1800 E18.30972 
G1 X4.6865 Y-13.49906 Z0.2 F1800 E18.34563 
G1 X4.11787 Y-13.49895 Z0.2 F1800 E18.36454 
G1 X5.4499 Y-14.83097 Z0.2 F1800 E18.4272 
G1 X5.4499 Y-15.3995 Z0.2 F1800 E18.44611 
G1 X3.54924 Y-13.49884 Z0.2 F1800 E18.53551 
G1 X2.98061 Y-13.49874 Z0.2 F1800 E18.55442 
G1 X5.4499 Y-15.96802 Z0.2 F1800 E18.67057 
G1 X5.4499 Y-16.53654 Z0.2 F1800 E18.68948 
G1 X2.41199 Y-13.49863 Z0.2 F1800 E18.83237 
G1 X1.84336 Y-13.49852 Z0.2 F1800 E18.85128 
G1 X5.4499 Y-17.10507 Z0.2 F1800 E19.02092 
G1 X5.4499 Y-17.67359 Z0.2 F1800 E19.03983 
G1 X1.27473 Y-13.49841 Z0.2 F1800 E19.23622 
G1 X0.7061 Y-13.49831 Z0.2 F1800 E19.25513 
G1 X5.35769 Y-18.1499 Z0.2 F1800 E19.47393 
G1 X4.78917 Y-18.1499 Z0.2 F1800 E19.49284 
G1 X-0.02476 Y-13.33597 Z0.2 F1800 E19.71927 
G1 X-0.02476 Y-13.33597 Z0.2 F1200 E18.41927 ;Retract
G1 X-0.02476 Y-13.33597 Z0.2 F3000 ;Retract 2?
G1 X1.36114 Y-2.7829 Z0.2 F4800 ;Travel
G1 X1.36114 Y-2.7829 Z0.2 F1200 E19.71927 ;End Retract
G1 X-5.4499 Y4.02814 Z0.2 F1800 E20.03964 
G1 X-5.4499 Y3.45962 Z0.2 F1800 E20.05855 
G1 X0.79262 Y-2.7829 Z0.2 F1800 E20.35218 
G1 X0.28076 Y-2.83956 Z0.2 F1800 E20.36931 
G1 X-5.4499 Y2.8911 Z0.2 F1800 E20.63886 
G1 X-5.4499 Y2.32258 Z0.2 F1800 E20.65777 
G1 X-0.12802 Y-2.99931 Z0.2 F1800 E20.9081 
G1 X-0.46289 Y-3.23296 Z0.2 F1800 E20.92168 
G1 X-5.4499 Y1.75405 Z0.2 F1800 E21.15625 
G1 X-5.4499 Y1.18553 Z0.2 F1800 E21.17516 
G1 X-0.7327 Y-3.53167 Z0.2 F1800 E21.39704 
G1 X-0.93038 Y-3.90251 Z0.2 F1800 E21.41102 
G1 X-5.4499 Y0.61701 Z0.2 F1800 E21.6236 
G1 X-5.4499 Y0.04848 Z0.2 F1800 E21.64251 
G1 X-1.03919 Y-4.36223 Z0.2 F1800 E21.84998 
G1 X-1.0518 Y-4.91814 Z0.2 F1800 E21.86847 
G1 X-5.4499 Y-0.52004 Z0.2 F1800 E22.07535 
G1 X-5.4499 Y-1.08856 Z0.2 F1800 E22.09426 
G1 X-1.05124 Y-5.48722 Z0.2 F1800 E22.30116 
G1 X-0.84107 Y-6.26591 Z0.2 F1800 E22.32798 
G1 X-5.4499 Y-1.65708 Z0.2 F1800 E22.54477 
G1 X-5.4499 Y-1.65708 Z0.2 F1200 E21.24477 ;Retract
G1 X-5.4499 Y-1.65708 Z0.2 F3000 ;Retract 2?
G1 X5.16347 Y-0.9 Z0.2 F4800 ;Travel
G1 X5.16347 Y-0.9 Z0.2 F1200 E22.54477 ;End Retract
G1 X5.4499 Y-1.18643 Z0.2 F1800 E22.55824 
G1 X5.4499 Y-1.75495 Z0.2 F1800 E22.57715 
G1 X4.59495 Y-0.9 Z0.2 F1800 E22.61736 
G1 X4.02642 Y-0.9 Z0.2 F1800 E22.63627 
G1 X5.4499 Y-2.32348 Z0.2 F1800 E22.70323 
G1 X5.4499 Y-2.7829 Z0.2 F1800 E22.71851 
G1 X5.3408 Y-2.7829 Z0.2 F1800 E22.72214 
G1 X3.4579 Y-0.9 Z0.2 F1800 E22.8107 
G1 X2.88938 Y-0.9 Z0.2 F1800 E22.82961 
G1 X4.77228 Y-2.7829 Z0.2 F1800 E22.91818 
G1 X4.20376 Y-2.7829 Z0.2 F1800 E22.93709 
G1 X2.32086 Y-0.9 Z0.2 F1800 E23.02565 
G1 X1.75233 Y-0.9 Z0.2 F1800 E23.04456 
G1 X3.63523 Y-2.7829 Z0.2 F1800 E23.13313 
G1 X3.06671 Y-2.7829 Z0.2 F1800 E23.15204 
G1 X1.18381 Y-0.9 Z0.2 F1800 E23.2406 
G1 X0.60973 Y-0.89444 Z0.2 F1800 E23.2597 
G1 X2.49819 Y-2.7829 Z0.2 F1800 E23.34853 
G1 X1.92967 Y-2.7829 Z0.2 F1800 E23.36743 
G1 X-0.22019 Y-0.63304 Z0.2 F1800 E23.46856 
G1 X-0.78743 Y-0.06581 Z0.2 F1800 E23.49524 
G1 X-5.4499 Y4.59667 Z0.2 F1800 E23.71455 
G1 X-5.4499 Y5.16519 Z0.2 F1800 E23.73346 
G1 X-1.04672 Y0.76201 Z0.2 F1800 E23.94057 
G1 X-1.05155 Y1.33536 Z0.2 F1800 E23.95964 
G1 X-5.4499 Y5.73371 Z0.2 F1800 E24.16652 
G1 X-5.4499 Y6.30223 Z0.2 F1800 E24.18543 
G1 X-0.9856 Y1.83793 Z0.2 F1800 E24.39542 
G1 X-0.81946 Y2.24032 Z0.2 F1800 E24.4099 
G1 X-5.4499 Y6.87076 Z0.2 F1800 E24.6277 
G1 X-5.4499 Y7.43928 Z0.2 F1800 E24.64661 
G1 X-0.58026 Y2.56964 Z0.2 F1800 E24.87566 
G1 X-0.27598 Y2.83388 Z0.2 F1800 E24.88907 
G1 X-5.4499 Y8.0078 Z0.2 F1800 E25.13243 
G1 X-5.4499 Y8.57632 Z0.2 F1800 E25.15134 
G1 X0.10076 Y3.02566 Z0.2 F1800 E25.41243 
G1 X0.56905 Y3.1259 Z0.2 F1800 E25.42835 
G1 X-5.4499 Y9.14485 Z0.2 F1800 E25.71147 
G1 X-5.4499 Y9.71337 Z0.2 F1800 E25.73038 
G1 X1.12837 Y3.1351 Z0.2 F1800 E26.0398 
G1 X1.69689 Y3.1351 Z0.2 F1800 E26.05871 
G1 X-5.4499 Y10.28189 Z0.2 F1800 E26.39487 
G1 X-5.4499 Y10.85042 Z0.2 F1800 E26.41378 
G1 X-0.66301 Y6.06353 Z0.2 F1800 E26.63894 
G1 X-1.04228 Y7.01132 Z0.2 F1800 E26.67289 
G1 X-5.4499 Y11.41894 Z0.2 F1800 E26.88022 
G1 X-5.4499 Y11.98746 Z0.2 F1800 E26.89912 
G1 X-1.02953 Y7.56709 Z0.2 F1800 E27.10704 
G1 X-0.90014 Y8.00623 Z0.2 F1800 E27.12227 
G1 X-5.4499 Y12.55598 Z0.2 F1800 E27.33628 
G1 X-5.4499 Y13.12451 Z0.2 F1800 E27.35519 
G1 X-0.68608 Y8.36069 Z0.2 F1800 E27.57926 
G1 X-0.40616 Y8.64929 Z0.2 F1800 E27.59263 
G1 X-5.4499 Y13.69303 Z0.2 F1800 E27.82988 
G1 X-5.4499 Y14.26155 Z0.2 F1800 E27.84879 
G1 X-0.06031 Y8.87196 Z0.2 F1800 E28.1023 
G1 X0.36229 Y9.01789 Z0.2 F1800 E28.11717 
G1 X-5.26453 Y14.6447 Z0.2 F1800 E28.38183 
G1 X-4.696 Y14.6447 Z0.2 F1800 E28.40074 
G1 X0.89535 Y9.05335 Z0.2 F1800 E28.66374 
G1 X1.46376 Y9.05347 Z0.2 F1800 E28.68265 
G1 X-4.12748 Y14.6447 Z0.2 F1800 E28.94564 
G1 X-4.12748 Y14.6447 Z0.2 F1200 E27.64564 ;Retract
G1 X-4.12748 Y14.6447 Z0.2 F3000 ;Retract 2?
G1 X-0.38991 Y5.79042 Z0.2 F4800 ;Travel
G1 X-0.38991 Y5.79042 Z0.2 F1200 E28.94564 ;End Retract
G1 X2.26542 Y3.1351 Z0.2 F1800 E29.07054 
G1 X2.83394 Y3.1351 Z0.2 F1800 E29.08945 
G1 X0.55944 Y5.4096 Z0.2 F1800 E29.19644 
G1 X1.13836 Y5.3992 Z0.2 F1800 E29.21569 
G1 X3.40246 Y3.1351 Z0.2 F1800 E29.32219 
G1 X3.97098 Y3.1351 Z0.2 F1800 E29.3411 
G1 X1.70688 Y5.3992 Z0.2 F1800 E29.4476 
G1 X2.27541 Y5.3992 Z0.2 F1800 E29.4665 
G1 X4.53951 Y3.1351 Z0.2 F1800 E29.573 
G1 X5.10803 Y3.1351 Z0.2 F1800 E29.59191 
G1 X2.84393 Y5.3992 Z0.2 F1800 E29.69841 
G1 X3.41245 Y5.3992 Z0.2 F1800 E29.71732 
G1 X5.4499 Y3.36175 Z0.2 F1800 E29.81315 
G1 X5.4499 Y3.93027 Z0.2 F1800 E29.83206 
G1 X3.98097 Y5.3992 Z0.2 F1800 E29.90115 
G1 X4.5495 Y5.3992 Z0.2 F1800 E29.92006 
G1 X5.4499 Y4.4988 Z0.2 F1800 E29.96242 
G1 X5.4499 Y5.06732 Z0.2 F1800 E29.98132 
G1 X5.11802 Y5.3992 Z0.2 F1800 E29.99694 
G1 X5.11802 Y5.3992 Z0.2 F1200 E28.69694 ;Retract
G1 X5.11802 Y5.3992 Z0.2 F3000 ;Retract 2?
G1 X5.44913 Y11.32184 Z0.2 F4800 ;Travel
G1 X5.44913 Y11.32184 Z0.2 F1200 E29.99694 ;End Retract
G1 X5.07257 Y11.6984 Z0.2 F1800 E30.01465 
G1 X4.50405 Y11.6984 Z0.2 F1800 E30.03356 
G1 X5.44932 Y10.75313 Z0.2 F1800 E30.07802 
G1 X5.44952 Y10.18441 Z0.2 F1800 E30.09693 
G1 X3.93552 Y11.6984 Z0.2 F1800 E30.16815 
G1 X3.367 Y11.6984 Z0.2 F1800 E30.18706 
G1 X5.44971 Y9.61569 Z0.2 F1800 E30.28502 
G1 X5.4499 Y9.0543 Z0.2 F1800 E30.30369 
G1 X2.79848 Y11.6984 Z0.2 F1800 E30.42824 
G1 X2.22996 Y11.6984 Z0.2 F1800 E30.44715 
G1 X4.87418 Y9.05418 Z0.2 F1800 E30.57152 
G1 X4.30577 Y9.05406 Z0.2 F1800 E30.59043 
G1 X1.66143 Y11.6984 Z0.2 F1800 E30.71481 
G1 X1.09291 Y11.6984 Z0.2 F1800 E30.73372 
G1 X3.73737 Y9.05394 Z0.2 F1800 E30.8581 
G1 X3.16897 Y9.05382 Z0.2 F1800 E30.87701 
G1 X0.52246 Y11.70033 Z0.2 F1800 E31.00149 
G1 X-0.30982 Y11.96409 Z0.2 F1800 E31.03053 
G1 X2.60056 Y9.0537 Z0.2 F1800 E31.16743 
G1 X2.03216 Y9.05358 Z0.2 F1800 E31.18633 
G1 X-3.56763 Y14.65337 Z0.2 F1800 E31.44973 
G1 X-3.09951 Y14.75378 Z0.2 F1800 E31.46565 
G1 X-0.79925 Y12.45352 Z0.2 F1800 E31.57385 
G1 X-1.05146 Y13.27425 Z0.2 F1800 E31.60241 
G1 X-2.72235 Y14.94513 Z0.2 F1800 E31.681 
G1 X-2.4178 Y15.20911 Z0.2 F1800 E31.69441 
G1 X-0.98799 Y13.7793 Z0.2 F1800 E31.76166 
G1 X-0.81698 Y14.17681 Z0.2 F1800 E31.77605 
G1 X-2.17838 Y15.53821 Z0.2 F1800 E31.84009 
G1 X-2.01118 Y15.93953 Z0.2 F1800 E31.85455 
G1 X-0.57106 Y14.49942 Z0.2 F1800 E31.92229 
G1 X-0.24713 Y14.74401 Z0.2 F1800 E31.93579 
G1 X-1.9448 Y16.44168 Z0.2 F1800 E32.01564 
G1 X-1.9448 Y17.0102 Z0.2 F1800 E32.03455 
G1 X0.15463 Y14.91077 Z0.2 F1800 E32.1333 
G1 X0.6623 Y14.97162 Z0.2 F1800 E32.15031 
G1 X-1.9448 Y17.57872 Z0.2 F1800 E32.27294 
G1 X-1.9448 Y18.14725 Z0.2 F1800 E32.29185 
G1 X1.23072 Y14.97173 Z0.2 F1800 E32.44121 
G1 X1.79914 Y14.97183 Z0.2 F1800 E32.46012 
G1 X-1.37893 Y18.1499 Z0.2 F1800 E32.60961 
G1 X-0.81041 Y18.1499 Z0.2 F1800 E32.62851 
G1 X2.36756 Y14.97193 Z0.2 F1800 E32.778 
G1 X2.93598 Y14.97204 Z0.2 F1800 E32.7969 
G1 X-0.24188 Y18.1499 Z0.2 F1800 E32.94638 
G1 X0.32664 Y18.1499 Z0.2 F1800 E32.96529 
G1 X3.5044 Y14.97214 Z0.2 F1800 E33.11476 
G1 X4.07281 Y14.97225 Z0.2 F1800 E33.13367 
G1 X0.89516 Y18.1499 Z0.2 F1800 E33.28313 
G1 X1.46368 Y18.1499 Z0.2 F1800 E33.30204 
G1 X4.64123 Y14.97235 Z0.2 F1800 E33.4515 
G1 X5.20965 Y14.97246 Z0.2 F1800 E33.47041 
G1 X2.03221 Y18.1499 Z0.2 F1800 E33.61987 
G1 X2.60073 Y18.1499 Z0.2 F1800 E33.63878 
G1 X5.44909 Y15.30154 Z0.2 F1800 E33.77275 
G1 X5.44907 Y15.87008 Z0.2 F1800 E33.79166 
G1 X3.16925 Y18.1499 Z0.2 F1800 E33.8989 
G1 X3.73777 Y18.1499 Z0.2 F1800 E33.91781 
G1 X5.44905 Y16.43862 Z0.2 F1800 E33.9983 
G1 X5.44904 Y17.00716 Z0.2 F1800 E34.01721 
G1 X4.3063 Y18.1499 Z0.2 F1800 E34.07096 
G1 X4.87482 Y18.1499 Z0.2 F1800 E34.08987 
G1 X5.44902 Y17.5757 Z0.2 F1800 E34.11688 
G1 X5.44334 Y18.1499 Z0.2 F1800 E34.13598 
;layer 1 - 0.2mm
G1 X5.44334 Y18.1499 Z0.2 F1200 E32.83598 ;Retract
G1 X5.44334 Y18.1499 Z0.2 F3000 ;Retract 2?
G1 X5.44334 Y18.1499 Z0.4 F1380 ;Plane Change
G1 X5.473 Y18.4499 Z0.4 F4800 ;Travel
G1 X5.473 Y18.4499 Z0.4 F1200 E34.13598 ;End Retract
G1 X-1.9657 Y18.4499 Z0.4 F1800 E34.38339 
G1 X-2.06421 Y18.43537 Z0.4 F1800 E34.38672 
G1 X-2.14881 Y18.38397 Z0.4 F1800 E34.39004 
G1 X-2.2132 Y18.30886 Z0.4 F1800 E34.39337 
G1 X-2.24218 Y18.21387 Z0.4 F1800 E34.3967 
G1 X-2.2448 Y18.11396 Z0.4 F1800 E34.40002 
G1 X-2.2448 Y16.3945 Z0.4 F1800 E34.45721 
G1 X-2.25008 Y16.29465 Z0.4 F1800 E34.46054 
G1 X-2.26142 Y16.19533 Z0.4 F1800 E34.46386 
G1 X-2.27886 Y16.09696 Z0.4 F1800 E34.46719 
G1 X-2.30398 Y16.00019 Z0.4 F1800 E34.47051 
G1 X-2.33505 Y15.90517 Z0.4 F1800 E34.47384 
G1 X-2.37241 Y15.81254 Z0.4 F1800 E34.47717 
G1 X-2.41659 Y15.72287 Z0.4 F1800 E34.48049 
G1 X-2.46623 Y15.63609 Z0.4 F1800 E34.48382 
G1 X-2.52178 Y15.55324 Z0.4 F1800 E34.48714 
G1 X-2.6722 Y15.3723 Z0.4 F1800 E34.49497 
G1 X-2.7648 Y15.2904 Z0.4 F1800 E34.49908 
G1 X-2.84356 Y15.22882 Z0.4 F1800 E34.50241 
G1 X-2.92548 Y15.17153 Z0.4 F1800 E34.50573 
G1 X-3.01223 Y15.12181 Z0.4 F1800 E34.50906 
G1 X-3.1019 Y15.07759 Z0.4 F1800 E34.51239 
G1 X-3.19378 Y15.03831 Z0.4 F1800 E34.51571 
G1 X-3.28883 Y15.00728 Z0.4 F1800 E34.51904 
G1 X-3.38551 Y14.98182 Z0.4 F1800 E34.52236 
G1 X-3.48357 Y14.96276 Z0.4 F1800 E34.52569 
G1 X-3.58287 Y14.95115 Z0.4 F1800 E34.52902 
G1 X-3.68267 Y14.94524 Z0.4 F1800 E34.53234 
G1 X-3.78266 Y14.9447 Z0.4 F1800 E34.53567 
G1 X-5.4709 Y14.9447 Z0.4 F1800 E34.59182 
G1 X-5.56941 Y14.93017 Z0.4 F1800 E34.59515 
G1 X-5.65399 Y14.87874 Z0.4 F1800 E34.59847 
G1 X-5.7184 Y14.80366 Z0.4 F1800 E34.6018 
G1 X-5.74735 Y14.70867 Z0.4 F1800 E34.60512 
G1 X-5.7499 Y14.60876 Z0.4 F1800 E34.60845 
G1 X-5.7499 Y-18.1709 Z0.4 F1800 E35.69871 
G1 X-5.73537 Y-18.26941 Z0.4 F1800 E35.70203 
G1 X-5.68394 Y-18.35399 Z0.4 F1800 E35.70536 
G1 X-5.60805 Y-18.41678 Z0.4 F1800 E35.70868 
G1 X-5.51372 Y-18.44737 Z0.4 F1800 E35.71201 
G1 X-5.41381 Y-18.4499 Z0.4 F1800 E35.71534 
G1 X5.4719 Y-18.4499 Z0.4 F1800 E36.0774 
G1 X5.57048 Y-18.43506 Z0.4 F1800 E36.08072 
G1 X5.65485 Y-18.38323 Z0.4 F1800 E36.08405 
G1 X5.71891 Y-18.30787 Z0.4 F1800 E36.08737 
G1 X5.74745 Y-18.21276 Z0.4 F1800 E36.0907 
G1 X5.7499 Y-18.11284 Z0.4 F1800 E36.09403 
G1 X5.7499 Y-13.4774 Z0.4 F1800 E36.2482 
G1 X5.73537 Y-13.37889 Z0.4 F1800 E36.25153 
G1 X5.68394 Y-13.29431 Z0.4 F1800 E36.25485 
G1 X5.60886 Y-13.2299 Z0.4 F1800 E36.25818 
G1 X5.51389 Y-13.20083 Z0.4 F1800 E36.26151 
G1 X5.41397 Y-13.1983 Z0.4 F1800 E36.26483 
G1 X0.6972 Y-13.1983 Z0.4 F1800 E36.42171 
G1 X0.59735 Y-13.19301 Z0.4 F1800 E36.42504 
G1 X0.49803 Y-13.18166 Z0.4 F1800 E36.42836 
G1 X0.39966 Y-13.16421 Z0.4 F1800 E36.43169 
G1 X0.3029 Y-13.13909 Z0.4 F1800 E36.43502 
G1 X0.20788 Y-13.10802 Z0.4 F1800 E36.43834 
G1 X0.11525 Y-13.07065 Z0.4 F1800 E36.44167 
G1 X0.02558 Y-13.02646 Z0.4 F1800 E36.44499 
G1 X-0.06119 Y-12.97681 Z0.4 F1800 E36.44832 
G1 X-0.14403 Y-12.92125 Z0.4 F1800 E36.45165 
G1 X-0.3249 Y-12.7709 Z0.4 F1800 E36.45947 
G1 X-0.4069 Y-12.6781 Z0.4 F1800 E36.46359 
G1 X-0.46845 Y-12.59931 Z0.4 F1800 E36.46691 
G1 X-0.5258 Y-12.51745 Z0.4 F1800 E36.47024 
G1 X-0.57545 Y-12.43065 Z0.4 F1800 E36.47357 
G1 X-0.61963 Y-12.34096 Z0.4 F1800 E36.47689 
G1 X-0.65887 Y-12.24906 Z0.4 F1800 E36.48022 
G1 X-0.68989 Y-12.15401 Z0.4 F1800 E36.48354 
G1 X-0.71534 Y-12.05733 Z0.4 F1800 E36.48687 
G1 X-0.73437 Y-11.95927 Z0.4 F1800 E36.4902 
G1 X-0.74594 Y-11.85996 Z0.4 F1800 E36.49352 
G1 X-0.75176 Y-11.76016 Z0.4 F1800 E36.49685 
G1 X-0.7523 Y-11.66017 Z0.4 F1800 E36.50017 
G1 X-0.7523 Y-10.4505 Z0.4 F1800 E36.54041 
G1 X-0.7476 Y-10.3502 Z0.4 F1800 E36.54375 
G1 X-0.73453 Y-10.25108 Z0.4 F1800 E36.54707 
G1 X-0.71814 Y-10.15269 Z0.4 F1800 E36.5504 
G1 X-0.6929 Y-10.05595 Z0.4 F1800 E36.55373 
G1 X-0.66182 Y-9.96094 Z0.4 F1800 E36.55705 
G1 X-0.6244 Y-9.86833 Z0.4 F1800 E36.56038 
G1 X-0.58022 Y-9.77865 Z0.4 F1800 E36.5637 
G1 X-0.53061 Y-9.69187 Z0.4 F1800 E36.56703 
G1 X-0.47496 Y-9.60909 Z0.4 F1800 E36.57036 
G1 X-0.3251 Y-9.429 Z0.4 F1800 E36.57815 
G1 X-0.2325 Y-9.3469 Z0.4 F1800 E36.58226 
G1 X-0.15375 Y-9.2853 Z0.4 F1800 E36.58559 
G1 X-0.07185 Y-9.228 Z0.4 F1800 E36.58892 
G1 X0.01491 Y-9.17828 Z0.4 F1800 E36.59224 
G1 X0.10457 Y-9.13404 Z0.4 F1800 E36.59557 
G1 X0.19645 Y-9.09476 Z0.4 F1800 E36.59889 
G1 X0.29149 Y-9.06372 Z0.4 F1800 E36.60222 
G1 X0.38817 Y-9.03825 Z0.4 F1800 E36.60555 
G1 X0.48623 Y-9.01918 Z0.4 F1800 E36.60887 
G1 X0.58553 Y-9.00757 Z0.4 F1800 E36.6122 
G1 X0.68533 Y-9.00164 Z0.4 F1800 E36.61552 
G1 X0.78532 Y-9.0011 Z0.4 F1800 E36.61885 
G1 X5.4719 Y-9.0011 Z0.4 F1800 E36.77473 
G1 X5.57048 Y-8.98626 Z0.4 F1800 E36.77805 
G1 X5.65485 Y-8.93443 Z0.4 F1800 E36.78138 
G1 X5.71891 Y-8.85907 Z0.4 F1800 E36.7847 
G1 X5.74745 Y-8.76396 Z0.4 F1800 E36.78803 
G1 X5.7499 Y-8.66404 Z0.4 F1800 E36.79136 
G1 X5.7499 Y-7.1772 Z0.4 F1800 E36.84081 
G1 X5.73506 Y-7.07862 Z0.4 F1800 E36.84414 
G1 X5.68308 Y-6.99402 Z0.4 F1800 E36.84746 
G1 X5.60678 Y-6.93176 Z0.4 F1800 E36.85079 
G1 X5.51212 Y-6.90157 Z0.4 F1800 E36.85411 
G1 X5.4122 Y-6.8992 Z0.4 F1800 E36.85744 
G1 X0.6965 Y-6.8992 Z0.4 F1800 E37.01428 
G1 X0.59666 Y-6.8937 Z0.4 F1800 E37.01761 
G1 X0.49734 Y-6.88233 Z0.4 F1800 E37.02094 
G1 X0.39898 Y-6.86485 Z0.4 F1800 E37.02426 
G1 X0.30223 Y-6.83969 Z0.4 F1800 E37.02759 
G1 X0.20722 Y-6.80858 Z0.4 F1800 E37.03091 
G1 X0.11462 Y-6.77115 Z0.4 F1800 E37.03424 
G1 X0.02496 Y-6.72693 Z0.4 F1800 E37.03757 
G1 X-0.06179 Y-6.67725 Z0.4 F1800 E37.04089 
G1 X-0.14457 Y-6.62161 Z0.4 F1800 E37.04422 
G1 X-0.3249 Y-6.4717 Z0.4 F1800 E37.05202 
G1 X-0.4069 Y-6.3789 Z0.4 F1800 E37.05614 
G1 X-0.46845 Y-6.30011 Z0.4 F1800 E37.05946 
G1 X-0.5258 Y-6.21825 Z0.4 F1800 E37.06279 
G1 X-0.57545 Y-6.13145 Z0.4 F1800 E37.06611 
G1 X-0.61964 Y-6.04176 Z0.4 F1800 E37.06944 
G1 X-0.65894 Y-5.94989 Z0.4 F1800 E37.07277 
G1 X-0.69056 Y-5.85503 Z0.4 F1800 E37.07609 
G1 X-0.71449 Y-5.75797 Z0.4 F1800 E37.07942 
G1 X-0.73437 Y-5.66022 Z0.4 F1800 E37.08275 
G1 X-0.74593 Y-5.56091 Z0.4 F1800 E37.08607 
G1 X-0.75175 Y-5.46111 Z0.4 F1800 E37.0894 
G1 X-0.7523 Y-5.36112 Z0.4 F1800 E37.09272 
G1 X-0.7523 Y-4.5327 Z0.4 F1800 E37.12028 
G1 X-0.74702 Y-4.43285 Z0.4 F1800 E37.1236 
G1 X-0.73568 Y-4.33353 Z0.4 F1800 E37.12693 
G1 X-0.71824 Y-4.23516 Z0.4 F1800 E37.13025 
G1 X-0.69312 Y-4.13839 Z0.4 F1800 E37.13358 
G1 X-0.66209 Y-4.04336 Z0.4 F1800 E37.13691 
G1 X-0.62473 Y-3.95073 Z0.4 F1800 E37.14023 
G1 X-0.58026 Y-3.86126 Z0.4 F1800 E37.14356 
G1 X-0.53057 Y-3.77452 Z0.4 F1800 E37.14688 
G1 X-0.47549 Y-3.69166 Z0.4 F1800 E37.15021 
G1 X-0.3252 Y-3.5108 Z0.4 F1800 E37.15803 
G1 X-0.2325 Y-3.4287 Z0.4 F1800 E37.16215 
G1 X-0.15375 Y-3.3671 Z0.4 F1800 E37.16548 
G1 X-0.07185 Y-3.3098 Z0.4 F1800 E37.1688 
G1 X0.01491 Y-3.26008 Z0.4 F1800 E37.17213 
G1 X0.10456 Y-3.21583 Z0.4 F1800 E37.17545 
G1 X0.19642 Y-3.17649 Z0.4 F1800 E37.17878 
G1 X0.29127 Y-3.14483 Z0.4 F1800 E37.18211 
G1 X0.38834 Y-3.12092 Z0.4 F1800 E37.18543 
G1 X0.48607 Y-3.10099 Z0.4 F1800 E37.18876 
G1 X0.58538 Y-3.08938 Z0.4 F1800 E37.19208 
G1 X0.68518 Y-3.08345 Z0.4 F1800 E37.19541 
G1 X0.78517 Y-3.0829 Z0.4 F1800 E37.19874 
G1 X5.4709 Y-3.0829 Z0.4 F1800 E37.35458 
G1 X5.56941 Y-3.06837 Z0.4 F1800 E37.35791 
G1 X5.65422 Y-3.0168 Z0.4 F1800 E37.36124 
G1 X5.71853 Y-2.94162 Z0.4 F1800 E37.36456 
G1 X5.74738 Y-2.8466 Z0.4 F1800 E37.36789 
G1 X5.7499 Y-2.74669 Z0.4 F1800 E37.37121 
G1 X5.7499 Y-0.879 Z0.4 F1800 E37.43333 
G1 X5.73537 Y-0.78049 Z0.4 F1800 E37.43666 
G1 X5.68394 Y-0.69591 Z0.4 F1800 E37.43999 
G1 X5.60886 Y-0.6315 Z0.4 F1800 E37.44331 
G1 X5.51373 Y-0.60252 Z0.4 F1800 E37.44664 
G1 X5.41382 Y-0.6 Z0.4 F1800 E37.44996 
G1 X0.6972 Y-0.6 Z0.4 F1800 E37.60684 
G1 X0.59735 Y-0.59471 Z0.4 F1800 E37.61017 
G1 X0.49803 Y-0.58336 Z0.4 F1800 E37.61349 
G1 X0.39966 Y-0.56591 Z0.4 F1800 E37.61682 
G1 X0.3029 Y-0.54079 Z0.4 F1800 E37.62014 
G1 X0.20788 Y-0.50972 Z0.4 F1800 E37.62347 
G1 X0.11525 Y-0.47235 Z0.4 F1800 E37.6268 
G1 X0.02558 Y-0.42816 Z0.4 F1800 E37.63012 
G1 X-0.06119 Y-0.37851 Z0.4 F1800 E37.63345 
G1 X-0.14403 Y-0.32295 Z0.4 F1800 E37.63677 
G1 X-0.3249 Y-0.1726 Z0.4 F1800 E37.6446 
G1 X-0.4069 Y-0.0798 Z0.4 F1800 E37.64872 
G1 X-0.46845 Y-0.00101 Z0.4 F1800 E37.65204 
G1 X-0.5258 Y0.08085 Z0.4 F1800 E37.65537 
G1 X-0.57545 Y0.16765 Z0.4 F1800 E37.65869 
G1 X-0.61964 Y0.25734 Z0.4 F1800 E37.66202 
G1 X-0.65894 Y0.34921 Z0.4 F1800 E37.66535 
G1 X-0.69056 Y0.44407 Z0.4 F1800 E37.66867 
G1 X-0.71449 Y0.54113 Z0.4 F1800 E37.672 
G1 X-0.73437 Y0.63888 Z0.4 F1800 E37.67532 
G1 X-0.74593 Y0.73819 Z0.4 F1800 E37.67865 
G1 X-0.75176 Y0.83799 Z0.4 F1800 E37.68198 
G1 X-0.7523 Y0.93798 Z0.4 F1800 E37.6853 
G1 X-0.7523 Y1.3858 Z0.4 F1800 E37.7002 
G1 X-0.7476 Y1.4861 Z0.4 F1800 E37.70354 
G1 X-0.73453 Y1.58522 Z0.4 F1800 E37.70686 
G1 X-0.71814 Y1.68361 Z0.4 F1800 E37.71019 
G1 X-0.6929 Y1.78035 Z0.4 F1800 E37.71351 
G1 X-0.66186 Y1.87538 Z0.4 F1800 E37.71684 
G1 X-0.62445 Y1.96798 Z0.4 F1800 E37.72017 
G1 X-0.57991 Y2.05741 Z0.4 F1800 E37.72349 
G1 X-0.53025 Y2.14418 Z0.4 F1800 E37.72682 
G1 X-0.47506 Y2.22695 Z0.4 F1800 E37.73014 
G1 X-0.3252 Y2.4073 Z0.4 F1800 E37.73794 
G1 X-0.2325 Y2.4894 Z0.4 F1800 E37.74206 
G1 X-0.15375 Y2.551 Z0.4 F1800 E37.74539 
G1 X-0.07185 Y2.6083 Z0.4 F1800 E37.74871 
G1 X0.01491 Y2.65802 Z0.4 F1800 E37.75204 
G1 X0.10456 Y2.70227 Z0.4 F1800 E37.75537 
G1 X0.19642 Y2.74161 Z0.4 F1800 E37.75869 
G1 X0.29127 Y2.77327 Z0.4 F1800 E37.76202 
G1 X0.38834 Y2.79718 Z0.4 F1800 E37.76534 
G1 X0.48607 Y2.81711 Z0.4 F1800 E37.76867 
G1 X0.58538 Y2.82869 Z0.4 F1800 E37.772 
G1 X0.68518 Y2.83454 Z0.4 F1800 E37.77532 
G1 X0.78517 Y2.8351 Z0.4 F1800 E37.77865 
G1 X5.471 Y2.8351 Z0.4 F1800 E37.9345 
G1 X5.56962 Y2.84979 Z0.4 F1800 E37.93782 
G1 X5.65416 Y2.9013 Z0.4 F1800 E37.94115 
G1 X5.7185 Y2.97644 Z0.4 F1800 E37.94448 
G1 X5.74737 Y3.07145 Z0.4 F1800 E37.9478 
G1 X5.7499 Y3.17136 Z0.4 F1800 E37.95113 
G1 X5.7499 Y5.4201 Z0.4 F1800 E38.02592 
G1 X5.73537 Y5.51861 Z0.4 F1800 E38.02925 
G1 X5.68394 Y5.60319 Z0.4 F1800 E38.03257 
G1 X5.60886 Y5.6676 Z0.4 F1800 E38.0359 
G1 X5.51389 Y5.69667 Z0.4 F1800 E38.03923 
G1 X5.41397 Y5.6992 Z0.4 F1800 E38.04255 
G1 X0.6969 Y5.6992 Z0.4 F1800 E38.19944 
G1 X0.5966 Y5.7039 Z0.4 F1800 E38.20278 
G1 X0.49748 Y5.71697 Z0.4 F1800 E38.20611 
G1 X0.39909 Y5.73336 Z0.4 F1800 E38.20943 
G1 X0.30235 Y5.7586 Z0.4 F1800 E38.21276 
G1 X0.20734 Y5.78968 Z0.4 F1800 E38.21609 
G1 X0.11473 Y5.8271 Z0.4 F1800 E38.21941 
G1 X0.02507 Y5.87131 Z0.4 F1800 E38.22274 
G1 X-0.06168 Y5.92098 Z0.4 F1800 E38.22606 
G1 X-0.14448 Y5.97661 Z0.4 F1800 E38.22939 
G1 X-0.3249 Y6.1266 Z0.4 F1800 E38.23719 
G1 X-0.4069 Y6.2194 Z0.4 F1800 E38.24131 
G1 X-0.46845 Y6.29819 Z0.4 F1800 E38.24464 
G1 X-0.5258 Y6.38005 Z0.4 F1800 E38.24797 
G1 X-0.57545 Y6.46685 Z0.4 F1800 E38.25129 
G1 X-0.61963 Y6.55654 Z0.4 F1800 E38.25462 
G1 X-0.65887 Y6.64844 Z0.4 F1800 E38.25794 
G1 X-0.68989 Y6.74349 Z0.4 F1800 E38.26127 
G1 X-0.71534 Y6.84017 Z0.4 F1800 E38.2646 
G1 X-0.73437 Y6.93823 Z0.4 F1800 E38.26792 
G1 X-0.74594 Y7.03754 Z0.4 F1800 E38.27125 
G1 X-0.75176 Y7.13734 Z0.4 F1800 E38.27457 
G1 X-0.7523 Y7.23733 Z0.4 F1800 E38.2779 
G1 X-0.75074 Y7.3373 Z0.4 F1800 E38.28123 
G1 X-0.74376 Y7.43702 Z0.4 F1800 E38.28455 
G1 X-0.73081 Y7.53615 Z0.4 F1800 E38.28788 
G1 X-0.71027 Y7.63392 Z0.4 F1800 E38.2912 
G1 X-0.68342 Y7.73021 Z0.4 F1800 E38.29453 
G1 X-0.65076 Y7.82471 Z0.4 F1800 E38.29786 
G1 X-0.61039 Y7.91611 Z0.4 F1800 E38.30118 
G1 X-0.56463 Y8.005 Z0.4 F1800 E38.30451 
G1 X-0.51357 Y8.09096 Z0.4 F1800 E38.30783 
G1 X-0.45381 Y8.17082 Z0.4 F1800 E38.31116 
G1 X-0.3251 Y8.3255 Z0.4 F1800 E38.31785 
G1 X-0.2325 Y8.4076 Z0.4 F1800 E38.32197 
G1 X-0.15375 Y8.4692 Z0.4 F1800 E38.32529 
G1 X-0.07185 Y8.5265 Z0.4 F1800 E38.32862 
G1 X0.01491 Y8.57622 Z0.4 F1800 E38.33195 
G1 X0.10457 Y8.62046 Z0.4 F1800 E38.33527 
G1 X0.19645 Y8.65974 Z0.4 F1800 E38.3386 
G1 X0.29149 Y8.69078 Z0.4 F1800 E38.34192 
G1 X0.38817 Y8.71625 Z0.4 F1800 E38.34525 
G1 X0.48623 Y8.73532 Z0.4 F1800 E38.34858 
G1 X0.58553 Y8.74691 Z0.4 F1800 E38.3519 
G1 X0.68534 Y8.75274 Z0.4 F1800 E38.35523 
G1 X0.78532 Y8.7533 Z0.4 F1800 E38.35855 
G1 X5.4716 Y8.7533 Z0.4 F1800 E38.51442 
G1 X5.57007 Y8.76812 Z0.4 F1800 E38.51775 
G1 X5.65452 Y8.8198 Z0.4 F1800 E38.52107 
G1 X5.71872 Y8.89505 Z0.4 F1800 E38.5244 
G1 X5.74745 Y8.99025 Z0.4 F1800 E38.52772 
G1 X5.7499 Y9.09017 Z0.4 F1800 E38.53105 
G1 X5.7499 Y11.7202 Z0.4 F1800 E38.61853 
G1 X5.73508 Y11.81878 Z0.4 F1800 E38.62185 
G1 X5.68329 Y11.90317 Z0.4 F1800 E38.62518 
G1 X5.60796 Y11.96727 Z0.4 F1800 E38.6285 
G1 X5.51287 Y11.99596 Z0.4 F1800 E38.63183 
G1 X5.41295 Y11.9984 Z0.4 F1800 E38.63516 
G1 X0.5703 Y11.9984 Z0.4 F1800 E38.79622 
G1 X0.47049 Y12.00413 Z0.4 F1800 E38.79955 
G1 X0.37124 Y12.01613 Z0.4 F1800 E38.80288 
G1 X0.27334 Y12.03591 Z0.4 F1800 E38.8062 
G1 X0.17703 Y12.06275 Z0.4 F1800 E38.80953 
G1 X0.08261 Y12.09566 Z0.4 F1800 E38.81285 
G1 X-0.00815 Y12.13755 Z0.4 F1800 E38.81618 
G1 X-0.09596 Y12.18533 Z0.4 F1800 E38.81951 
G1 X-0.18098 Y12.23784 Z0.4 F1800 E38.82283 
G1 X-0.3611 Y12.3876 Z0.4 F1800 E38.83062 
G1 X-0.4374 Y12.4738 Z0.4 F1800 E38.83445 
G1 X-0.49855 Y12.5529 Z0.4 F1800 E38.83778 
G1 X-0.55446 Y12.63568 Z0.4 F1800 E38.8411 
G1 X-0.6029 Y12.72314 Z0.4 F1800 E38.84443 
G1 X-0.64577 Y12.81345 Z0.4 F1800 E38.84776 
G1 X-0.68103 Y12.9069 Z0.4 F1800 E38.85108 
G1 X-0.7098 Y13.00265 Z0.4 F1800 E38.85441 
G1 X-0.73262 Y13.1 Z0.4 F1800 E38.85773 
G1 X-0.7488 Y13.2413 Z0.4 F1800 E38.86246 
G1 X-0.75265 Y13.34121 Z0.4 F1800 E38.86579 
G1 X-0.74731 Y13.44105 Z0.4 F1800 E38.86912 
G1 X-0.73565 Y13.54034 Z0.4 F1800 E38.87244 
G1 X-0.71662 Y13.63838 Z0.4 F1800 E38.87577 
G1 X-0.69012 Y13.73478 Z0.4 F1800 E38.87909 
G1 X-0.65758 Y13.82932 Z0.4 F1800 E38.88242 
G1 X-0.61639 Y13.92037 Z0.4 F1800 E38.88575 
G1 X-0.56926 Y14.00853 Z0.4 F1800 E38.88907 
G1 X-0.5175 Y14.0943 Z0.4 F1800 E38.8924 
G1 X-0.3632 Y14.2804 Z0.4 F1800 E38.90044 
G1 X-0.2772 Y14.3561 Z0.4 F1800 E38.90425 
G1 X-0.19829 Y14.41749 Z0.4 F1800 E38.90758 
G1 X-0.11552 Y14.47342 Z0.4 F1800 E38.91091 
G1 X-0.02817 Y14.52197 Z0.4 F1800 E38.91423 
G1 X0.06205 Y14.56503 Z0.4 F1800 E38.91756 
G1 X0.15551 Y14.60004 Z0.4 F1800 E38.92088 
G1 X0.25125 Y14.62883 Z0.4 F1800 E38.92421 
G1 X0.34861 Y14.65163 Z0.4 F1800 E38.92754 
G1 X0.44795 Y14.66315 Z0.4 F1800 E38.93086 
G1 X0.54761 Y14.67057 Z0.4 F1800 E38.93419 
G1 X0.64759 Y14.6716 Z0.4 F1800 E38.93751 
G1 X5.4709 Y14.6716 Z0.4 F1800 E39.09794 
G1 X5.56941 Y14.68613 Z0.4 F1800 E39.10127 
G1 X5.65422 Y14.7377 Z0.4 F1800 E39.10459 
G1 X5.71853 Y14.81288 Z0.4 F1800 E39.10792 
G1 X5.74738 Y14.9079 Z0.4 F1800 E39.11124 
G1 X5.7499 Y15.00781 Z0.4 F1800 E39.11457 
G1 X5.7499 Y18.1709 Z0.4 F1800 E39.21977 
G1 X5.73537 Y18.26941 Z0.4 F1800 E39.2231 
G1 X5.68394 Y18.35399 Z0.4 F1800 E39.22643 
G1 X5.60886 Y18.4184 Z0.4 F1800 E39.22975 
G1 X5.51387 Y18.44735 Z0.4 F1800 E39.23308 
G1 X5.473 Y18.4499 Z0.4 F1800 E39.23444 
G1 X5.482 Y18.8499 Z0.4 F4800 ;Travel
G1 X-1.9761 Y18.8499 Z0.4 F1800 E39.4825 
G1 X-2.07574 Y18.84215 Z0.4 F1800 E39.48582 
G1 X-2.17317 Y18.8203 Z0.4 F1800 E39.48915 
G1 X-2.26634 Y18.78442 Z0.4 F1800 E39.49248 
G1 X-2.35282 Y18.73455 Z0.4 F1800 E39.4958 
G1 X-2.4583 Y18.6468 Z0.4 F1800 E39.50037 
G1 X-2.52159 Y18.56946 Z0.4 F1800 E39.50369 
G1 X-2.57293 Y18.48385 Z0.4 F1800 E39.50702 
G1 X-2.61115 Y18.39161 Z0.4 F1800 E39.51034 
G1 X-2.63522 Y18.29467 Z0.4 F1800 E39.51367 
G1 X-2.64416 Y18.19513 Z0.4 F1800 E39.517 
G1 X-2.6448 Y18.09514 Z0.4 F1800 E39.52032 
G1 X-2.6448 Y16.4037 Z0.4 F1800 E39.57658 
G1 X-2.65105 Y16.30392 Z0.4 F1800 E39.5799 
G1 X-2.66429 Y16.20483 Z0.4 F1800 E39.58323 
G1 X-2.68925 Y16.10802 Z0.4 F1800 E39.58656 
G1 X-2.72109 Y16.01325 Z0.4 F1800 E39.58988 
G1 X-2.76334 Y15.92269 Z0.4 F1800 E39.59321 
G1 X-2.81284 Y15.83583 Z0.4 F1800 E39.59653 
G1 X-2.87309 Y15.75633 Z0.4 F1800 E39.59986 
G1 X-2.9601 Y15.6517 Z0.4 F1800 E39.60439 
G1 X-3.03558 Y15.58613 Z0.4 F1800 E39.60771 
G1 X-3.1155 Y15.52609 Z0.4 F1800 E39.61104 
G1 X-3.20107 Y15.4745 Z0.4 F1800 E39.61437 
G1 X-3.29109 Y15.43102 Z0.4 F1800 E39.61769 
G1 X-3.38472 Y15.39623 Z0.4 F1800 E39.62102 
G1 X-3.48124 Y15.37023 Z0.4 F1800 E39.62434 
G1 X-3.57972 Y15.35342 Z0.4 F1800 E39.62767 
G1 X-3.67939 Y15.34582 Z0.4 F1800 E39.631 
G1 X-3.77937 Y15.3447 Z0.4 F1800 E39.63432 
G1 X-5.4813 Y15.3447 Z0.4 F1800 E39.69093 
G1 X-5.58094 Y15.33695 Z0.4 F1800 E39.69425 
G1 X-5.67837 Y15.3151 Z0.4 F1800 E39.69758 
G1 X-5.77154 Y15.27922 Z0.4 F1800 E39.70091 
G1 X-5.85803 Y15.22937 Z0.4 F1800 E39.70423 
G1 X-5.9635 Y15.1416 Z0.4 F1800 E39.7088 
G1 X-6.02679 Y15.06426 Z0.4 F1800 E39.71212 
G1 X-6.07813 Y14.97865 Z0.4 F1800 E39.71545 
G1 X-6.11635 Y14.88641 Z0.4 F1800 E39.71877 
G1 X-6.14042 Y14.78947 Z0.4 F1800 E39.7221 
G1 X-6.14931 Y14.68993 Z0.4 F1800 E39.72543 
G1 X-6.1499 Y14.58994 Z0.4 F1800 E39.72875 
G1 X-6.1499 Y-18.1813 Z0.4 F1800 E40.81873 
G1 X-6.14215 Y-18.28094 Z0.4 F1800 E40.82205 
G1 X-6.1203 Y-18.37837 Z0.4 F1800 E40.82538 
G1 X-6.08442 Y-18.47154 Z0.4 F1800 E40.82871 
G1 X-6.03457 Y-18.55803 Z0.4 F1800 E40.83203 
G1 X-5.9468 Y-18.6635 Z0.4 F1800 E40.83659 
G1 X-5.86946 Y-18.72679 Z0.4 F1800 E40.83992 
G1 X-5.78311 Y-18.77662 Z0.4 F1800 E40.84325 
G1 X-5.69156 Y-18.81636 Z0.4 F1800 E40.84657 
G1 X-5.59462 Y-18.84043 Z0.4 F1800 E40.8499 
G1 X-5.49508 Y-18.84931 Z0.4 F1800 E40.85323 
G1 X-5.39509 Y-18.8499 Z0.4 F1800 E40.85655 
G1 X5.4813 Y-18.8499 Z0.4 F1800 E41.2183 
G1 X5.58069 Y-18.83996 Z0.4 F1800 E41.22163 
G1 X5.67842 Y-18.82028 Z0.4 F1800 E41.22495 
G1 X5.77159 Y-18.7844 Z0.4 F1800 E41.22828 
G1 X5.85807 Y-18.73453 Z0.4 F1800 E41.23161 
G1 X5.9635 Y-18.6468 Z0.4 F1800 E41.23617 
G1 X6.02679 Y-18.56946 Z0.4 F1800 E41.23949 
G1 X6.07813 Y-18.48385 Z0.4 F1800 E41.24282 
G1 X6.11635 Y-18.39161 Z0.4 F1800 E41.24615 
G1 X6.14042 Y-18.29467 Z0.4 F1800 E41.24947 
G1 X6.14931 Y-18.19513 Z0.4 F1800 E41.2528 
G1 X6.1499 Y-18.09514 Z0.4 F1800 E41.25612 
G1 X6.1499 Y-13.4669 Z0.4 F1800 E41.41006 
G1 X6.14213 Y-13.36726 Z0.4 F1800 E41.41339 
G1 X6.12027 Y-13.26984 Z0.4 F1800 E41.41671 
G1 X6.08438 Y-13.17667 Z0.4 F1800 E41.42004 
G1 X6.0345 Y-13.09019 Z0.4 F1800 E41.42336 
G1 X5.9468 Y-12.9848 Z0.4 F1800 E41.42792 
G1 X5.86946 Y-12.92151 Z0.4 F1800 E41.43125 
G1 X5.78385 Y-12.87017 Z0.4 F1800 E41.43458 
G1 X5.69161 Y-12.83195 Z0.4 F1800 E41.4379 
G1 X5.59467 Y-12.80788 Z0.4 F1800 E41.44123 
G1 X5.49513 Y-12.79894 Z0.4 F1800 E41.44455 
G1 X5.39514 Y-12.7983 Z0.4 F1800 E41.44788 
G1 X0.7064 Y-12.7983 Z0.4 F1800 E41.60383 
G1 X0.60662 Y-12.79204 Z0.4 F1800 E41.60715 
G1 X0.50753 Y-12.77879 Z0.4 F1800 E41.61048 
G1 X0.41072 Y-12.75382 Z0.4 F1800 E41.61381 
G1 X0.31596 Y-12.72198 Z0.4 F1800 E41.61713 
G1 X0.2254 Y-12.67972 Z0.4 F1800 E41.62046 
G1 X0.13855 Y-12.63021 Z0.4 F1800 E41.62378 
G1 X0.05905 Y-12.56995 Z0.4 F1800 E41.62711 
G1 X-0.0455 Y-12.483 Z0.4 F1800 E41.63163 
G1 X-0.11106 Y-12.40751 Z0.4 F1800 E41.63496 
G1 X-0.17107 Y-12.32756 Z0.4 F1800 E41.63828 
G1 X-0.22262 Y-12.24198 Z0.4 F1800 E41.64161 
G1 X-0.2661 Y-12.15195 Z0.4 F1800 E41.64494 
G1 X-0.30089 Y-12.05832 Z0.4 F1800 E41.64826 
G1 X-0.32689 Y-11.9618 Z0.4 F1800 E41.65159 
G1 X-0.34369 Y-11.86332 Z0.4 F1800 E41.65491 
G1 X-0.35122 Y-11.76365 Z0.4 F1800 E41.65824 
G1 X-0.3523 Y-11.66367 Z0.4 F1800 E41.66157 
G1 X-0.3523 Y-10.46 Z0.4 F1800 E41.7016 
G1 X-0.34493 Y-10.36036 Z0.4 F1800 E41.70493 
G1 X-0.33289 Y-10.26115 Z0.4 F1800 E41.70825 
G1 X-0.30783 Y-10.16437 Z0.4 F1800 E41.71158 
G1 X-0.27599 Y-10.0696 Z0.4 F1800 E41.71491 
G1 X-0.23374 Y-9.97904 Z0.4 F1800 E41.71823 
G1 X-0.18426 Y-9.89218 Z0.4 F1800 E41.72156 
G1 X-0.12399 Y-9.81268 Z0.4 F1800 E41.72488 
G1 X-0.0371 Y-9.7082 Z0.4 F1800 E41.7294 
G1 X0.03832 Y-9.64257 Z0.4 F1800 E41.73273 
G1 X0.11825 Y-9.58253 Z0.4 F1800 E41.73605 
G1 X0.20381 Y-9.53093 Z0.4 F1800 E41.73938 
G1 X0.29383 Y-9.48745 Z0.4 F1800 E41.74271 
G1 X0.38746 Y-9.45265 Z0.4 F1800 E41.74603 
G1 X0.48398 Y-9.42664 Z0.4 F1800 E41.74936 
G1 X0.58245 Y-9.40983 Z0.4 F1800 E41.75269 
G1 X0.68213 Y-9.40222 Z0.4 F1800 E41.75601 
G1 X0.7821 Y-9.4011 Z0.4 F1800 E41.75934 
G1 X5.4813 Y-9.4011 Z0.4 F1800 E41.91563 
G1 X5.58069 Y-9.39116 Z0.4 F1800 E41.91896 
G1 X5.67842 Y-9.37148 Z0.4 F1800 E41.92229 
G1 X5.77159 Y-9.3356 Z0.4 F1800 E41.92561 
G1 X5.85807 Y-9.28573 Z0.4 F1800 E41.92894 
G1 X5.9635 Y-9.198 Z0.4 F1800 E41.9335 
G1 X6.02679 Y-9.12066 Z0.4 F1800 E41.93683 
G1 X6.07813 Y-9.03505 Z0.4 F1800 E41.94015 
G1 X6.11635 Y-8.94281 Z0.4 F1800 E41.94348 
G1 X6.14042 Y-8.84587 Z0.4 F1800 E41.9468 
G1 X6.14931 Y-8.74633 Z0.4 F1800 E41.95013 
G1 X6.1499 Y-8.64634 Z0.4 F1800 E41.95346 
G1 X6.1499 Y-7.1678 Z0.4 F1800 E42.00263 
G1 X6.13996 Y-7.06841 Z0.4 F1800 E42.00596 
G1 X6.12028 Y-6.97068 Z0.4 F1800 E42.00928 
G1 X6.08439 Y-6.87752 Z0.4 F1800 E42.01261 
G1 X6.03449 Y-6.79095 Z0.4 F1800 E42.01594 
G1 X5.9468 Y-6.6856 Z0.4 F1800 E42.02049 
G1 X5.86946 Y-6.62231 Z0.4 F1800 E42.02382 
G1 X5.78311 Y-6.57248 Z0.4 F1800 E42.02715 
G1 X5.69156 Y-6.53276 Z0.4 F1800 E42.03047 
G1 X5.59457 Y-6.50869 Z0.4 F1800 E42.0338 
G1 X5.49503 Y-6.49978 Z0.4 F1800 E42.03712 
G1 X5.39504 Y-6.4992 Z0.4 F1800 E42.04045 
G1 X0.7063 Y-6.4992 Z0.4 F1800 E42.1964 
G1 X0.60653 Y-6.49279 Z0.4 F1800 E42.19973 
G1 X0.50743 Y-6.47956 Z0.4 F1800 E42.20305 
G1 X0.41063 Y-6.45459 Z0.4 F1800 E42.20638 
G1 X0.31587 Y-6.42275 Z0.4 F1800 E42.2097 
G1 X0.22531 Y-6.38047 Z0.4 F1800 E42.21303 
G1 X0.13846 Y-6.33096 Z0.4 F1800 E42.21636 
G1 X0.05897 Y-6.27069 Z0.4 F1800 E42.21968 
G1 X-0.0455 Y-6.1838 Z0.4 F1800 E42.2242 
G1 X-0.11106 Y-6.10831 Z0.4 F1800 E42.22753 
G1 X-0.17107 Y-6.02836 Z0.4 F1800 E42.23085 
G1 X-0.22262 Y-5.94278 Z0.4 F1800 E42.23418 
G1 X-0.2661 Y-5.85275 Z0.4 F1800 E42.2375 
G1 X-0.30096 Y-5.75915 Z0.4 F1800 E42.24083 
G1 X-0.32584 Y-5.66235 Z0.4 F1800 E42.24416 
G1 X-0.34369 Y-5.56418 Z0.4 F1800 E42.24748 
G1 X-0.35121 Y-5.4645 Z0.4 F1800 E42.25081 
G1 X-0.3523 Y-5.36452 Z0.4 F1800 E42.25413 
G1 X-0.3523 Y-4.5419 Z0.4 F1800 E42.2815 
G1 X-0.34605 Y-4.44212 Z0.4 F1800 E42.28482 
G1 X-0.33281 Y-4.34303 Z0.4 F1800 E42.28815 
G1 X-0.30785 Y-4.24622 Z0.4 F1800 E42.29147 
G1 X-0.27601 Y-4.15145 Z0.4 F1800 E42.2948 
G1 X-0.23361 Y-4.06099 Z0.4 F1800 E42.29813 
G1 X-0.18382 Y-3.97431 Z0.4 F1800 E42.30145 
G1 X-0.12406 Y-3.8946 Z0.4 F1800 E42.30478 
G1 X-0.0371 Y-3.79 Z0.4 F1800 E42.3093 
G1 X0.03832 Y-3.72437 Z0.4 F1800 E42.31263 
G1 X0.11825 Y-3.66433 Z0.4 F1800 E42.31595 
G1 X0.20381 Y-3.61273 Z0.4 F1800 E42.31928 
G1 X0.29383 Y-3.56925 Z0.4 F1800 E42.32261 
G1 X0.38744 Y-3.53438 Z0.4 F1800 E42.32593 
G1 X0.48423 Y-3.50949 Z0.4 F1800 E42.32926 
G1 X0.5824 Y-3.49163 Z0.4 F1800 E42.33258 
G1 X0.68207 Y-3.48402 Z0.4 F1800 E42.33591 
G1 X0.78205 Y-3.4829 Z0.4 F1800 E42.33924 
G1 X5.4813 Y-3.4829 Z0.4 F1800 E42.49553 
G1 X5.58094 Y-3.47515 Z0.4 F1800 E42.49886 
G1 X5.67837 Y-3.4533 Z0.4 F1800 E42.50219 
G1 X5.77153 Y-3.41741 Z0.4 F1800 E42.50551 
G1 X5.85811 Y-3.36753 Z0.4 F1800 E42.50884 
G1 X5.9635 Y-3.2798 Z0.4 F1800 E42.5134 
G1 X6.02679 Y-3.20246 Z0.4 F1800 E42.51672 
G1 X6.07813 Y-3.11685 Z0.4 F1800 E42.52005 
G1 X6.11635 Y-3.02461 Z0.4 F1800 E42.52338 
G1 X6.14042 Y-2.92767 Z0.4 F1800 E42.5267 
G1 X6.14931 Y-2.82813 Z0.4 F1800 E42.53003 
G1 X6.1499 Y-2.72814 Z0.4 F1800 E42.53335 
G1 X6.1499 Y-0.8685 Z0.4 F1800 E42.59521 
G1 X6.14213 Y-0.76886 Z0.4 F1800 E42.59853 
G1 X6.12027 Y-0.67144 Z0.4 F1800 E42.60186 
G1 X6.08438 Y-0.57827 Z0.4 F1800 E42.60518 
G1 X6.0345 Y-0.49179 Z0.4 F1800 E42.60851 
G1 X5.9468 Y-0.3864 Z0.4 F1800 E42.61307 
G1 X5.86946 Y-0.32311 Z0.4 F1800 E42.6164 
G1 X5.78385 Y-0.27177 Z0.4 F1800 E42.61972 
G1 X5.69161 Y-0.23357 Z0.4 F1800 E42.62305 
G1 X5.59462 Y-0.2095 Z0.4 F1800 E42.62637 
G1 X5.49508 Y-0.20059 Z0.4 F1800 E42.6297 
G1 X5.39509 Y-0.2 Z0.4 F1800 E42.63303 
G1 X0.7064 Y-0.2 Z0.4 F1800 E42.78897 
G1 X0.60662 Y-0.19374 Z0.4 F1800 E42.7923 
G1 X0.50753 Y-0.18049 Z0.4 F1800 E42.79563 
G1 X0.41072 Y-0.15552 Z0.4 F1800 E42.79895 
G1 X0.31596 Y-0.12368 Z0.4 F1800 E42.80228 
G1 X0.2254 Y-0.08142 Z0.4 F1800 E42.8056 
G1 X0.13855 Y-0.03191 Z0.4 F1800 E42.80893 
G1 X0.05905 Y0.02835 Z0.4 F1800 E42.81226 
G1 X-0.0455 Y0.1153 Z0.4 F1800 E42.81678 
G1 X-0.11106 Y0.19079 Z0.4 F1800 E42.8201 
G1 X-0.17107 Y0.27074 Z0.4 F1800 E42.82343 
G1 X-0.22262 Y0.35632 Z0.4 F1800 E42.82676 
G1 X-0.2661 Y0.44635 Z0.4 F1800 E42.83008 
G1 X-0.30096 Y0.53995 Z0.4 F1800 E42.83341 
G1 X-0.32584 Y0.63675 Z0.4 F1800 E42.83673 
G1 X-0.34369 Y0.73492 Z0.4 F1800 E42.84006 
G1 X-0.35122 Y0.8346 Z0.4 F1800 E42.84339 
G1 X-0.3523 Y0.93458 Z0.4 F1800 E42.84671 
G1 X-0.3523 Y1.3763 Z0.4 F1800 E42.8614 
G1 X-0.34493 Y1.47594 Z0.4 F1800 E42.86473 
G1 X-0.33289 Y1.57515 Z0.4 F1800 E42.86806 
G1 X-0.30783 Y1.67193 Z0.4 F1800 E42.87138 
G1 X-0.27599 Y1.7667 Z0.4 F1800 E42.87471 
G1 X-0.23358 Y1.85715 Z0.4 F1800 E42.87803 
G1 X-0.1838 Y1.94384 Z0.4 F1800 E42.88136 
G1 X-0.12402 Y2.02354 Z0.4 F1800 E42.88469 
G1 X-0.0371 Y2.1281 Z0.4 F1800 E42.88921 
G1 X0.03832 Y2.19373 Z0.4 F1800 E42.89253 
G1 X0.11825 Y2.25377 Z0.4 F1800 E42.89586 
G1 X0.20381 Y2.30537 Z0.4 F1800 E42.89919 
G1 X0.29383 Y2.34885 Z0.4 F1800 E42.90251 
G1 X0.38744 Y2.38372 Z0.4 F1800 E42.90584 
G1 X0.48423 Y2.40861 Z0.4 F1800 E42.90916 
G1 X0.5824 Y2.42647 Z0.4 F1800 E42.91249 
G1 X0.68208 Y2.43401 Z0.4 F1800 E42.91582 
G1 X0.78205 Y2.4351 Z0.4 F1800 E42.91914 
G1 X5.4807 Y2.4351 Z0.4 F1800 E43.07542 
G1 X5.5801 Y2.44508 Z0.4 F1800 E43.07875 
G1 X5.67785 Y2.46465 Z0.4 F1800 E43.08207 
G1 X5.77105 Y2.50045 Z0.4 F1800 E43.0854 
G1 X5.85761 Y2.55019 Z0.4 F1800 E43.08872 
G1 X5.9635 Y2.6383 Z0.4 F1800 E43.09331 
G1 X6.02679 Y2.71564 Z0.4 F1800 E43.09663 
G1 X6.07813 Y2.80125 Z0.4 F1800 E43.09996 
G1 X6.11635 Y2.89349 Z0.4 F1800 E43.10328 
G1 X6.14042 Y2.99043 Z0.4 F1800 E43.10661 
G1 X6.14931 Y3.08997 Z0.4 F1800 E43.10994 
G1 X6.1499 Y3.18996 Z0.4 F1800 E43.11326 
G1 X6.1499 Y5.4305 Z0.4 F1800 E43.18778 
G1 X6.14215 Y5.53014 Z0.4 F1800 E43.19111 
G1 X6.1203 Y5.62757 Z0.4 F1800 E43.19443 
G1 X6.08442 Y5.72074 Z0.4 F1800 E43.19776 
G1 X6.03457 Y5.80723 Z0.4 F1800 E43.20109 
G1 X5.9468 Y5.9127 Z0.4 F1800 E43.20565 
G1 X5.86946 Y5.97599 Z0.4 F1800 E43.20898 
G1 X5.78385 Y6.02733 Z0.4 F1800 E43.2123 
G1 X5.69161 Y6.06555 Z0.4 F1800 E43.21563 
G1 X5.59467 Y6.08962 Z0.4 F1800 E43.21895 
G1 X5.49513 Y6.09856 Z0.4 F1800 E43.22228 
G1 X5.39514 Y6.0992 Z0.4 F1800 E43.22561 
G1 X0.7064 Y6.0992 Z0.4 F1800 E43.38155 
G1 X0.60676 Y6.10657 Z0.4 F1800 E43.38488 
G1 X0.50755 Y6.11861 Z0.4 F1800 E43.38821 
G1 X0.41077 Y6.14367 Z0.4 F1800 E43.39153 
G1 X0.316 Y6.17551 Z0.4 F1800 E43.39486 
G1 X0.22544 Y6.21776 Z0.4 F1800 E43.39818 
G1 X0.13859 Y6.26726 Z0.4 F1800 E43.40151 
G1 X0.05909 Y6.32752 Z0.4 F1800 E43.40484 
G1 X-0.0455 Y6.4145 Z0.4 F1800 E43.40936 
G1 X-0.11106 Y6.48999 Z0.4 F1800 E43.41269 
G1 X-0.17107 Y6.56994 Z0.4 F1800 E43.41601 
G1 X-0.22262 Y6.65552 Z0.4 F1800 E43.41934 
G1 X-0.2661 Y6.74555 Z0.4 F1800 E43.42267 
G1 X-0.30089 Y6.83918 Z0.4 F1800 E43.42599 
G1 X-0.32689 Y6.9357 Z0.4 F1800 E43.42932 
G1 X-0.34369 Y7.03418 Z0.4 F1800 E43.43264 
G1 X-0.35122 Y7.13385 Z0.4 F1800 E43.43597 
G1 X-0.3523 Y7.23383 Z0.4 F1800 E43.4393 
G1 X-0.35049 Y7.33379 Z0.4 F1800 E43.44262 
G1 X-0.34157 Y7.43334 Z0.4 F1800 E43.44595 
G1 X-0.32348 Y7.53158 Z0.4 F1800 E43.44927 
G1 X-0.29626 Y7.62776 Z0.4 F1800 E43.4526 
G1 X-0.26014 Y7.7209 Z0.4 F1800 E43.45593 
G1 X-0.21515 Y7.81017 Z0.4 F1800 E43.45925 
G1 X-0.16275 Y7.89521 Z0.4 F1800 E43.46258 
G1 X-0.0371 Y8.0463 Z0.4 F1800 E43.46911 
G1 X0.03832 Y8.11193 Z0.4 F1800 E43.47244 
G1 X0.11825 Y8.17197 Z0.4 F1800 E43.47577 
G1 X0.20381 Y8.22357 Z0.4 F1800 E43.47909 
G1 X0.29383 Y8.26705 Z0.4 F1800 E43.48242 
G1 X0.38746 Y8.30185 Z0.4 F1800 E43.48574 
G1 X0.48398 Y8.32786 Z0.4 F1800 E43.48907 
G1 X0.58245 Y8.34467 Z0.4 F1800 E43.4924 
G1 X0.68213 Y8.35221 Z0.4 F1800 E43.49572 
G1 X0.78211 Y8.3533 Z0.4 F1800 E43.49905 
G1 X5.4807 Y8.3533 Z0.4 F1800 E43.65532 
G1 X5.58035 Y8.36107 Z0.4 F1800 E43.65865 
G1 X5.67779 Y8.38283 Z0.4 F1800 E43.66198 
G1 X5.77099 Y8.41863 Z0.4 F1800 E43.6653 
G1 X5.85756 Y8.46835 Z0.4 F1800 E43.66863 
G1 X5.9635 Y8.5565 Z0.4 F1800 E43.67321 
G1 X6.02679 Y8.63384 Z0.4 F1800 E43.67654 
G1 X6.07813 Y8.71945 Z0.4 F1800 E43.67986 
G1 X6.11633 Y8.81169 Z0.4 F1800 E43.68319 
G1 X6.1404 Y8.90868 Z0.4 F1800 E43.68652 
G1 X6.14931 Y9.00822 Z0.4 F1800 E43.68984 
G1 X6.1499 Y9.10821 Z0.4 F1800 E43.69317 
G1 X6.1499 Y11.7298 Z0.4 F1800 E43.78036 
G1 X6.13995 Y11.82919 Z0.4 F1800 E43.78369 
G1 X6.12025 Y11.92691 Z0.4 F1800 E43.78701 
G1 X6.08435 Y12.02008 Z0.4 F1800 E43.79034 
G1 X6.03447 Y12.10654 Z0.4 F1800 E43.79367 
G1 X5.9468 Y12.2119 Z0.4 F1800 E43.79822 
G1 X5.86946 Y12.27519 Z0.4 F1800 E43.80155 
G1 X5.78385 Y12.32653 Z0.4 F1800 E43.80488 
G1 X5.69161 Y12.36475 Z0.4 F1800 E43.8082 
G1 X5.59467 Y12.38882 Z0.4 F1800 E43.81153 
G1 X5.49513 Y12.39776 Z0.4 F1800 E43.81485 
G1 X5.39514 Y12.3984 Z0.4 F1800 E43.81818 
G1 X0.5795 Y12.3984 Z0.4 F1800 E43.97835 
G1 X0.47975 Y12.40507 Z0.4 F1800 E43.98168 
G1 X0.38119 Y12.42128 Z0.4 F1800 E43.985 
G1 X0.28496 Y12.44832 Z0.4 F1800 E43.98833 
G1 X0.19219 Y12.48534 Z0.4 F1800 E43.99165 
G1 X0.10381 Y12.532 Z0.4 F1800 E43.99498 
G1 X0.02213 Y12.58919 Z0.4 F1800 E43.99831 
G1 X-0.0818 Y12.6756 Z0.4 F1800 E44.0028 
G1 X-0.14701 Y12.75138 Z0.4 F1800 E44.00613 
G1 X-0.20597 Y12.83208 Z0.4 F1800 E44.00945 
G1 X-0.25413 Y12.91969 Z0.4 F1800 E44.01278 
G1 X-0.2942 Y13.0112 Z0.4 F1800 E44.01611 
G1 X-0.32344 Y13.1068 Z0.4 F1800 E44.01943 
G1 X-0.342 Y13.2049 Z0.4 F1800 E44.02276 
G1 X-0.35117 Y13.30442 Z0.4 F1800 E44.02608 
G1 X-0.34902 Y13.4043 Z0.4 F1800 E44.02941 
G1 X-0.33683 Y13.50353 Z0.4 F1800 E44.03274 
G1 X-0.31279 Y13.60051 Z0.4 F1800 E44.03606 
G1 X-0.28035 Y13.69505 Z0.4 F1800 E44.03939 
G1 X-0.23612 Y13.78471 Z0.4 F1800 E44.04271 
G1 X-0.18397 Y13.86987 Z0.4 F1800 E44.04604 
G1 X-0.0753 Y14.0009 Z0.4 F1800 E44.0517 
G1 X0.00054 Y14.06605 Z0.4 F1800 E44.05503 
G1 X0.08117 Y14.12511 Z0.4 F1800 E44.05835 
G1 X0.16932 Y14.17208 Z0.4 F1800 E44.06168 
G1 X0.26023 Y14.21332 Z0.4 F1800 E44.06501 
G1 X0.35581 Y14.24259 Z0.4 F1800 E44.06833 
G1 X0.45391 Y14.26119 Z0.4 F1800 E44.07166 
G1 X0.55343 Y14.27042 Z0.4 F1800 E44.07498 
G1 X0.65341 Y14.2716 Z0.4 F1800 E44.07831 
G1 X5.4813 Y14.2716 Z0.4 F1800 E44.23889 
G1 X5.58094 Y14.27935 Z0.4 F1800 E44.24221 
G1 X5.67837 Y14.3012 Z0.4 F1800 E44.24554 
G1 X5.77153 Y14.33709 Z0.4 F1800 E44.24886 
G1 X5.85811 Y14.38697 Z0.4 F1800 E44.25219 
G1 X5.9635 Y14.4747 Z0.4 F1800 E44.25675 
G1 X6.02679 Y14.55204 Z0.4 F1800 E44.26008 
G1 X6.07813 Y14.63765 Z0.4 F1800 E44.2634 
G1 X6.11635 Y14.72989 Z0.4 F1800 E44.26673 
G1 X6.14042 Y14.82683 Z0.4 F1800 E44.27005 
G1 X6.14933 Y14.92637 Z0.4 F1800 E44.27338 
G1 X6.1499 Y15.02636 Z0.4 F1800 E44.27671 
G1 X6.1499 Y18.1813 Z0.4 F1800 E44.38164 
G1 X6.14215 Y18.28094 Z0.4 F1800 E44.38497 
G1 X6.1203 Y18.37837 Z0.4 F1800 E44.38829 
G1 X6.08442 Y18.47154 Z0.4 F1800 E44.39162 
G1 X6.03457 Y18.55803 Z0.4 F1800 E44.39494 
G1 X5.9468 Y18.6635 Z0.4 F1800 E44.39951 
G1 X5.86946 Y18.72679 Z0.4 F1800 E44.40283 
G1 X5.78385 Y18.77813 Z0.4 F1800 E44.40616 
G1 X5.69161 Y18.81635 Z0.4 F1800 E44.40949 
G1 X5.59467 Y18.84042 Z0.4 F1800 E44.41281 
G1 X5.49512 Y18.84931 Z0.4 F1800 E44.41614 
G1 X5.482 Y18.8499 Z0.4 F1800 E44.41657 
G1 X3.16668 Y18.1499 Z0.4 F4800 ;Travel
G1 X-0.22902 Y14.75419 Z0.4 F3600 E44.5763 
G1 X0.55531 Y14.97122 Z0.4 F3600 E44.60337 
G1 X3.734 Y18.1499 Z0.4 F3600 E44.75288 
G1 X4.30131 Y18.1499 Z0.4 F3600 E44.77175 
G1 X1.12301 Y14.9716 Z0.4 F3600 E44.92125 
G1 X1.69033 Y14.9716 Z0.4 F3600 E44.94012 
G1 X4.86863 Y18.1499 Z0.4 F3600 E45.08961 
G1 X5.43594 Y18.1499 Z0.4 F3600 E45.10848 
G1 X2.25764 Y14.9716 Z0.4 F3600 E45.25798 
G1 X2.82495 Y14.9716 Z0.4 F3600 E45.27685 
G1 X5.4499 Y17.59655 Z0.4 F3600 E45.40032 
G1 X5.4499 Y17.02923 Z0.4 F3600 E45.41919 
G1 X3.39227 Y14.9716 Z0.4 F3600 E45.51597 
G1 X3.95958 Y14.9716 Z0.4 F3600 E45.53484 
G1 X5.4499 Y16.46192 Z0.4 F3600 E45.60494 
G1 X5.4499 Y15.8946 Z0.4 F3600 E45.62381 
G1 X4.5269 Y14.9716 Z0.4 F3600 E45.66723 
G1 X5.09421 Y14.9716 Z0.4 F3600 E45.68609 
G1 X5.4499 Y15.32729 Z0.4 F3600 E45.70283 
G1 X5.4499 Y15.32729 Z0.4 F1200 E44.40283 ;Retract
G1 X5.4499 Y15.32729 Z0.4 F3000 ;Retract 2?
G1 X-1.93914 Y18.1499 Z0.4 F4800 ;Travel
G1 X-1.93914 Y18.1499 Z0.4 F1200 E45.70283 ;End Retract
G1 X-1.9448 Y17.57693 Z0.4 F3600 E45.72188 
G1 X-1.37183 Y18.1499 Z0.4 F3600 E45.74883 
G1 X-0.80451 Y18.1499 Z0.4 F3600 E45.7677 
G1 X-1.9448 Y17.00961 Z0.4 F3600 E45.82134 
G1 X-1.9448 Y16.4423 Z0.4 F3600 E45.84021 
G1 X-0.2372 Y18.1499 Z0.4 F3600 E45.92053 
G1 X0.33011 Y18.1499 Z0.4 F3600 E45.9394 
G1 X-2.07283 Y15.74696 Z0.4 F3600 E46.05242 
G1 X-2.2562 Y15.4035 Z0.4 F3600 E46.06537 
G1 X-3.04605 Y14.77373 Z0.4 F3600 E46.09897 
G1 X-5.4499 Y12.36989 Z0.4 F3600 E46.21204 
G1 X-5.4499 Y12.9372 Z0.4 F3600 E46.23091 
G1 X-3.7424 Y14.6447 Z0.4 F3600 E46.31123 
G1 X-4.30971 Y14.6447 Z0.4 F3600 E46.3301 
G1 X-5.4499 Y13.50451 Z0.4 F3600 E46.38373 
G1 X-5.4499 Y14.07183 Z0.4 F3600 E46.4026 
G1 X-4.87703 Y14.6447 Z0.4 F3600 E46.42954 
G1 X-5.4499 Y14.63914 Z0.4 F3600 E46.4486 
G1 X-5.4499 Y14.63914 Z0.4 F1200 E45.1486 ;Retract
G1 X-5.4499 Y14.63914 Z0.4 F3000 ;Retract 2?
G1 X-5.4499 Y11.80257 Z0.4 F4800 ;Travel
G1 X-5.4499 Y11.80257 Z0.4 F1200 E46.4486 ;End Retract
G1 X0.89743 Y18.1499 Z0.4 F3600 E46.74715 
G1 X1.46474 Y18.1499 Z0.4 F3600 E46.76602 
G1 X-5.4499 Y11.23526 Z0.4 F3600 E47.09127 
G1 X-5.4499 Y10.66794 Z0.4 F3600 E47.11014 
G1 X2.03206 Y18.1499 Z0.4 F3600 E47.46206 
G1 X2.59937 Y18.1499 Z0.4 F3600 E47.48093 
G1 X-5.4499 Y10.10063 Z0.4 F3600 E47.85955 
G1 X-5.4499 Y9.53332 Z0.4 F3600 E47.87842 
G1 X-0.8371 Y14.1453 Z0.4 F3600 E48.09537 
G1 X-1.0519 Y13.364 Z0.4 F3600 E48.12232 
G1 X-5.4499 Y8.966 Z0.4 F3600 E48.32919 
G1 X-5.4499 Y8.39869 Z0.4 F3600 E48.34806 
G1 X-0.9828 Y12.86579 Z0.4 F3600 E48.55817 
G1 X-0.80749 Y12.47378 Z0.4 F3600 E48.57246 
G1 X-5.4499 Y7.83137 Z0.4 F3600 E48.79082 
G1 X-5.4499 Y7.26406 Z0.4 F3600 E48.80969 
G1 X-0.55509 Y12.15887 Z0.4 F3600 E49.03993 
G1 X-0.23048 Y11.91616 Z0.4 F3600 E49.05341 
G1 X-5.4499 Y6.69675 Z0.4 F3600 E49.29891 
G1 X-5.4499 Y6.12943 Z0.4 F3600 E49.31778 
G1 X0.17247 Y11.7518 Z0.4 F3600 E49.58224 
G1 X0.68638 Y11.6984 Z0.4 F3600 E49.59943 
G1 X-5.4499 Y5.56212 Z0.4 F3600 E49.88806 
G1 X-5.4499 Y4.9948 Z0.4 F3600 E49.90693 
G1 X1.2537 Y11.6984 Z0.4 F3600 E50.22224 
G1 X1.82101 Y11.6984 Z0.4 F3600 E50.24111 
G1 X-5.4499 Y4.42749 Z0.4 F3600 E50.58311 
G1 X-5.4499 Y3.86018 Z0.4 F3600 E50.60198 
G1 X2.38832 Y11.6984 Z0.4 F3600 E50.97067 
G1 X2.95564 Y11.6984 Z0.4 F3600 E50.98954 
G1 X0.24734 Y8.9901 Z0.4 F3600 E51.11693 
G1 X0.87785 Y9.0533 Z0.4 F3600 E51.138 
G1 X3.52295 Y11.6984 Z0.4 F3600 E51.26242 
G1 X4.09027 Y11.6984 Z0.4 F3600 E51.28129 
G1 X1.44517 Y9.0533 Z0.4 F3600 E51.40571 
G1 X2.01248 Y9.0533 Z0.4 F3600 E51.42458 
G1 X4.65758 Y11.6984 Z0.4 F3600 E51.54899 
G1 X5.2249 Y11.6984 Z0.4 F3600 E51.56786 
G1 X2.5798 Y9.0533 Z0.4 F3600 E51.69228 
G1 X3.14711 Y9.0533 Z0.4 F3600 E51.71115 
G1 X5.4499 Y11.35609 Z0.4 F3600 E51.81947 
G1 X5.4499 Y10.78878 Z0.4 F3600 E51.83833 
G1 X3.71442 Y9.0533 Z0.4 F3600 E51.91997 
G1 X4.28174 Y9.0533 Z0.4 F3600 E51.93883 
G1 X5.4499 Y10.22146 Z0.4 F3600 E51.99378 
G1 X5.4499 Y9.65415 Z0.4 F3600 E52.01265 
G1 X4.84905 Y9.0533 Z0.4 F3600 E52.04091 
G1 X5.4499 Y9.08683 Z0.4 F3600 E52.06093 
G1 X5.4499 Y9.08683 Z0.4 F1200 E50.76093 ;Retract
G1 X5.4499 Y9.08683 Z0.4 F3000 ;Retract 2?
G1 X-0.98992 Y7.75285 Z0.4 F4800 ;Travel
G1 X-0.98992 Y7.75285 Z0.4 F1200 E52.06093 ;End Retract
G1 X-5.4499 Y3.29286 Z0.4 F3600 E52.27071 
G1 X-5.4499 Y2.72555 Z0.4 F3600 E52.28958 
G1 X-1.05146 Y7.12398 Z0.4 F3600 E52.49647 
G1 X-0.972 Y6.6386 Z0.4 F3600 E52.51283 
G1 X-5.4499 Y2.15823 Z0.4 F3600 E52.72351 
G1 X-5.4499 Y1.59092 Z0.4 F3600 E52.74238 
G1 X-0.79483 Y6.24599 Z0.4 F3600 E52.96134 
G1 X-0.54779 Y5.92571 Z0.4 F3600 E52.9748 
G1 X-5.4499 Y1.0236 Z0.4 F3600 E53.20538 
G1 X-5.4499 Y0.45629 Z0.4 F3600 E53.22424 
G1 X-0.23246 Y5.67373 Z0.4 F3600 E53.46966 
G1 X0.15203 Y5.49091 Z0.4 F3600 E53.48382 
G1 X-5.4499 Y-0.11102 Z0.4 F3600 E53.74731 
G1 X-5.4499 Y-0.67834 Z0.4 F3600 E53.76618 
G1 X0.63043 Y5.40199 Z0.4 F3600 E54.05218 
G1 X1.19495 Y5.3992 Z0.4 F3600 E54.07096 
G1 X-5.4499 Y-1.24565 Z0.4 F3600 E54.38351 
G1 X-5.4499 Y-1.81297 Z0.4 F3600 E54.40238 
G1 X1.76227 Y5.3992 Z0.4 F3600 E54.74162 
G1 X2.32958 Y5.3992 Z0.4 F3600 E54.76049 
G1 X-0.17401 Y2.89561 Z0.4 F3600 E54.87825 
G1 X-0.8074 Y2.26221 Z0.4 F3600 E54.90804 
G1 X-5.4499 Y-2.38028 Z0.4 F3600 E55.12641 
G1 X-5.4499 Y-2.94759 Z0.4 F3600 E55.14528 
G1 X-1.04948 Y1.45283 Z0.4 F3600 E55.35226 
G1 X-1.0523 Y0.88269 Z0.4 F3600 E55.37123 
G1 X-5.4499 Y-3.51491 Z0.4 F3600 E55.57808 
G1 X-5.4499 Y-4.08222 Z0.4 F3600 E55.59695 
G1 X-0.98441 Y0.38327 Z0.4 F3600 E55.80699 
G1 X-0.81626 Y-0.0159 Z0.4 F3600 E55.82139 
G1 X-5.4499 Y-4.64954 Z0.4 F3600 E56.03935 
G1 X-5.4499 Y-5.21685 Z0.4 F3600 E56.05822 
G1 X-0.57537 Y-0.34232 Z0.4 F3600 E56.2875 
G1 X-0.26913 Y-0.60339 Z0.4 F3600 E56.30088 
G1 X-5.4499 Y-5.78416 Z0.4 F3600 E56.54457 
G1 X-5.4499 Y-6.35148 Z0.4 F3600 E56.56344 
G1 X0.10867 Y-0.79291 Z0.4 F3600 E56.8249 
G1 X0.57491 Y-0.89398 Z0.4 F3600 E56.84077 
G1 X-5.4499 Y-6.91879 Z0.4 F3600 E57.12415 
G1 X-5.4499 Y-7.48611 Z0.4 F3600 E57.14302 
G1 X1.13621 Y-0.9 Z0.4 F3600 E57.45281 
G1 X1.70352 Y-0.9 Z0.4 F3600 E57.47168 
G1 X-5.4499 Y-8.05342 Z0.4 F3600 E57.80816 
G1 X-5.4499 Y-8.62074 Z0.4 F3600 E57.82703 
G1 X-1.01497 Y-4.18581 Z0.4 F3600 E58.03563 
G1 X-1.0523 Y-4.79045 Z0.4 F3600 E58.05578 
G1 X-5.4499 Y-9.18805 Z0.4 F3600 E58.26263 
G1 X-5.4499 Y-9.75536 Z0.4 F3600 E58.2815 
G1 X-1.0523 Y-5.35776 Z0.4 F3600 E58.48835 
G1 X-0.9972 Y-5.8603 Z0.4 F3600 E58.50516 
G1 X-5.4499 Y-10.32268 Z0.4 F3600 E58.71483 
G1 X-5.4499 Y-10.88999 Z0.4 F3600 E58.7337 
G1 X-0.83766 Y-6.27775 Z0.4 F3600 E58.95065 
G1 X-0.6029 Y-6.61031 Z0.4 F3600 E58.96419 
G1 X-5.4499 Y-11.45731 Z0.4 F3600 E59.19217 
G1 X-5.4499 Y-12.02462 Z0.4 F3600 E59.21104 
G1 X-0.30423 Y-6.87895 Z0.4 F3600 E59.45308 
G1 X0.0654 Y-7.07663 Z0.4 F3600 E59.46702 
G1 X-5.4499 Y-12.59193 Z0.4 F3600 E59.72644 
G1 X-5.4499 Y-13.15925 Z0.4 F3600 E59.74531 
G1 X0.52147 Y-7.18788 Z0.4 F3600 E60.02619 
G1 X1.07746 Y-7.1992 Z0.4 F3600 E60.04468 
G1 X-5.4499 Y-13.72656 Z0.4 F3600 E60.35171 
G1 X-5.4499 Y-13.72656 Z0.4 F1200 E59.05171 ;Retract
G1 X-5.4499 Y-13.72656 Z0.4 F3000 ;Retract 2?
G1 X0.63008 Y3.13239 Z0.4 F4800 ;Travel
G1 X0.63008 Y3.13239 Z0.4 F1200 E60.35171 ;End Retract
G1 X2.89689 Y5.3992 Z0.4 F3600 E60.45834 
G1 X3.46421 Y5.3992 Z0.4 F3600 E60.4772 
G1 X1.20011 Y3.1351 Z0.4 F3600 E60.5837 
G1 X1.76742 Y3.1351 Z0.4 F3600 E60.60257 
G1 X4.03152 Y5.3992 Z0.4 F3600 E60.70907 
G1 X4.59884 Y5.3992 Z0.4 F3600 E60.72793 
G1 X2.33474 Y3.1351 Z0.4 F3600 E60.83443 
G1 X2.90205 Y3.1351 Z0.4 F3600 E60.8533 
G1 X5.16615 Y5.3992 Z0.4 F3600 E60.9598 
G1 X5.4499 Y5.3992 Z0.4 F3600 E60.96923 
G1 X5.4499 Y5.11564 Z0.4 F3600 E60.97867 
G1 X3.46936 Y3.1351 Z0.4 F3600 E61.07182 
G1 X4.03668 Y3.1351 Z0.4 F3600 E61.09069 
G1 X5.4499 Y4.54832 Z0.4 F3600 E61.15717 
G1 X5.4499 Y3.98101 Z0.4 F3600 E61.17603 
G1 X4.60399 Y3.1351 Z0.4 F3600 E61.21582 
G1 X5.17131 Y3.1351 Z0.4 F3600 E61.23469 
G1 X5.4499 Y3.41369 Z0.4 F3600 E61.2478 
G1 X5.4499 Y3.41369 Z0.4 F1200 E59.9478 ;Retract
G1 X5.4499 Y3.41369 Z0.4 F3000 ;Retract 2?
G1 X2.27084 Y-0.9 Z0.4 F4800 ;Travel
G1 X2.27084 Y-0.9 Z0.4 F1200 E61.2478 ;End Retract
G1 X0.35125 Y-2.81958 Z0.4 F3600 E61.33809 
G1 X0.95525 Y-2.7829 Z0.4 F3600 E61.35821 
G1 X2.83815 Y-0.9 Z0.4 F3600 E61.44678 
G1 X3.40546 Y-0.9 Z0.4 F3600 E61.46565 
G1 X1.52256 Y-2.7829 Z0.4 F3600 E61.55421 
G1 X2.08988 Y-2.7829 Z0.4 F3600 E61.57308 
G1 X3.97278 Y-0.9 Z0.4 F3600 E61.66165 
G1 X4.54009 Y-0.9 Z0.4 F3600 E61.68052 
G1 X2.65719 Y-2.7829 Z0.4 F3600 E61.76908 
G1 X3.22451 Y-2.7829 Z0.4 F3600 E61.78795 
G1 X5.10741 Y-0.9 Z0.4 F3600 E61.87652 
G1 X5.4499 Y-0.9 Z0.4 F3600 E61.88791 
G1 X5.4499 Y-1.12482 Z0.4 F3600 E61.89539 
G1 X3.79182 Y-2.7829 Z0.4 F3600 E61.97338 
G1 X4.35913 Y-2.7829 Z0.4 F3600 E61.99225 
G1 X5.4499 Y-1.69213 Z0.4 F3600 E62.04355 
G1 X5.4499 Y-2.25945 Z0.4 F3600 E62.06242 
G1 X4.92645 Y-2.7829 Z0.4 F3600 E62.08704 
G1 X4.92645 Y-2.7829 Z0.4 F1200 E60.78704 ;Retract
G1 X4.92645 Y-2.7829 Z0.4 F3000 ;Retract 2?
G1 X5.2487 Y-8.7011 Z0.4 F4800 ;Travel
G1 X5.2487 Y-8.7011 Z0.4 F1200 E62.08704 ;End Retract
G1 X5.4499 Y-8.4999 Z0.4 F3600 E62.09651 
G1 X5.4499 Y-7.93259 Z0.4 F3600 E62.11538 
G1 X4.68139 Y-8.7011 Z0.4 F3600 E62.15153 
G1 X4.11408 Y-8.7011 Z0.4 F3600 E62.17039 
G1 X5.4499 Y-7.36528 Z0.4 F3600 E62.23323 
G1 X5.4499 Y-7.1992 Z0.4 F3600 E62.23875 
G1 X5.04866 Y-7.1992 Z0.4 F3600 E62.2521 
G1 X3.54676 Y-8.7011 Z0.4 F3600 E62.32274 
G1 X2.97945 Y-8.7011 Z0.4 F3600 E62.34161 
G1 X4.48135 Y-7.1992 Z0.4 F3600 E62.41226 
G1 X3.91403 Y-7.1992 Z0.4 F3600 E62.43112 
G1 X2.41213 Y-8.7011 Z0.4 F3600 E62.50177 
G1 X1.84482 Y-8.7011 Z0.4 F3600 E62.52064 
G1 X3.34672 Y-7.1992 Z0.4 F3600 E62.59128 
G1 X2.7794 Y-7.1992 Z0.4 F3600 E62.61015 
G1 X1.2775 Y-8.7011 Z0.4 F3600 E62.6808 
G1 X0.71019 Y-8.7011 Z0.4 F3600 E62.69967 
G1 X2.21209 Y-7.1992 Z0.4 F3600 E62.77031 
G1 X1.64478 Y-7.1992 Z0.4 F3600 E62.78918 
G1 X-0.01479 Y-8.85877 Z0.4 F3600 E62.86724 
G1 X-0.2429 Y-8.9803 Z0.4 F3600 E62.87584 
G1 X-0.89519 Y-9.73917 Z0.4 F3600 E62.90912 
G1 X-5.4499 Y-14.29388 Z0.4 F3600 E63.12336 
G1 X-5.4499 Y-14.86119 Z0.4 F3600 E63.14223 
G1 X-1.0523 Y-10.46359 Z0.4 F3600 E63.34908 
G1 X-1.0523 Y-11.0309 Z0.4 F3600 E63.36795 
G1 X-5.4499 Y-15.4285 Z0.4 F3600 E63.5748 
G1 X-5.4499 Y-15.99582 Z0.4 F3600 E63.59367 
G1 X-1.0523 Y-11.59822 Z0.4 F3600 E63.80051 
G1 X-1.00838 Y-12.12161 Z0.4 F3600 E63.81798 
G1 X-5.4499 Y-16.56313 Z0.4 F3600 E64.0269 
G1 X-5.4499 Y-17.13045 Z0.4 F3600 E64.04577 
G1 X-0.8574 Y-12.53795 Z0.4 F3600 E64.26179 
G1 X-0.6352 Y-12.873 Z0.4 F3600 E64.27516 
G1 X-5.4499 Y-17.69776 Z0.4 F3600 E64.50186 
G1 X-5.4499 Y-18.1499 Z0.4 F3600 E64.5169 
G1 X-5.33472 Y-18.1499 Z0.4 F3600 E64.52073 
G1 X-0.33631 Y-13.15149 Z0.4 F3600 E64.75584 
G1 X0.02354 Y-13.35895 Z0.4 F3600 E64.76966 
G1 X-4.76741 Y-18.1499 Z0.4 F3600 E64.99501 
G1 X-4.2001 Y-18.1499 Z0.4 F3600 E65.01388 
G1 X0.46919 Y-13.48061 Z0.4 F3600 E65.23351 
G1 X1.01882 Y-13.4983 Z0.4 F3600 E65.2518 
G1 X-3.63278 Y-18.1499 Z0.4 F3600 E65.47059 
G1 X-3.06547 Y-18.1499 Z0.4 F3600 E65.48946 
G1 X1.58613 Y-13.4983 Z0.4 F3600 E65.70826 
G1 X2.15345 Y-13.4983 Z0.4 F3600 E65.72713 
G1 X-2.49815 Y-18.1499 Z0.4 F3600 E65.94593 
G1 X-1.93084 Y-18.1499 Z0.4 F3600 E65.96479 
G1 X2.72076 Y-13.4983 Z0.4 F3600 E66.18359 
G1 X3.28807 Y-13.4983 Z0.4 F3600 E66.20246 
G1 X-1.36353 Y-18.1499 Z0.4 F3600 E66.42126 
G1 X-0.79621 Y-18.1499 Z0.4 F3600 E66.44013 
G1 X3.85539 Y-13.4983 Z0.4 F3600 E66.65892 
G1 X4.4227 Y-13.4983 Z0.4 F3600 E66.67779 
G1 X-0.2289 Y-18.1499 Z0.4 F3600 E66.89659 
G1 X0.33842 Y-18.1499 Z0.4 F3600 E66.91546 
G1 X4.99002 Y-13.4983 Z0.4 F3600 E67.13426 
G1 X5.4499 Y-13.4983 Z0.4 F3600 E67.14955 
G1 X5.4499 Y-13.60573 Z0.4 F3600 E67.15312 
G1 X0.90573 Y-18.1499 Z0.4 F3600 E67.36687 
G1 X1.47304 Y-18.1499 Z0.4 F3600 E67.38574 
G1 X5.4499 Y-14.17304 Z0.4 F3600 E67.5728 
G1 X5.4499 Y-14.74036 Z0.4 F3600 E67.59167 
G1 X2.04036 Y-18.1499 Z0.4 F3600 E67.75204 
G1 X2.60767 Y-18.1499 Z0.4 F3600 E67.77091 
G1 X5.4499 Y-15.30767 Z0.4 F3600 E67.9046 
G1 X5.4499 Y-15.87499 Z0.4 F3600 E67.92347 
G1 X3.17499 Y-18.1499 Z0.4 F3600 E68.03047 
G1 X3.7423 Y-18.1499 Z0.4 F3600 E68.04934 
G1 X5.4499 Y-16.4423 Z0.4 F3600 E68.12966 
G1 X5.4499 Y-17.00961 Z0.4 F3600 E68.14853 
G1 X4.30961 Y-18.1499 Z0.4 F3600 E68.20217 
G1 X4.87693 Y-18.1499 Z0.4 F3600 E68.22103 
G1 X5.4499 Y-17.57693 Z0.4 F3600 E68.24799 
G1 X5.44424 Y-18.1499 Z0.4 F3600 E68.26704 
;layer 2 - 0.4mm
G1 X5.44424 Y-18.1499 Z0.4 F1200 E66.96704 ;Retract
G1 X5.44424 Y-18.1499 Z0.4 F3000 ;Retract 2?
G1 X5.44424 Y-18.1499 Z0.6 F1380 ;Plane Change
G1 X5.471 Y-18.4499 Z0.6 F4800 ;Travel
G1 X5.471 Y-18.4499 Z0.6 F1200 E68.26704 ;End Retract
G1 X5.56946 Y-18.43545 Z0.6 F1800 E68.27037 
G1 X5.65404 Y-18.38399 Z0.6 F1800 E68.2737 
G1 X5.71871 Y-18.30907 Z0.6 F1800 E68.27702 
G1 X5.74768 Y-18.214 Z0.6 F1800 E68.28035 
G1 X5.7499 Y-18.11407 Z0.6 F1800 E68.28367 
G1 X5.7499 Y-13.4773 Z0.6 F1800 E68.43789 
G1 X5.73545 Y-13.37884 Z0.6 F1800 E68.44122 
G1 X5.68399 Y-13.29426 Z0.6 F1800 E68.44455 
G1 X5.60907 Y-13.22959 Z0.6 F1800 E68.44787 
G1 X5.514 Y-13.20062 Z0.6 F1800 E68.4512 
G1 X5.41408 Y-13.1983 Z0.6 F1800 E68.45452 
G1 X0.697 Y-13.1983 Z0.6 F1800 E68.61141 
G1 X0.5727 Y-13.1925 Z0.6 F1800 E68.61555 
G1 X0.4317 Y-13.1721 Z0.6 F1800 E68.62029 
G1 X0.2925 Y-13.138 Z0.6 F1800 E68.62506 
G1 X0.1544 Y-13.0891 Z0.6 F1800 E68.62993 
G1 X0.0216 Y-13.0265 Z0.6 F1800 E68.63481 
G1 X-0.119 Y-12.942 Z0.6 F1800 E68.64027 
G1 X-0.3248 Y-12.771 Z0.6 F1800 E68.64917 
G1 X-0.4341 Y-12.6474 Z0.6 F1800 E68.65466 
G1 X-0.5206 Y-12.5265 Z0.6 F1800 E68.6596 
G1 X-0.5937 Y-12.3992 Z0.6 F1800 E68.66448 
G1 X-0.6528 Y-12.2673 Z0.6 F1800 E68.66929 
G1 X-0.698 Y-12.1327 Z0.6 F1800 E68.67401 
G1 X-0.7291 Y-11.9979 Z0.6 F1800 E68.67861 
G1 X-0.7471 Y-11.8651 Z0.6 F1800 E68.68307 
G1 X-0.7523 Y-11.7481 Z0.6 F1800 E68.68697 
G1 X-0.7523 Y-10.4506 Z0.6 F1800 E68.73012 
G1 X-0.7465 Y-10.3263 Z0.6 F1800 E68.73426 
G1 X-0.7261 Y-10.1853 Z0.6 F1800 E68.739 
G1 X-0.692 Y-10.0461 Z0.6 F1800 E68.74377 
G1 X-0.6431 Y-9.908 Z0.6 F1800 E68.74864 
G1 X-0.5806 Y-9.7754 Z0.6 F1800 E68.75351 
G1 X-0.4962 Y-9.6347 Z0.6 F1800 E68.75897 
G1 X-0.3251 Y-9.4289 Z0.6 F1800 E68.76787 
G1 X-0.2016 Y-9.3196 Z0.6 F1800 E68.77336 
G1 X-0.0807 Y-9.2331 Z0.6 F1800 E68.7783 
G1 X0.0466 Y-9.1599 Z0.6 F1800 E68.78319 
G1 X0.1786 Y-9.1007 Z0.6 F1800 E68.788 
G1 X0.3132 Y-9.0555 Z0.6 F1800 E68.79272 
G1 X0.448 Y-9.0244 Z0.6 F1800 E68.79732 
G1 X0.5804 Y-9.0064 Z0.6 F1800 E68.80177 
G1 X0.6974 Y-9.0011 Z0.6 F1800 E68.80566 
G1 X5.471 Y-9.0011 Z0.6 F1800 E68.96443 
G1 X5.56946 Y-8.98665 Z0.6 F1800 E68.96776 
G1 X5.65404 Y-8.93519 Z0.6 F1800 E68.97108 
G1 X5.71871 Y-8.86027 Z0.6 F1800 E68.97441 
G1 X5.74768 Y-8.7652 Z0.6 F1800 E68.97774 
G1 X5.7499 Y-8.66527 Z0.6 F1800 E68.98106 
G1 X5.7499 Y-7.1781 Z0.6 F1800 E69.03053 
G1 X5.73545 Y-7.07964 Z0.6 F1800 E69.03385 
G1 X5.68399 Y-6.99506 Z0.6 F1800 E69.03718 
G1 X5.60907 Y-6.93039 Z0.6 F1800 E69.0405 
G1 X5.514 Y-6.90142 Z0.6 F1800 E69.04383 
G1 X5.41407 Y-6.8992 Z0.6 F1800 E69.04716 
G1 X0.6967 Y-6.8992 Z0.6 F1800 E69.20406 
G1 X0.5722 Y-6.8932 Z0.6 F1800 E69.2082 
G1 X0.4317 Y-6.8729 Z0.6 F1800 E69.21292 
G1 X0.2925 Y-6.8388 Z0.6 F1800 E69.21769 
G1 X0.1544 Y-6.7899 Z0.6 F1800 E69.22256 
G1 X0.0216 Y-6.7273 Z0.6 F1800 E69.22745 
G1 X-0.119 Y-6.6428 Z0.6 F1800 E69.2329 
G1 X-0.3248 Y-6.4718 Z0.6 F1800 E69.2418 
G1 X-0.4341 Y-6.3482 Z0.6 F1800 E69.24729 
G1 X-0.5206 Y-6.2273 Z0.6 F1800 E69.25223 
G1 X-0.5937 Y-6.1 Z0.6 F1800 E69.25712 
G1 X-0.6528 Y-5.9681 Z0.6 F1800 E69.26192 
G1 X-0.698 Y-5.8335 Z0.6 F1800 E69.26665 
G1 X-0.7291 Y-5.6987 Z0.6 F1800 E69.27125 
G1 X-0.7471 Y-5.5658 Z0.6 F1800 E69.27571 
G1 X-0.7523 Y-5.4488 Z0.6 F1800 E69.2796 
G1 X-0.7523 Y-4.5325 Z0.6 F1800 E69.31008 
G1 X-0.7465 Y-4.4081 Z0.6 F1800 E69.31422 
G1 X-0.7261 Y-4.2671 Z0.6 F1800 E69.31896 
G1 X-0.692 Y-4.1279 Z0.6 F1800 E69.32373 
G1 X-0.6431 Y-3.9898 Z0.6 F1800 E69.3286 
G1 X-0.5806 Y-3.8572 Z0.6 F1800 E69.33348 
G1 X-0.4962 Y-3.7165 Z0.6 F1800 E69.33893 
G1 X-0.3251 Y-3.5107 Z0.6 F1800 E69.34783 
G1 X-0.2016 Y-3.4014 Z0.6 F1800 E69.35332 
G1 X-0.0807 Y-3.3149 Z0.6 F1800 E69.35826 
G1 X0.0466 Y-3.2417 Z0.6 F1800 E69.36315 
G1 X0.1786 Y-3.1825 Z0.6 F1800 E69.36796 
G1 X0.3132 Y-3.1373 Z0.6 F1800 E69.37268 
G1 X0.448 Y-3.1062 Z0.6 F1800 E69.37728 
G1 X0.5804 Y-3.0882 Z0.6 F1800 E69.38173 
G1 X0.6974 Y-3.0829 Z0.6 F1800 E69.38562 
G1 X5.471 Y-3.0829 Z0.6 F1800 E69.54439 
G1 X5.56946 Y-3.06845 Z0.6 F1800 E69.54772 
G1 X5.65404 Y-3.01699 Z0.6 F1800 E69.55105 
G1 X5.71871 Y-2.94207 Z0.6 F1800 E69.55437 
G1 X5.74768 Y-2.847 Z0.6 F1800 E69.5577 
G1 X5.7499 Y-2.74707 Z0.6 F1800 E69.56102 
G1 X5.7499 Y-0.8789 Z0.6 F1800 E69.62316 
G1 X5.73545 Y-0.78044 Z0.6 F1800 E69.62648 
G1 X5.68399 Y-0.69586 Z0.6 F1800 E69.62981 
G1 X5.60907 Y-0.63119 Z0.6 F1800 E69.63314 
G1 X5.514 Y-0.60222 Z0.6 F1800 E69.63646 
G1 X5.41407 Y-0.6 Z0.6 F1800 E69.63979 
G1 X0.697 Y-0.6 Z0.6 F1800 E69.79668 
G1 X0.5727 Y-0.5942 Z0.6 F1800 E69.80082 
G1 X0.4317 Y-0.5738 Z0.6 F1800 E69.80556 
G1 X0.2925 Y-0.5397 Z0.6 F1800 E69.81032 
G1 X0.1544 Y-0.4908 Z0.6 F1800 E69.8152 
G1 X0.0216 Y-0.4282 Z0.6 F1800 E69.82008 
G1 X-0.119 Y-0.3437 Z0.6 F1800 E69.82554 
G1 X-0.3248 Y-0.1727 Z0.6 F1800 E69.83443 
G1 X-0.4341 Y-0.0491 Z0.6 F1800 E69.83992 
G1 X-0.5206 Y0.0718 Z0.6 F1800 E69.84487 
G1 X-0.5937 Y0.1991 Z0.6 F1800 E69.84975 
G1 X-0.6528 Y0.331 Z0.6 F1800 E69.85456 
G1 X-0.698 Y0.4656 Z0.6 F1800 E69.85928 
G1 X-0.7291 Y0.6004 Z0.6 F1800 E69.86388 
G1 X-0.7471 Y0.7332 Z0.6 F1800 E69.86834 
G1 X-0.7523 Y0.8502 Z0.6 F1800 E69.87223 
G1 X-0.7523 Y1.3857 Z0.6 F1800 E69.89004 
G1 X-0.7465 Y1.51 Z0.6 F1800 E69.89418 
G1 X-0.7261 Y1.651 Z0.6 F1800 E69.89892 
G1 X-0.692 Y1.7902 Z0.6 F1800 E69.90369 
G1 X-0.6431 Y1.9283 Z0.6 F1800 E69.90856 
G1 X-0.5806 Y2.0609 Z0.6 F1800 E69.91344 
G1 X-0.4962 Y2.2016 Z0.6 F1800 E69.91889 
G1 X-0.3251 Y2.4074 Z0.6 F1800 E69.92779 
G1 X-0.2016 Y2.5167 Z0.6 F1800 E69.93328 
G1 X-0.0807 Y2.6032 Z0.6 F1800 E69.93822 
G1 X0.0466 Y2.6764 Z0.6 F1800 E69.94311 
G1 X0.1786 Y2.7356 Z0.6 F1800 E69.94792 
G1 X0.3132 Y2.7808 Z0.6 F1800 E69.95264 
G1 X0.448 Y2.8119 Z0.6 F1800 E69.95724 
G1 X0.5808 Y2.8299 Z0.6 F1800 E69.9617 
G1 X0.6978 Y2.8351 Z0.6 F1800 E69.9656 
G1 X5.472 Y2.8351 Z0.6 F1800 E70.12439 
G1 X5.5704 Y2.84998 Z0.6 F1800 E70.12771 
G1 X5.6548 Y2.90174 Z0.6 F1800 E70.13104 
G1 X5.71921 Y2.9769 Z0.6 F1800 E70.13436 
G1 X5.74781 Y3.07209 Z0.6 F1800 E70.13769 
G1 X5.7499 Y3.17202 Z0.6 F1800 E70.14102 
G1 X5.7499 Y5.4202 Z0.6 F1800 E70.21579 
G1 X5.73545 Y5.51866 Z0.6 F1800 E70.21912 
G1 X5.68399 Y5.60324 Z0.6 F1800 E70.22244 
G1 X5.60907 Y5.66791 Z0.6 F1800 E70.22577 
G1 X5.514 Y5.69688 Z0.6 F1800 E70.2291 
G1 X5.41408 Y5.6992 Z0.6 F1800 E70.23242 
G1 X0.697 Y5.6992 Z0.6 F1800 E70.38931 
G1 X0.5727 Y5.705 Z0.6 F1800 E70.39345 
G1 X0.4317 Y5.7254 Z0.6 F1800 E70.39819 
G1 X0.2925 Y5.7595 Z0.6 F1800 E70.40296 
G1 X0.1544 Y5.8084 Z0.6 F1800 E70.40783 
G1 X0.0216 Y5.871 Z0.6 F1800 E70.41271 
G1 X-0.119 Y5.9555 Z0.6 F1800 E70.41817 
G1 X-0.3248 Y6.1265 Z0.6 F1800 E70.42707 
G1 X-0.4341 Y6.2501 Z0.6 F1800 E70.43256 
G1 X-0.5206 Y6.371 Z0.6 F1800 E70.4375 
G1 X-0.5937 Y6.4983 Z0.6 F1800 E70.44238 
G1 X-0.6528 Y6.6302 Z0.6 F1800 E70.44719 
G1 X-0.698 Y6.7648 Z0.6 F1800 E70.45191 
G1 X-0.7291 Y6.8996 Z0.6 F1800 E70.45651 
G1 X-0.7471 Y7.0324 Z0.6 F1800 E70.46097 
G1 X-0.7523 Y7.1494 Z0.6 F1800 E70.46487 
G1 X-0.7523 Y7.3038 Z0.6 F1800 E70.47 
G1 X-0.7465 Y7.4282 Z0.6 F1800 E70.47414 
G1 X-0.7261 Y7.5692 Z0.6 F1800 E70.47888 
G1 X-0.692 Y7.7084 Z0.6 F1800 E70.48365 
G1 X-0.6431 Y7.8465 Z0.6 F1800 E70.48852 
G1 X-0.5806 Y7.9791 Z0.6 F1800 E70.4934 
G1 X-0.4962 Y8.1198 Z0.6 F1800 E70.49885 
G1 X-0.3251 Y8.3256 Z0.6 F1800 E70.50776 
G1 X-0.2016 Y8.4349 Z0.6 F1800 E70.51324 
G1 X-0.0807 Y8.5214 Z0.6 F1800 E70.51818 
G1 X0.0466 Y8.5946 Z0.6 F1800 E70.52307 
G1 X0.1786 Y8.6538 Z0.6 F1800 E70.52788 
G1 X0.3132 Y8.699 Z0.6 F1800 E70.5326 
G1 X0.448 Y8.7301 Z0.6 F1800 E70.5372 
G1 X0.5808 Y8.7481 Z0.6 F1800 E70.54166 
G1 X0.6978 Y8.7533 Z0.6 F1800 E70.54556 
G1 X5.472 Y8.7533 Z0.6 F1800 E70.70435 
G1 X5.5704 Y8.76818 Z0.6 F1800 E70.70767 
G1 X5.6548 Y8.81994 Z0.6 F1800 E70.711 
G1 X5.71921 Y8.8951 Z0.6 F1800 E70.71433 
G1 X5.74781 Y8.99029 Z0.6 F1800 E70.71765 
G1 X5.7499 Y9.09022 Z0.6 F1800 E70.72098 
G1 X5.7499 Y11.7194 Z0.6 F1800 E70.80842 
G1 X5.73545 Y11.81786 Z0.6 F1800 E70.81175 
G1 X5.68399 Y11.90244 Z0.6 F1800 E70.81508 
G1 X5.60907 Y11.96711 Z0.6 F1800 E70.8184 
G1 X5.514 Y11.99608 Z0.6 F1800 E70.82173 
G1 X5.41408 Y11.9984 Z0.6 F1800 E70.82505 
G1 X0.5703 Y11.9984 Z0.6 F1800 E70.98616 
G1 X0.4578 Y12.0036 Z0.6 F1800 E70.98991 
G1 X0.3284 Y12.0223 Z0.6 F1800 E70.99425 
G1 X0.2017 Y12.0536 Z0.6 F1800 E70.99859 
G1 X0.0763 Y12.0978 Z0.6 F1800 E71.00302 
G1 X-0.0458 Y12.1552 Z0.6 F1800 E71.0075 
G1 X-0.1752 Y12.2331 Z0.6 F1800 E71.01253 
G1 X-0.3612 Y12.3876 Z0.6 F1800 E71.02057 
G1 X-0.462 Y12.5019 Z0.6 F1800 E71.02564 
G1 X-0.5408 Y12.612 Z0.6 F1800 E71.03014 
G1 X-0.6074 Y12.7279 Z0.6 F1800 E71.03459 
G1 X-0.6615 Y12.8485 Z0.6 F1800 E71.03898 
G1 X-0.7027 Y12.9713 Z0.6 F1800 E71.04329 
G1 X-0.7313 Y13.0947 Z0.6 F1800 E71.04751 
G1 X-0.7476 Y13.2163 Z0.6 F1800 E71.05159 
G1 X-0.7529 Y13.3355 Z0.6 F1800 E71.05555 
G1 X-0.7471 Y13.4613 Z0.6 F1800 E71.05974 
G1 X-0.7284 Y13.5907 Z0.6 F1800 E71.06409 
G1 X-0.6971 Y13.7174 Z0.6 F1800 E71.06843 
G1 X-0.6529 Y13.8428 Z0.6 F1800 E71.07285 
G1 X-0.5956 Y13.9647 Z0.6 F1800 E71.07733 
G1 X-0.5178 Y14.0941 Z0.6 F1800 E71.08236 
G1 X-0.3632 Y14.2803 Z0.6 F1800 E71.09041 
G1 X-0.2492 Y14.3809 Z0.6 F1800 E71.09546 
G1 X-0.1391 Y14.4598 Z0.6 F1800 E71.09997 
G1 X-0.023 Y14.5266 Z0.6 F1800 E71.10442 
G1 X0.0977 Y14.5807 Z0.6 F1800 E71.10882 
G1 X0.2205 Y14.6219 Z0.6 F1800 E71.11313 
G1 X0.3439 Y14.6505 Z0.6 F1800 E71.11734 
G1 X0.4651 Y14.6668 Z0.6 F1800 E71.12141 
G1 X0.5705 Y14.6716 Z0.6 F1800 E71.12492 
G1 X5.471 Y14.6716 Z0.6 F1800 E71.28791 
G1 X5.56946 Y14.68605 Z0.6 F1800 E71.29124 
G1 X5.65404 Y14.73751 Z0.6 F1800 E71.29456 
G1 X5.71871 Y14.81243 Z0.6 F1800 E71.29789 
G1 X5.74768 Y14.9075 Z0.6 F1800 E71.30122 
G1 X5.7499 Y15.00743 Z0.6 F1800 E71.30454 
G1 X5.7499 Y18.171 Z0.6 F1800 E71.40976 
G1 X5.73545 Y18.26946 Z0.6 F1800 E71.41309 
G1 X5.68399 Y18.35404 Z0.6 F1800 E71.41641 
G1 X5.60907 Y18.41871 Z0.6 F1800 E71.41974 
G1 X5.514 Y18.44768 Z0.6 F1800 E71.42307 
G1 X5.41407 Y18.4499 Z0.6 F1800 E71.42639 
G1 X-1.9658 Y18.4499 Z0.6 F1800 E71.67185 
G1 X-2.06426 Y18.43545 Z0.6 F1800 E71.67517 
G1 X-2.14884 Y18.38399 Z0.6 F1800 E71.6785 
G1 X-2.21351 Y18.30906 Z0.6 F1800 E71.68183 
G1 X-2.24248 Y18.21399 Z0.6 F1800 E71.68515 
G1 X-2.2448 Y18.11407 Z0.6 F1800 E71.68848 
G1 X-2.2448 Y16.3943 Z0.6 F1800 E71.74568 
G1 X-2.2506 Y16.2699 Z0.6 F1800 E71.74982 
G1 X-2.271 Y16.1289 Z0.6 F1800 E71.75456 
G1 X-2.3051 Y15.9897 Z0.6 F1800 E71.75933 
G1 X-2.354 Y15.8516 Z0.6 F1800 E71.7642 
G1 X-2.4166 Y15.7188 Z0.6 F1800 E71.76908 
G1 X-2.5011 Y15.5782 Z0.6 F1800 E71.77454 
G1 X-2.6721 Y15.3724 Z0.6 F1800 E71.78344 
G1 X-2.7957 Y15.2631 Z0.6 F1800 E71.78892 
G1 X-2.9165 Y15.1767 Z0.6 F1800 E71.79386 
G1 X-3.0438 Y15.1035 Z0.6 F1800 E71.79875 
G1 X-3.1758 Y15.0443 Z0.6 F1800 E71.80356 
G1 X-3.3104 Y14.9991 Z0.6 F1800 E71.80828 
G1 X-3.4452 Y14.968 Z0.6 F1800 E71.81288 
G1 X-3.5776 Y14.95 Z0.6 F1800 E71.81733 
G1 X-3.6946 Y14.9447 Z0.6 F1800 E71.82122 
G1 X-5.471 Y14.9447 Z0.6 F1800 E71.88031 
G1 X-5.56946 Y14.93025 Z0.6 F1800 E71.88363 
G1 X-5.65404 Y14.87879 Z0.6 F1800 E71.88696 
G1 X-5.71871 Y14.80387 Z0.6 F1800 E71.89028 
G1 X-5.74768 Y14.7088 Z0.6 F1800 E71.89361 
G1 X-5.7499 Y14.60888 Z0.6 F1800 E71.89694 
G1 X-5.7499 Y-18.171 Z0.6 F1800 E72.9872 
G1 X-5.73545 Y-18.26946 Z0.6 F1800 E72.99053 
G1 X-5.68399 Y-18.35404 Z0.6 F1800 E72.99385 
G1 X-5.60907 Y-18.41871 Z0.6 F1800 E72.99718 
G1 X-5.514 Y-18.44768 Z0.6 F1800 E73.0005 
G1 X-5.41407 Y-18.4499 Z0.6 F1800 E73.00383 
G1 X5.471 Y-18.4499 Z0.6 F1800 E73.36587 
G1 X5.4813 Y-18.8499 Z0.6 F4800 ;Travel
G1 X5.5809 Y-18.84215 Z0.6 F1800 E73.36919 
G1 X5.67855 Y-18.82117 Z0.6 F1800 E73.37252 
G1 X5.7714 Y-18.78434 Z0.6 F1800 E73.37585 
G1 X5.85791 Y-18.73465 Z0.6 F1800 E73.37917 
G1 X5.9635 Y-18.6468 Z0.6 F1800 E73.38374 
G1 X6.02676 Y-18.56951 Z0.6 F1800 E73.38707 
G1 X6.07888 Y-18.48432 Z0.6 F1800 E73.39039 
G1 X6.11634 Y-18.39172 Z0.6 F1800 E73.39372 
G1 X6.14038 Y-18.29482 Z0.6 F1800 E73.39705 
G1 X6.14931 Y-18.19532 Z0.6 F1800 E73.40037 
G1 X6.1499 Y-18.09534 Z0.6 F1800 E73.4037 
G1 X6.1499 Y-13.4669 Z0.6 F1800 E73.55764 
G1 X6.14214 Y-13.3673 Z0.6 F1800 E73.56097 
G1 X6.12113 Y-13.26966 Z0.6 F1800 E73.56429 
G1 X6.0843 Y-13.17681 Z0.6 F1800 E73.56762 
G1 X6.03458 Y-13.09031 Z0.6 F1800 E73.57094 
G1 X5.9468 Y-12.9848 Z0.6 F1800 E73.57551 
G1 X5.86951 Y-12.92154 Z0.6 F1800 E73.57883 
G1 X5.78432 Y-12.86942 Z0.6 F1800 E73.58216 
G1 X5.69172 Y-12.83196 Z0.6 F1800 E73.58549 
G1 X5.59482 Y-12.80792 Z0.6 F1800 E73.58881 
G1 X5.49533 Y-12.79893 Z0.6 F1800 E73.59214 
G1 X5.39534 Y-12.7983 Z0.6 F1800 E73.59546 
G1 X0.7064 Y-12.7983 Z0.6 F1800 E73.75142 
G1 X0.60655 Y-12.7932 Z0.6 F1800 E73.75475 
G1 X0.50758 Y-12.7789 Z0.6 F1800 E73.75807 
G1 X0.4071 Y-12.7543 Z0.6 F1800 E73.76151 
G1 X0.3069 Y-12.7188 Z0.6 F1800 E73.76505 
G1 X0.2104 Y-12.6733 Z0.6 F1800 E73.7686 
G1 X0.1132 Y-12.6149 Z0.6 F1800 E73.77237 
G1 X-0.0455 Y-12.483 Z0.6 F1800 E73.77923 
G1 X-0.1208 Y-12.3978 Z0.6 F1800 E73.78301 
G1 X-0.1837 Y-12.31 Z0.6 F1800 E73.78661 
G1 X-0.2368 Y-12.2174 Z0.6 F1800 E73.79016 
G1 X-0.2798 Y-12.1215 Z0.6 F1800 E73.79365 
G1 X-0.3126 Y-12.0238 Z0.6 F1800 E73.79708 
G1 X-0.3352 Y-11.9259 Z0.6 F1800 E73.80042 
G1 X-0.34841 Y-11.82679 Z0.6 F1800 E73.80375 
G1 X-0.3523 Y-11.72687 Z0.6 F1800 E73.80707 
G1 X-0.3523 Y-10.46 Z0.6 F1800 E73.84921 
G1 X-0.3472 Y-10.36015 Z0.6 F1800 E73.85254 
G1 X-0.3329 Y-10.26118 Z0.6 F1800 E73.85586 
G1 X-0.3083 Y-10.1607 Z0.6 F1800 E73.8593 
G1 X-0.2728 Y-10.0605 Z0.6 F1800 E73.86284 
G1 X-0.2273 Y-9.964 Z0.6 F1800 E73.86639 
G1 X-0.169 Y-9.8668 Z0.6 F1800 E73.87016 
G1 X-0.0371 Y-9.7082 Z0.6 F1800 E73.87702 
G1 X0.0481 Y-9.6328 Z0.6 F1800 E73.8808 
G1 X0.1359 Y-9.5699 Z0.6 F1800 E73.88439 
G1 X0.2285 Y-9.5167 Z0.6 F1800 E73.88795 
G1 X0.3244 Y-9.4737 Z0.6 F1800 E73.89144 
G1 X0.4221 Y-9.4409 Z0.6 F1800 E73.89487 
G1 X0.52 Y-9.4183 Z0.6 F1800 E73.89821 
G1 X0.61911 Y-9.40508 Z0.6 F1800 E73.90154 
G1 X0.71902 Y-9.4011 Z0.6 F1800 E73.90486 
G1 X5.4813 Y-9.4011 Z0.6 F1800 E74.06326 
G1 X5.5809 Y-9.39335 Z0.6 F1800 E74.06658 
G1 X5.67855 Y-9.37237 Z0.6 F1800 E74.06991 
G1 X5.7714 Y-9.33554 Z0.6 F1800 E74.07323 
G1 X5.85791 Y-9.28585 Z0.6 F1800 E74.07656 
G1 X5.9635 Y-9.198 Z0.6 F1800 E74.08113 
G1 X6.02676 Y-9.12071 Z0.6 F1800 E74.08445 
G1 X6.07888 Y-9.03552 Z0.6 F1800 E74.08778 
G1 X6.11634 Y-8.94292 Z0.6 F1800 E74.09111 
G1 X6.14038 Y-8.84602 Z0.6 F1800 E74.09443 
G1 X6.14931 Y-8.74652 Z0.6 F1800 E74.09776 
G1 X6.1499 Y-8.64654 Z0.6 F1800 E74.10109 
G1 X6.1499 Y-7.1678 Z0.6 F1800 E74.15027 
G1 X6.14215 Y-7.0682 Z0.6 F1800 E74.15359 
G1 X6.12117 Y-6.97055 Z0.6 F1800 E74.15692 
G1 X6.08434 Y-6.8777 Z0.6 F1800 E74.16025 
G1 X6.03465 Y-6.79119 Z0.6 F1800 E74.16357 
G1 X5.9468 Y-6.6856 Z0.6 F1800 E74.16814 
G1 X5.86951 Y-6.62234 Z0.6 F1800 E74.17147 
G1 X5.78432 Y-6.57022 Z0.6 F1800 E74.17479 
G1 X5.69172 Y-6.53276 Z0.6 F1800 E74.17812 
G1 X5.59482 Y-6.50872 Z0.6 F1800 E74.18144 
G1 X5.49532 Y-6.49979 Z0.6 F1800 E74.18477 
G1 X5.39534 Y-6.4992 Z0.6 F1800 E74.1881 
G1 X0.7063 Y-6.4992 Z0.6 F1800 E74.34405 
G1 X0.60645 Y-6.49402 Z0.6 F1800 E74.34738 
G1 X0.50749 Y-6.47967 Z0.6 F1800 E74.35071 
G1 X0.4071 Y-6.4551 Z0.6 F1800 E74.35414 
G1 X0.3069 Y-6.4196 Z0.6 F1800 E74.35768 
G1 X0.2104 Y-6.3741 Z0.6 F1800 E74.36123 
G1 X0.1132 Y-6.3157 Z0.6 F1800 E74.365 
G1 X-0.0455 Y-6.1838 Z0.6 F1800 E74.37186 
G1 X-0.1208 Y-6.0986 Z0.6 F1800 E74.37564 
G1 X-0.1837 Y-6.0108 Z0.6 F1800 E74.37924 
G1 X-0.2368 Y-5.9182 Z0.6 F1800 E74.38279 
G1 X-0.2798 Y-5.8223 Z0.6 F1800 E74.38628 
G1 X-0.3126 Y-5.7246 Z0.6 F1800 E74.38971 
G1 X-0.3352 Y-5.6267 Z0.6 F1800 E74.39305 
G1 X-0.34841 Y-5.52759 Z0.6 F1800 E74.39638 
G1 X-0.3523 Y-5.42767 Z0.6 F1800 E74.3997 
G1 X-0.3523 Y-4.5419 Z0.6 F1800 E74.42917 
G1 X-0.34722 Y-4.44205 Z0.6 F1800 E74.43249 
G1 X-0.33292 Y-4.34308 Z0.6 F1800 E74.43582 
G1 X-0.3083 Y-4.2425 Z0.6 F1800 E74.43926 
G1 X-0.2728 Y-4.1423 Z0.6 F1800 E74.4428 
G1 X-0.2273 Y-4.0458 Z0.6 F1800 E74.44635 
G1 X-0.169 Y-3.9486 Z0.6 F1800 E74.45012 
G1 X-0.0371 Y-3.79 Z0.6 F1800 E74.45698 
G1 X0.0481 Y-3.7146 Z0.6 F1800 E74.46076 
G1 X0.1359 Y-3.6517 Z0.6 F1800 E74.46435 
G1 X0.2285 Y-3.5985 Z0.6 F1800 E74.4679 
G1 X0.3244 Y-3.5555 Z0.6 F1800 E74.4714 
G1 X0.4221 Y-3.5227 Z0.6 F1800 E74.47483 
G1 X0.52 Y-3.5001 Z0.6 F1800 E74.47817 
G1 X0.61911 Y-3.48688 Z0.6 F1800 E74.4815 
G1 X0.71902 Y-3.4829 Z0.6 F1800 E74.48482 
G1 X5.4813 Y-3.4829 Z0.6 F1800 E74.64322 
G1 X5.5809 Y-3.47515 Z0.6 F1800 E74.64654 
G1 X5.67855 Y-3.45417 Z0.6 F1800 E74.64987 
G1 X5.7714 Y-3.41734 Z0.6 F1800 E74.65319 
G1 X5.85791 Y-3.36765 Z0.6 F1800 E74.65652 
G1 X5.9635 Y-3.2798 Z0.6 F1800 E74.66109 
G1 X6.02676 Y-3.20251 Z0.6 F1800 E74.66441 
G1 X6.07888 Y-3.11732 Z0.6 F1800 E74.66774 
G1 X6.11634 Y-3.02472 Z0.6 F1800 E74.67107 
G1 X6.14038 Y-2.92782 Z0.6 F1800 E74.67439 
G1 X6.14931 Y-2.82832 Z0.6 F1800 E74.67772 
G1 X6.1499 Y-2.72834 Z0.6 F1800 E74.68104 
G1 X6.1499 Y-0.8685 Z0.6 F1800 E74.7429 
G1 X6.14214 Y-0.7689 Z0.6 F1800 E74.74623 
G1 X6.12113 Y-0.67126 Z0.6 F1800 E74.74956 
G1 X6.0843 Y-0.57841 Z0.6 F1800 E74.75288 
G1 X6.03458 Y-0.49191 Z0.6 F1800 E74.75621 
G1 X5.9468 Y-0.3864 Z0.6 F1800 E74.76077 
G1 X5.86951 Y-0.32314 Z0.6 F1800 E74.7641 
G1 X5.78432 Y-0.27102 Z0.6 F1800 E74.76742 
G1 X5.69172 Y-0.23356 Z0.6 F1800 E74.77075 
G1 X5.59482 Y-0.20952 Z0.6 F1800 E74.77408 
G1 X5.49532 Y-0.20059 Z0.6 F1800 E74.7774 
G1 X5.39534 Y-0.2 Z0.6 F1800 E74.78073 
G1 X0.7064 Y-0.2 Z0.6 F1800 E74.93668 
G1 X0.60655 Y-0.1949 Z0.6 F1800 E74.94001 
G1 X0.50758 Y-0.1806 Z0.6 F1800 E74.94333 
G1 X0.4071 Y-0.156 Z0.6 F1800 E74.94678 
G1 X0.3069 Y-0.1205 Z0.6 F1800 E74.95031 
G1 X0.2104 Y-0.075 Z0.6 F1800 E74.95386 
G1 X0.1132 Y-0.0166 Z0.6 F1800 E74.95763 
G1 X-0.0455 Y0.1153 Z0.6 F1800 E74.96449 
G1 X-0.1208 Y0.2005 Z0.6 F1800 E74.96828 
G1 X-0.1837 Y0.2883 Z0.6 F1800 E74.97187 
G1 X-0.2368 Y0.3809 Z0.6 F1800 E74.97542 
G1 X-0.2798 Y0.4768 Z0.6 F1800 E74.97891 
G1 X-0.3126 Y0.5745 Z0.6 F1800 E74.98234 
G1 X-0.3352 Y0.6724 Z0.6 F1800 E74.98568 
G1 X-0.34841 Y0.77151 Z0.6 F1800 E74.98901 
G1 X-0.3523 Y0.87143 Z0.6 F1800 E74.99234 
G1 X-0.3523 Y1.3763 Z0.6 F1800 E75.00913 
G1 X-0.3472 Y1.47615 Z0.6 F1800 E75.01245 
G1 X-0.3329 Y1.57512 Z0.6 F1800 E75.01578 
G1 X-0.3083 Y1.6756 Z0.6 F1800 E75.01922 
G1 X-0.2728 Y1.7758 Z0.6 F1800 E75.02276 
G1 X-0.2273 Y1.8723 Z0.6 F1800 E75.02631 
G1 X-0.169 Y1.9695 Z0.6 F1800 E75.03007 
G1 X-0.0371 Y2.1281 Z0.6 F1800 E75.03694 
G1 X0.0481 Y2.2035 Z0.6 F1800 E75.04072 
G1 X0.1359 Y2.2664 Z0.6 F1800 E75.04431 
G1 X0.2285 Y2.3196 Z0.6 F1800 E75.04786 
G1 X0.3244 Y2.3626 Z0.6 F1800 E75.05136 
G1 X0.4221 Y2.3954 Z0.6 F1800 E75.05479 
G1 X0.52 Y2.418 Z0.6 F1800 E75.05813 
G1 X0.61911 Y2.43121 Z0.6 F1800 E75.06146 
G1 X0.71903 Y2.4351 Z0.6 F1800 E75.06478 
G1 X5.4809 Y2.4351 Z0.6 F1800 E75.22316 
G1 X5.5805 Y2.44289 Z0.6 F1800 E75.22649 
G1 X5.67816 Y2.4638 Z0.6 F1800 E75.22981 
G1 X5.77103 Y2.50059 Z0.6 F1800 E75.23314 
G1 X5.8576 Y2.55019 Z0.6 F1800 E75.23647 
G1 X5.9635 Y2.6383 Z0.6 F1800 E75.24105 
G1 X6.02676 Y2.71559 Z0.6 F1800 E75.24437 
G1 X6.07888 Y2.80078 Z0.6 F1800 E75.2477 
G1 X6.11634 Y2.89338 Z0.6 F1800 E75.25103 
G1 X6.14038 Y2.99028 Z0.6 F1800 E75.25435 
G1 X6.14931 Y3.08978 Z0.6 F1800 E75.25768 
G1 X6.1499 Y3.18976 Z0.6 F1800 E75.261 
G1 X6.1499 Y5.4305 Z0.6 F1800 E75.33553 
G1 X6.14215 Y5.5301 Z0.6 F1800 E75.33886 
G1 X6.12117 Y5.62775 Z0.6 F1800 E75.34218 
G1 X6.08434 Y5.7206 Z0.6 F1800 E75.34551 
G1 X6.03465 Y5.80711 Z0.6 F1800 E75.34884 
G1 X5.9468 Y5.9127 Z0.6 F1800 E75.3534 
G1 X5.86951 Y5.97596 Z0.6 F1800 E75.35673 
G1 X5.78432 Y6.02808 Z0.6 F1800 E75.36006 
G1 X5.69172 Y6.06554 Z0.6 F1800 E75.36338 
G1 X5.59482 Y6.08958 Z0.6 F1800 E75.36671 
G1 X5.49533 Y6.09857 Z0.6 F1800 E75.37003 
G1 X5.39534 Y6.0992 Z0.6 F1800 E75.37336 
G1 X0.7064 Y6.0992 Z0.6 F1800 E75.52931 
G1 X0.60655 Y6.1043 Z0.6 F1800 E75.53264 
G1 X0.50758 Y6.1186 Z0.6 F1800 E75.53597 
G1 X0.4071 Y6.1432 Z0.6 F1800 E75.53941 
G1 X0.3069 Y6.1787 Z0.6 F1800 E75.54294 
G1 X0.2104 Y6.2242 Z0.6 F1800 E75.54649 
G1 X0.1132 Y6.2826 Z0.6 F1800 E75.55026 
G1 X-0.0455 Y6.4145 Z0.6 F1800 E75.55713 
G1 X-0.1208 Y6.4997 Z0.6 F1800 E75.56091 
G1 X-0.1837 Y6.5875 Z0.6 F1800 E75.5645 
G1 X-0.2368 Y6.6801 Z0.6 F1800 E75.56805 
G1 X-0.2798 Y6.776 Z0.6 F1800 E75.57155 
G1 X-0.3126 Y6.8737 Z0.6 F1800 E75.57497 
G1 X-0.3352 Y6.9716 Z0.6 F1800 E75.57832 
G1 X-0.34841 Y7.07071 Z0.6 F1800 E75.58164 
G1 X-0.3523 Y7.17063 Z0.6 F1800 E75.58497 
G1 X-0.3523 Y7.2944 Z0.6 F1800 E75.58908 
G1 X-0.34722 Y7.39425 Z0.6 F1800 E75.59241 
G1 X-0.33292 Y7.49322 Z0.6 F1800 E75.59574 
G1 X-0.3083 Y7.5938 Z0.6 F1800 E75.59918 
G1 X-0.2728 Y7.694 Z0.6 F1800 E75.60272 
G1 X-0.2273 Y7.7905 Z0.6 F1800 E75.60626 
G1 X-0.169 Y7.8877 Z0.6 F1800 E75.61003 
G1 X-0.0371 Y8.0463 Z0.6 F1800 E75.6169 
G1 X0.0481 Y8.1217 Z0.6 F1800 E75.62068 
G1 X0.1359 Y8.1846 Z0.6 F1800 E75.62427 
G1 X0.2285 Y8.2378 Z0.6 F1800 E75.62782 
G1 X0.3244 Y8.2808 Z0.6 F1800 E75.63132 
