;FLAVOR:Marlin
;TIME:8421
;Filament used: 5.33217m
;Layer height: 0.1
;Generated with Cura_SteamEngine 1.2.1
M190 S35
M104 S220
M109 S220
G28
G1 Z50.00 F400
G92 E0
G1 F200 E3
G92 E0
M132 X Y Z A
M907 X100 Y100 Z50 A100
;LAYER_COUNT:71
;LAYER:0
M107
G0 F3600 X-26.047 Y-37.767 Z0.3
;TYPE:SKIRT
G1 F1500 X56.906 Y-37.776 E4.13854
G1 X62.35 Y-37.93 E4.41025
G1 X67.723 Y-38.387 E4.67928
G1 X73.054 Y-39.146 E4.94793
G1 X78.35 Y-40.208 E5.21741
G1 X80.946 Y-40.845 E5.35076
G1 X83.509 Y-41.549 E5.48337
G1 X88.666 Y-43.208 E5.75364
G1 X93.674 Y-45.137 E6.02138
G1 X99.629 Y-47.859 E6.34804
G1 X100.207 Y-48.079 E6.3789
G1 X100.81 Y-48.223 E6.40983
G1 X101.621 Y-48.293 E6.45044
G1 X106.612 Y-48.296 E6.69944
G1 X107.23 Y-48.256 E6.73034
G1 X107.838 Y-48.138 E6.76124
G1 X108.426 Y-47.941 E6.79217
G1 X108.983 Y-47.671 E6.82306
G1 X109.501 Y-47.332 E6.85394
G1 X109.971 Y-46.928 E6.88486
G1 X110.385 Y-46.467 E6.91577
G1 X110.736 Y-45.957 E6.94666
G1 X111.019 Y-45.406 E6.97757
G1 X111.228 Y-44.823 E7.00846
G1 X111.36 Y-44.218 E7.03936
G1 X111.415 Y-43.496 E7.07548
G1 X111.414 Y-16.855 E8.40461
G1 X111.374 Y-16.237 E8.4355
G1 X111.311 Y-15.865 E8.45433
G1 X110.336 Y-11.242 E8.69004
G1 X109.496 Y-5.898 E8.95993
G1 X108.963 Y-.561 E9.22752
G1 X108.732 Y4.828 E9.49662
G1 X108.805 Y10.223 E9.76581
G1 X109.185 Y15.617 E10.03558
G1 X109.501 Y18.475 E10.17904
G1 X109.53 Y19.003 E10.20542
G1 X109.531 Y45.651 E11.53489
G1 X109.491 Y46.269 E11.56579
G1 X109.372 Y46.877 E11.5967
G1 X109.175 Y47.464 E11.62759
G1 X108.905 Y48.021 E11.65847
G1 X108.565 Y48.539 E11.68938
G1 X108.161 Y49.009 E11.7203
G1 X107.7 Y49.422 E11.75118
G1 X107.19 Y49.773 E11.78207
G1 X106.639 Y50.056 E11.81297
G1 X106.056 Y50.265 E11.84387
G1 X105.451 Y50.397 E11.87477
G1 X104.73 Y50.451 E11.91084
G1 X99.746 Y50.45 E12.15949
G1 X99.128 Y50.41 E12.19039
G1 X98.52 Y50.291 E12.2213
G1 X97.723 Y50.002 E12.26359
G1 X93.183 Y47.89 E12.5134
G1 X90.756 Y46.874 E12.64467
G1 X85.657 Y44.993 E12.91582
G1 X80.5 Y43.414 E13.18489
G1 X75.224 Y42.12 E13.45591
G1 X72.658 Y41.607 E13.58646
G1 X67.325 Y40.771 E13.85578
G1 X61.954 Y40.237 E14.12506
G1 X56.534 Y40.007 E14.39571
G1 X-27.94 Y39.987 E18.61013
G1 X-28.558 Y39.947 E18.64103
G1 X-29.166 Y39.828 E18.67194
G1 X-29.753 Y39.631 E18.70283
G1 X-30.31 Y39.36 E18.73373
G1 X-30.828 Y39.02 E18.76464
G1 X-31.389 Y38.524 E18.802
G1 X-34.747 Y35.052 E19.04298
G1 X-38.703 Y31.369 E19.31264
G1 X-42.838 Y27.936 E19.58077
G1 X-47.166 Y24.739 E19.84921
G1 X-51.679 Y21.783 E20.11837
G1 X-56.341 Y19.094 E20.38687
G1 X-61.163 Y16.664 E20.65626
G1 X-66.07 Y14.529 E20.92324
G1 X-71.128 Y12.663 E21.19221
G1 X-76.287 Y11.084 E21.46138
G1 X-81.582 Y9.785 E21.73338
G1 X-84.124 Y9.277 E21.86271
G1 X-89.484 Y8.437 E22.13339
G1 X-94.865 Y7.902 E22.40317
G1 X-97.469 Y7.755 E22.53329
G1 X-106.467 Y7.656 E22.98223
G1 X-107.084 Y7.609 E23.0131
G1 X-107.691 Y7.483 E23.04403
G1 X-108.276 Y7.28 E23.07492
G1 X-108.83 Y7.004 E23.1058
G1 X-109.344 Y6.658 E23.13672
G1 X-109.809 Y6.249 E23.16761
G1 X-110.218 Y5.784 E23.19851
G1 X-110.563 Y5.269 E23.22943
G1 X-110.839 Y4.715 E23.26031
G1 X-111.042 Y4.13 E23.29121
G1 X-111.167 Y3.523 E23.32212
G1 X-111.214 Y2.856 E23.35548
G1 X-111.214 Y-2.79 E23.63716
G1 X-111.174 Y-3.408 E23.66806
G1 X-111.055 Y-4.016 E23.69897
G1 X-110.858 Y-4.603 E23.72986
G1 X-110.588 Y-5.16 E23.76074
G1 X-110.248 Y-5.678 E23.79165
G1 X-109.844 Y-6.148 E23.82258
G1 X-109.383 Y-6.561 E23.85345
G1 X-108.873 Y-6.912 E23.88434
G1 X-108.322 Y-7.195 E23.91525
G1 X-107.739 Y-7.404 E23.94614
G1 X-107.133 Y-7.536 E23.97709
G1 X-106.419 Y-7.59 E24.01281
G1 X-97.701 Y-7.599 E24.44775
G1 X-92.255 Y-7.753 E24.71956
G1 X-86.882 Y-8.21 E24.98859
G1 X-81.551 Y-8.969 E25.25724
G1 X-76.255 Y-10.031 E25.52672
G1 X-73.659 Y-10.668 E25.66007
G1 X-71.096 Y-11.372 E25.79268
G1 X-65.939 Y-13.031 E26.06295
G1 X-60.919 Y-14.965 E26.33134
G1 X-55.974 Y-17.199 E26.60205
G1 X-53.622 Y-18.384 E26.73345
G1 X-48.913 Y-21.012 E27.00249
G1 X-44.349 Y-23.91 E27.27221
G1 X-39.984 Y-27.042 E27.54024
G1 X-35.788 Y-30.427 E27.80921
G1 X-31.766 Y-34.064 E28.07974
G1 X-29.419 Y-36.382 E28.24432
G1 X-28.951 Y-36.788 E28.27523
G1 X-28.435 Y-37.13 E28.30611
G1 X-27.879 Y-37.403 E28.33701
G1 X-27.292 Y-37.602 E28.36794
G1 X-26.685 Y-37.724 E28.39883
G1 X-26.047 Y-37.767 E28.43073
G0 F3600 X-26.046 Y-37.367
G1 F1500 X56.918 Y-37.376 E32.56982
G1 X62.376 Y-37.53 E32.84223
G1 X67.761 Y-37.988 E33.11186
G1 X73.121 Y-38.752 E33.38197
G1 X78.455 Y-39.822 E33.65339
G1 X81 Y-40.446 E33.78412
G1 X83.625 Y-41.167 E33.91993
G1 X88.806 Y-42.834 E34.19146
G1 X93.833 Y-44.77 E34.46021
G1 X99.795 Y-47.495 E34.78726
G1 X100.35 Y-47.704 E34.81684
G1 X100.927 Y-47.838 E34.8464
G1 X101.621 Y-47.893 E34.88113
G1 X106.612 Y-47.896 E35.13013
G1 X107.204 Y-47.856 E35.15973
G1 X107.785 Y-47.738 E35.18931
G1 X108.345 Y-47.542 E35.21891
G1 X108.873 Y-47.272 E35.2485
G1 X109.36 Y-46.935 E35.27804
G1 X109.798 Y-46.534 E35.30767
G1 X110.177 Y-46.079 E35.33721
G1 X110.492 Y-45.576 E35.36682
G1 X110.737 Y-45.036 E35.39641
G1 X110.906 Y-44.468 E35.42597
G1 X110.998 Y-43.882 E35.45557
G1 X111.015 Y-43.496 E35.47484
G1 X111.014 Y-16.855 E36.80397
G1 X110.974 Y-16.263 E36.83357
G1 X110.919 Y-15.947 E36.84957
G1 X109.945 Y-11.326 E37.08518
G1 X109.098 Y-5.946 E37.3569
G1 X108.563 Y-.584 E37.62574
G1 X108.332 Y4.816 E37.89539
G1 X108.405 Y10.239 E38.16597
G1 X108.787 Y15.665 E38.43734
G1 X109.103 Y18.519 E38.5806
G1 X109.13 Y19.003 E38.60478
G1 X109.131 Y45.651 E39.93426
G1 X109.091 Y46.242 E39.96381
G1 X108.972 Y46.823 E39.9934
G1 X108.776 Y47.383 E40.023
G1 X108.506 Y47.911 E40.05259
G1 X108.168 Y48.398 E40.08216
G1 X107.767 Y48.835 E40.11175
G1 X107.312 Y49.215 E40.14133
G1 X106.809 Y49.529 E40.17091
G1 X106.269 Y49.774 E40.20049
G1 X105.701 Y49.943 E40.23006
G1 X105.115 Y50.034 E40.25964
G1 X104.73 Y50.051 E40.27887
G1 X99.746 Y50.05 E40.52752
G1 X99.155 Y50.01 E40.55708
G1 X98.574 Y49.891 E40.58666
G1 X97.891 Y49.64 E40.62297
G1 X93.317 Y47.513 E40.87463
G1 X90.909 Y46.504 E41.00489
G1 X85.776 Y44.61 E41.27785
G1 X80.607 Y43.028 E41.54754
G1 X75.301 Y41.727 E41.8201
G1 X72.752 Y41.217 E41.94979
G1 X67.357 Y40.371 E42.22224
G1 X61.991 Y39.838 E42.49127
G1 X56.551 Y39.607 E42.76291
G1 X-27.94 Y39.587 E46.97819
G1 X-28.532 Y39.547 E47.00779
G1 X-29.112 Y39.428 E47.03733
G1 X-29.672 Y39.231 E47.06694
G1 X-30.2 Y38.962 E47.09651
G1 X-30.687 Y38.623 E47.12611
G1 X-31.102 Y38.246 E47.15408
G1 X-34.479 Y34.754 E47.39644
G1 X-38.43 Y31.076 E47.66575
G1 X-42.598 Y27.615 E47.93603
G1 X-46.935 Y24.412 E48.20502
G1 X-51.473 Y21.44 E48.47565
G1 X-56.139 Y18.747 E48.74443
G1 X-60.981 Y16.308 E49.01491
G1 X-65.929 Y14.155 E49.28413
G1 X-71.015 Y12.279 E49.55458
G1 X-76.18 Y10.698 E49.82406
G1 X-81.478 Y9.398 E50.09622
G1 X-84.058 Y8.883 E50.22748
G1 X-89.435 Y8.04 E50.49902
G1 X-94.826 Y7.504 E50.7693
G1 X-97.465 Y7.355 E50.90117
G1 X-106.462 Y7.256 E51.35006
G1 X-107.054 Y7.209 E51.37969
G1 X-107.633 Y7.084 E51.40924
G1 X-108.19 Y6.881 E51.43882
G1 X-108.716 Y6.606 E51.46843
G1 X-109.199 Y6.263 E51.49798
G1 X-109.632 Y5.857 E51.5276
G1 X-110.006 Y5.397 E51.55717
G1 X-110.315 Y4.891 E51.58675
G1 X-110.553 Y4.348 E51.61633
G1 X-110.716 Y3.778 E51.64591
G1 X-110.801 Y3.191 E51.6755
G1 X-110.814 Y2.856 E51.69223
G1 X-110.814 Y-2.79 E51.97391
G1 X-110.774 Y-3.382 E52.00351
G1 X-110.655 Y-3.962 E52.03305
G1 X-110.459 Y-4.522 E52.06265
G1 X-110.189 Y-5.05 E52.09223
G1 X-109.851 Y-5.537 E52.12181
G1 X-109.45 Y-5.974 E52.1514
G1 X-108.995 Y-6.354 E52.18097
G1 X-108.492 Y-6.668 E52.21056
G1 X-107.952 Y-6.913 E52.24014
G1 X-107.383 Y-7.082 E52.26975
G1 X-106.798 Y-7.173 E52.29929
G1 X-106.419 Y-7.19 E52.31822
G1 X-97.688 Y-7.199 E52.75381
G1 X-92.229 Y-7.353 E53.02627
G1 X-86.844 Y-7.811 E53.2959
G1 X-81.484 Y-8.575 E53.56601
G1 X-76.15 Y-9.645 E53.83743
G1 X-73.605 Y-10.269 E53.96816
G1 X-70.98 Y-10.99 E54.10397
G1 X-65.799 Y-12.657 E54.3755
G1 X-60.768 Y-14.595 E54.64448
G1 X-55.798 Y-16.84 E54.91656
G1 X-53.435 Y-18.03 E55.04855
G1 X-48.704 Y-20.671 E55.31887
G1 X-44.127 Y-23.577 E55.58935
G1 X-39.745 Y-26.721 E55.85842
G1 X-35.513 Y-30.135 E56.12969
G1 X-31.511 Y-33.754 E56.39889
G1 X-29.138 Y-36.098 E56.56529
G1 X-28.689 Y-36.485 E56.59487
G1 X-28.192 Y-36.808 E56.62444
G1 X-27.656 Y-37.062 E56.65403
G1 X-27.091 Y-37.241 E56.6836
G1 X-26.507 Y-37.343 E56.71318
G1 X-26.046 Y-37.367 E56.73621
G0 F3600 X-26.046 Y-36.967
G1 F1500 X56.93 Y-36.976 E60.8759
G1 X62.386 Y-37.13 E61.1482
G1 X67.818 Y-37.592 E61.42019
G1 X73.185 Y-38.357 E61.69065
G1 X78.532 Y-39.429 E61.96273
G1 X81.129 Y-40.066 E62.09613
G1 X83.734 Y-40.782 E62.23091
G1 X88.929 Y-42.453 E62.50317
G1 X93.997 Y-44.405 E62.77412
G1 X99.961 Y-47.131 E63.10128
G1 X100.491 Y-47.329 E63.1295
G1 X101.043 Y-47.451 E63.15771
G1 X101.622 Y-47.493 E63.18667
G1 X106.613 Y-47.496 E63.43567
G1 X107.177 Y-47.456 E63.46388
G1 X107.729 Y-47.338 E63.49204
G1 X108.26 Y-47.142 E63.52028
G1 X108.757 Y-46.874 E63.54845
G1 X109.212 Y-46.538 E63.57667
G1 X109.615 Y-46.142 E63.60486
G1 X109.958 Y-45.692 E63.63309
G1 X110.234 Y-45.199 E63.66127
G1 X110.438 Y-44.672 E63.68947
G1 X110.566 Y-44.121 E63.71769
G1 X110.615 Y-43.496 E63.74897
G1 X110.614 Y-16.855 E65.07809
G1 X110.528 Y-16.03 E65.11947
G1 X109.547 Y-11.378 E65.35667
G1 X108.703 Y-6.012 E65.62767
G1 X108.163 Y-.606 E65.89872
G1 X107.931 Y4.805 E66.16892
G1 X108.006 Y10.255 E66.44085
G1 X108.388 Y15.687 E66.71252
G1 X108.706 Y18.563 E66.85688
G1 X108.73 Y19.003 E66.87886
G1 X108.731 Y45.651 E68.20834
G1 X108.691 Y46.215 E68.23655
G1 X108.572 Y46.767 E68.26472
G1 X108.376 Y47.298 E68.29296
G1 X108.108 Y47.795 E68.32113
G1 X107.772 Y48.25 E68.34935
G1 X107.375 Y48.653 E68.37757
G1 X106.925 Y48.995 E68.40577
G1 X106.432 Y49.271 E68.43396
G1 X105.905 Y49.475 E68.46215
G1 X105.354 Y49.602 E68.49036
G1 X104.73 Y49.651 E68.52159
G1 X99.746 Y49.65 E68.77024
G1 X99.182 Y49.61 E68.79845
G1 X98.63 Y49.491 E68.82662
G1 X98.06 Y49.277 E68.857
G1 X93.492 Y47.153 E69.10833
G1 X91.061 Y46.135 E69.23981
G1 X85.905 Y44.232 E69.51401
G1 X80.714 Y42.643 E69.78485
G1 X75.383 Y41.335 E70.0587
G1 X72.819 Y40.822 E70.18916
G1 X67.405 Y39.974 E70.46256
G1 X62.013 Y39.438 E70.73289
G1 X56.568 Y39.207 E71.00479
G1 X-27.94 Y39.187 E75.22091
G1 X-28.504 Y39.147 E75.24912
G1 X-29.056 Y39.028 E75.27729
G1 X-29.587 Y38.832 E75.30553
G1 X-30.084 Y38.563 E75.33372
G1 X-30.539 Y38.227 E75.36194
G1 X-30.814 Y37.968 E75.38079
G1 X-34.182 Y34.485 E75.62251
G1 X-38.185 Y30.759 E75.89535
G1 X-42.342 Y27.307 E76.16492
G1 X-46.72 Y24.073 E76.43647
G1 X-51.247 Y21.109 E76.70643
G1 X-55.966 Y18.386 E76.97824
G1 X-60.806 Y15.948 E77.24862
G1 X-65.768 Y13.789 E77.51859
G1 X-70.887 Y11.9 E77.79081
G1 X-76.077 Y10.312 E78.06159
G1 X-81.395 Y9.007 E78.33478
G1 X-83.986 Y8.489 E78.4666
G1 X-89.387 Y7.643 E78.73935
G1 X-94.787 Y7.106 E79.01008
G1 X-97.459 Y6.955 E79.1436
G1 X-106.458 Y6.856 E79.59259
G1 X-107.021 Y6.81 E79.62077
G1 X-107.573 Y6.684 E79.64902
G1 X-108.101 Y6.483 E79.67721
G1 X-108.595 Y6.209 E79.70539
G1 X-109.046 Y5.868 E79.7336
G1 X-109.445 Y5.467 E79.76182
G1 X-109.782 Y5.013 E79.79003
G1 X-110.053 Y4.517 E79.81823
G1 X-110.251 Y3.987 E79.84645
G1 X-110.372 Y3.435 E79.87465
G1 X-110.414 Y2.856 E79.90361
G1 X-110.414 Y-2.79 E80.18529
G1 X-110.374 Y-3.354 E80.2135
G1 X-110.255 Y-3.907 E80.24172
G1 X-110.059 Y-4.437 E80.26991
G1 X-109.791 Y-4.934 E80.29808
G1 X-109.455 Y-5.389 E80.3263
G1 X-109.058 Y-5.792 E80.35452
G1 X-108.608 Y-6.134 E80.38272
G1 X-108.115 Y-6.41 E80.41091
G1 X-107.587 Y-6.614 E80.43915
G1 X-107.037 Y-6.741 E80.46731
G1 X-106.418 Y-6.79 E80.49829
G1 X-97.677 Y-6.799 E80.93438
G1 X-92.219 Y-6.953 E81.20679
G1 X-86.787 Y-7.415 E81.47877
G1 X-81.42 Y-8.18 E81.74924
G1 X-76.073 Y-9.252 E82.02131
G1 X-73.476 Y-9.889 E82.15471
G1 X-70.871 Y-10.605 E82.2895
G1 X-65.676 Y-12.276 E82.56176
G1 X-60.595 Y-14.233 E82.8334
G1 X-55.642 Y-16.471 E83.10456
G1 X-53.249 Y-17.676 E83.23823
G1 X-48.495 Y-20.33 E83.50986
G1 X-43.905 Y-23.243 E83.78108
G1 X-39.495 Y-26.408 E84.0519
G1 X-35.269 Y-29.818 E84.32281
G1 X-31.221 Y-33.478 E84.59508
G1 X-28.857 Y-35.813 E84.76085
G1 X-28.427 Y-36.181 E84.78909
G1 X-27.951 Y-36.484 E84.81724
G1 X-27.436 Y-36.718 E84.84546
G1 X-26.893 Y-36.876 E84.87367
G1 X-26.333 Y-36.957 E84.9019
G1 X-26.046 Y-36.967 E84.91623
G0 F3600 X-26.046 Y-36.567
G1 F1500 X56.905 Y-36.576 E89.05467
G1 X62.431 Y-36.732 E89.33047
G1 X67.854 Y-37.193 E89.60201
G1 X73.248 Y-37.962 E89.87383
G1 X78.637 Y-39.042 E90.14804
G1 X81.225 Y-39.678 E90.281
G1 X83.85 Y-40.399 E90.41681
G1 X89.069 Y-42.078 E90.69033
G1 X94.142 Y-44.031 E90.96153
G1 X100.127 Y-46.767 E91.28984
G1 X100.63 Y-46.953 E91.3166
G1 X101.156 Y-47.062 E91.3434
G1 X101.622 Y-47.093 E91.3667
G1 X106.613 Y-47.096 E91.6157
G1 X107.148 Y-47.056 E91.64246
G1 X107.671 Y-46.938 E91.66921
G1 X108.17 Y-46.743 E91.69594
G1 X108.635 Y-46.476 E91.72269
G1 X109.056 Y-46.142 E91.7495
G1 X109.422 Y-45.751 E91.77622
G1 X109.725 Y-45.309 E91.80296
G1 X109.96 Y-44.826 E91.82976
G1 X110.121 Y-44.315 E91.85649
G1 X110.203 Y-43.785 E91.88324
G1 X110.215 Y-43.496 E91.89767
G1 X110.214 Y-16.855 E93.2268
G1 X110.137 Y-16.112 E93.26406
G1 X109.152 Y-11.441 E93.50223
G1 X108.306 Y-6.064 E93.77379
G1 X107.765 Y-.644 E94.04554
G1 X107.531 Y4.811 E94.31794
G1 X107.606 Y10.271 E94.59036
G1 X107.99 Y15.734 E94.86359
G1 X108.308 Y18.607 E95.0078
G1 X108.33 Y19.003 E95.02758
G1 X108.331 Y45.651 E96.35706
G1 X108.291 Y46.186 E96.38382
G1 X108.172 Y46.709 E96.41058
G1 X107.977 Y47.208 E96.43731
G1 X107.71 Y47.673 E96.46406
G1 X107.376 Y48.093 E96.49083
G1 X106.984 Y48.459 E96.51759
G1 X106.542 Y48.762 E96.54433
G1 X106.06 Y48.997 E96.57108
G1 X105.548 Y49.157 E96.59784
G1 X105.018 Y49.24 E96.6246
G1 X104.73 Y49.251 E96.63898
G1 X99.746 Y49.25 E96.88764
G1 X99.211 Y49.21 E96.9144
G1 X98.689 Y49.091 E96.94111
G1 X98.229 Y48.914 E96.9657
G1 X93.658 Y46.788 E97.21721
G1 X91.194 Y45.756 E97.35049
G1 X86.04 Y43.855 E97.62455
G1 X80.817 Y42.256 E97.89707
G1 X75.488 Y40.949 E98.17081
G1 X72.894 Y40.43 E98.30279
G1 X67.452 Y39.576 E98.57762
G1 X62.051 Y39.04 E98.8484
G1 X56.561 Y38.807 E99.12254
G1 X-27.94 Y38.787 E103.33831
G1 X-28.475 Y38.747 E103.36508
G1 X-28.998 Y38.628 E103.39184
G1 X-29.497 Y38.432 E103.41859
G1 X-29.962 Y38.165 E103.44534
G1 X-30.527 Y37.69 E103.48216
G1 X-33.915 Y34.187 E103.7253
G1 X-37.903 Y30.475 E103.99711
G1 X-42.103 Y26.987 E104.26948
G1 X-46.489 Y23.748 E104.5415
G1 X-51.054 Y20.758 E104.81376
G1 X-55.765 Y18.04 E105.0851
G1 X-60.638 Y15.585 E105.35733
G1 X-65.633 Y13.411 E105.62911
G1 X-70.757 Y11.521 E105.90158
G1 X-75.965 Y9.927 E106.17331
G1 X-81.314 Y8.615 E106.44808
G1 X-83.893 Y8.099 E106.5793
G1 X-89.34 Y7.245 E106.85437
G1 X-94.773 Y6.706 E107.12675
G1 X-97.433 Y6.555 E107.25967
G1 X-106.454 Y6.456 E107.70976
G1 X-106.988 Y6.41 E107.7365
G1 X-107.509 Y6.285 E107.76323
G1 X-108.007 Y6.084 E107.79002
G1 X-108.469 Y5.812 E107.81677
G1 X-108.885 Y5.474 E107.84351
G1 X-109.247 Y5.078 E107.87028
G1 X-109.545 Y4.632 E107.89704
G1 X-109.774 Y4.148 E107.92375
G1 X-109.929 Y3.634 E107.95054
G1 X-110.014 Y2.856 E107.98958
G1 X-110.014 Y-2.79 E108.27126
G1 X-109.974 Y-3.325 E108.29803
G1 X-109.855 Y-3.848 E108.32479
G1 X-109.66 Y-4.347 E108.35152
G1 X-109.392 Y-4.812 E108.37829
G1 X-109.059 Y-5.232 E108.40503
G1 X-108.667 Y-5.598 E108.43179
G1 X-108.225 Y-5.901 E108.45853
G1 X-107.742 Y-6.136 E108.48532
G1 X-107.231 Y-6.296 E108.51204
G1 X-106.701 Y-6.379 E108.5388
G1 X-106.418 Y-6.39 E108.55293
G1 X-97.702 Y-6.399 E108.98777
G1 X-92.174 Y-6.555 E109.26368
G1 X-86.751 Y-7.016 E109.53521
