(1001)
(T1  D=3.175 CR=0. - ZMIN=23.357 - FLAT END MILL)
G0 G90 G94 G17
G21
G53 G0 Z0.

(ADAPTIVE5)
M5
M9
T1
S16500 M3
G4 P4.
G55
G0 X56.106 Y53.782
Z54.106
Z44.106
Z41.606
G3 X53.54 Y55.368 Z41.441 I-1.283 J0.793 F1016.
X56.106 Y53.782 Z41.275 I1.283 J-0.793
X53.54 Y55.368 Z41.11 I-1.283 J0.793
X56.106 Y53.782 Z40.944 I1.283 J-0.793
X53.54 Y55.368 Z40.779 I-1.283 J0.793
X56.106 Y53.782 Z40.613 I1.283 J-0.793
X53.54 Y55.368 Z40.448 I-1.283 J0.793
X56.106 Y53.782 Z40.282 I1.283 J-0.793
X53.54 Y55.368 Z40.117 I-1.283 J0.793
X56.106 Y53.782 Z39.952 I1.283 J-0.793
X53.54 Y55.368 Z39.786 I-1.283 J0.793
X56.106 Y53.782 Z39.621 I1.283 J-0.793
X53.54 Y55.368 Z39.455 I-1.283 J0.793
X56.106 Y53.782 Z39.29 I1.283 J-0.793
X53.54 Y55.368 Z39.124 I-1.283 J0.793
X56.106 Y53.782 Z38.959 I1.283 J-0.793
X53.54 Y55.368 Z38.793 I-1.283 J0.793
X56.106 Y53.782 Z38.628 I1.283 J-0.793
X53.54 Y55.368 Z38.463 I-1.283 J0.793
X56.106 Y53.782 Z38.297 I1.283 J-0.793
X53.54 Y55.368 Z38.132 I-1.283 J0.793
X56.106 Y53.782 Z37.966 I1.283 J-0.793
X53.54 Y55.368 Z37.801 I-1.283 J0.793
X56.106 Y53.782 Z37.635 I1.283 J-0.793
X56.331 Y54.575 Z37.606 I-1.283 J0.793
X53.315 I-1.508 J0.
X56.331 I1.508 J0.
G1 X56.351 Y55.312
X56.372 Y55.402
X56.388 Y55.551
X56.375 Y55.701
X56.34 Y55.846
X56.285 Y55.986
X56.213 Y56.118
X56.128 Y56.241
X56.029 Y56.354
X55.921 Y56.458
X55.803 Y56.551
X55.677 Y56.633
X55.545 Y56.704
X55.407 Y56.764
X55.26 Y56.814
X55.106 Y56.854
X54.946 Y56.881
X54.781 Y56.896
X54.612 Y56.898
X54.441 Y56.886
X54.27 Y56.859
X54.098 Y56.819
X53.929 Y56.764
X53.762 Y56.695
X53.601 Y56.613
X53.445 Y56.517
X53.296 Y56.408
X53.156 Y56.286
X53.025 Y56.153
X52.905 Y56.009
X52.796 Y55.856
X52.7 Y55.693
X52.617 Y55.523
X52.547 Y55.346
X52.492 Y55.164
X52.451 Y54.977
X52.425 Y54.787
X52.415 Y54.596
X52.42 Y54.404
X52.441 Y54.213
X52.477 Y54.024
X52.528 Y53.838
X52.593 Y53.657
X52.673 Y53.481
X52.768 Y53.312
X52.875 Y53.152
X52.995 Y53.
X53.127 Y52.859
X53.269 Y52.728
X53.422 Y52.609
X53.584 Y52.503
X53.754 Y52.411
X53.931 Y52.332
X54.114 Y52.267
X54.301 Y52.218
X54.492 Y52.183
X54.685 Y52.164
X54.878 Y52.161
X55.072 Y52.173
X55.264 Y52.201
X55.453 Y52.244
X55.638 Y52.302
X55.818 Y52.374
X55.991 Y52.461
X56.157 Y52.562
X56.314 Y52.675
X56.462 Y52.801
X56.599 Y52.938
X56.724 Y53.086
X56.838 Y53.243
X56.942 Y53.416
X57.053 Y53.638
X57.2 Y54.003
X57.308 Y54.346
X57.372 Y54.628
X57.408 Y54.884
X57.423 Y55.121
X57.419 Y55.344
X57.398 Y55.557
X57.36 Y55.765
X57.306 Y55.967
X57.237 Y56.164
X57.152 Y56.354
X57.052 Y56.537
X56.937 Y56.712
X56.807 Y56.879
X56.663 Y57.036
X56.505 Y57.183
X56.334 Y57.319
X56.149 Y57.441
X55.953 Y57.551
X55.745 Y57.646
X55.527 Y57.724
X55.3 Y57.786
X55.066 Y57.831
X54.826 Y57.856
X54.582 Y57.862
X54.336 Y57.849
X54.089 Y57.816
X53.843 Y57.762
X53.601 Y57.688
X53.363 Y57.594
X53.132 Y57.481
X52.909 Y57.348
X52.696 Y57.197
X52.495 Y57.029
X52.308 Y56.844
X52.134 Y56.644
X51.977 Y56.429
X51.837 Y56.202
X51.715 Y55.963
X51.613 Y55.715
X51.53 Y55.458
X51.468 Y55.195
X51.428 Y54.927
X51.409 Y54.657
X51.412 Y54.385
X51.436 Y54.114
X51.483 Y53.845
X51.551 Y53.581
X51.639 Y53.322
X51.749 Y53.072
X51.878 Y52.83
X52.027 Y52.6
X52.193 Y52.383
X52.377 Y52.179
X52.576 Y51.99
X52.79 Y51.818
X53.017 Y51.664
X53.256 Y51.529
X53.505 Y51.413
X53.763 Y51.317
X54.028 Y51.242
X54.297 Y51.189
X54.571 Y51.158
X54.846 Y51.148
X55.12 Y51.161
X55.393 Y51.196
X55.662 Y51.252
X55.926 Y51.33
X56.183 Y51.429
X56.431 Y51.548
X56.669 Y51.687
X56.895 Y51.845
X57.108 Y52.02
X57.315 Y52.22
X57.529 Y52.464
X57.731 Y52.735
X57.917 Y53.032
X58.082 Y53.348
X58.219 Y53.673
X58.327 Y53.999
X58.406 Y54.323
X58.457 Y54.643
X58.482 Y54.96
X58.481 Y55.272
X58.456 Y55.58
X58.406 Y55.881
X58.333 Y56.175
X58.238 Y56.46
X58.12 Y56.737
X57.98 Y57.002
X57.82 Y57.256
X57.639 Y57.496
X57.438 Y57.723
X57.218 Y57.934
X56.981 Y58.128
X56.727 Y58.303
X56.458 Y58.459
X56.174 Y58.594
X55.878 Y58.707
X55.571 Y58.796
X55.255 Y58.861
X54.933 Y58.901
X54.605 Y58.915
X54.276 Y58.902
X53.946 Y58.863
X53.618 Y58.797
X53.294 Y58.704
X52.977 Y58.585
X52.669 Y58.44
X52.371 Y58.27
X52.087 Y58.075
X51.818 Y57.857
X51.567 Y57.617
X51.334 Y57.357
X51.122 Y57.078
X50.933 Y56.781
X50.767 Y56.47
X50.627 Y56.145
X50.513 Y55.809
X50.426 Y55.464
X50.366 Y55.113
X50.336 Y54.757
X50.333 Y54.399
X50.36 Y54.042
X50.415 Y53.688
X50.499 Y53.339
X50.61 Y52.997
X50.749 Y52.665
X50.913 Y52.345
X51.104 Y52.039
X51.318 Y51.749
X51.555 Y51.477
X51.813 Y51.225
X52.091 Y50.994
X52.386 Y50.787
X52.697 Y50.603
X53.022 Y50.445
X53.359 Y50.314
X53.705 Y50.21
X54.059 Y50.134
X54.417 Y50.087
X54.778 Y50.069
X55.14 Y50.08
X55.5 Y50.12
X55.855 Y50.188
X56.203 Y50.285
X56.543 Y50.409
X56.872 Y50.561
X57.191 Y50.74
X57.503 Y50.95
X57.806 Y51.192
X58.098 Y51.465
X58.375 Y51.77
X58.631 Y52.101
X58.861 Y52.455
X59.062 Y52.826
X59.232 Y53.21
X59.369 Y53.603
X59.473 Y54.003
X59.545 Y54.406
X59.583 Y54.81
X59.589 Y55.212
X59.563 Y55.611
X59.505 Y56.003
X59.416 Y56.387
X59.297 Y56.762
X59.149 Y57.125
X58.973 Y57.475
X58.769 Y57.809
X58.538 Y58.127
X58.282 Y58.426
X58.001 Y58.704
X57.698 Y58.96
X57.374 Y59.192
X57.03 Y59.399
X56.669 Y59.578
X56.292 Y59.728
X55.902 Y59.849
X55.501 Y59.938
X55.092 Y59.996
X54.676 Y60.02
X54.258 Y60.011
X53.84 Y59.968
X53.424 Y59.892
X53.014 Y59.781
X52.611 Y59.638
X52.22 Y59.461
X51.842 Y59.253
X51.481 Y59.014
X51.139 Y58.746
X50.818 Y58.451
X50.521 Y58.129
X50.25 Y57.783
X50.006 Y57.416
X49.792 Y57.029
X49.61 Y56.625
X49.46 Y56.207
X49.344 Y55.778
X49.263 Y55.339
X49.217 Y54.895
X49.207 Y54.448
X49.233 Y54.001
X49.294 Y53.557
X49.392 Y53.119
X49.524 Y52.689
X49.69 Y52.271
X49.89 Y51.868
X50.121 Y51.481
X50.383 Y51.115
X50.674 Y50.77
X50.991 Y50.449
X51.334 Y50.155
X51.699 Y49.89
X52.084 Y49.654
X52.487 Y49.45
X52.905 Y49.279
X53.336 Y49.142
X53.776 Y49.04
X54.223 Y48.973
X54.675 Y48.943
X55.127 Y48.949
X55.577 Y48.992
X56.023 Y49.07
X56.461 Y49.184
X56.891 Y49.334
X57.312 Y49.519
X57.721 Y49.74
X58.117 Y49.997
X58.498 Y50.29
X58.861 Y50.619
X59.201 Y50.982
X59.515 Y51.375
X59.798 Y51.794
X60.046 Y52.235
X60.258 Y52.695
X60.432 Y53.169
X60.567 Y53.652
X60.662 Y54.143
X60.718 Y54.637
X60.733 Y55.131
X60.709 Y55.622
X60.645 Y56.108
X60.543 Y56.585
X60.404 Y57.051
X60.228 Y57.503
X60.017 Y57.939
X59.771 Y58.357
X59.492 Y58.755
X59.182 Y59.129
X58.841 Y59.478
X58.473 Y59.8
X58.079 Y60.092
X57.66 Y60.353
X57.22 Y60.581
X56.761 Y60.773
X56.286 Y60.928
X55.798 Y61.046
X55.299 Y61.124
X54.793 Y61.162
X54.284 Y61.159
X53.774 Y61.115
X53.266 Y61.031
X52.765 Y60.905
X52.274 Y60.738
X51.796 Y60.532
X51.334 Y60.287
X50.892 Y60.005
X50.472 Y59.688
X50.078 Y59.336
X49.712 Y58.953
X49.377 Y58.541
X49.076 Y58.102
X48.81 Y57.639
X48.582 Y57.155
X48.393 Y56.653
X48.244 Y56.137
X48.137 Y55.61
X48.073 Y55.075
X48.052 Y54.536
X48.074 Y53.996
X48.14 Y53.459
X48.248 Y52.929
X48.399 Y52.408
X48.592 Y51.901
X48.824 Y51.411
X49.096 Y50.941
X49.404 Y50.494
X49.747 Y50.072
X50.124 Y49.68
X50.53 Y49.319
X50.965 Y48.991
X51.425 Y48.699
X51.906 Y48.446
X52.407 Y48.231
X52.923 Y48.057
X53.452 Y47.926
X53.989 Y47.837
X54.532 Y47.792
X55.077 Y47.79
X55.621 Y47.832
X56.161 Y47.918
X56.693 Y48.047
X57.217 Y48.22
X57.729 Y48.435
X58.227 Y48.694
X58.709 Y48.995
X59.17 Y49.339
X59.608 Y49.723
X60.017 Y50.144
X60.393 Y50.6
X60.734 Y51.087
X61.034 Y51.601
X61.293 Y52.138
X61.508 Y52.693
X61.677 Y53.263
X61.799 Y53.842
X61.874 Y54.427
X61.902 Y55.015
X61.882 Y55.6
X61.816 Y56.18
X61.704 Y56.752
X61.547 Y57.312
X61.346 Y57.856
X61.101 Y58.382
X60.816 Y58.887
X60.49 Y59.368
X60.126 Y59.821
X59.727 Y60.245
X59.294 Y60.636
X58.829 Y60.992
X58.336 Y61.311
X57.817 Y61.59
X57.275 Y61.827
X56.714 Y62.021
X56.137 Y62.17
X55.547 Y62.272
X54.949 Y62.327
X54.346 Y62.334
X53.742 Y62.292
X53.141 Y62.202
X52.547 Y62.063
X51.964 Y61.876
X51.395 Y61.642
X50.846 Y61.362
X50.319 Y61.038
X49.818 Y60.672
X49.347 Y60.266
X48.91 Y59.822
X48.508 Y59.343
X48.145 Y58.833
X47.823 Y58.293
X47.545 Y57.729
X47.313 Y57.143
X47.129 Y56.539
X46.993 Y55.922
X46.907 Y55.294
X46.872 Y54.661
X46.888 Y54.027
X46.955 Y53.395
X47.072 Y52.77
X47.239 Y52.156
X47.455 Y51.557
X47.719 Y50.977
X48.028 Y50.419
X48.382 Y49.888
X48.777 Y49.387
X49.211 Y48.919
X49.682 Y48.487
X50.186 Y48.094
X50.72 Y47.743
X51.28 Y47.435
X51.864 Y47.174
X52.466 Y46.96
X53.085 Y46.795
X53.714 Y46.68
X54.351 Y46.617
X54.991 Y46.604
X55.631 Y46.643
X56.268 Y46.734
X56.897 Y46.875
X57.517 Y47.068
X58.123 Y47.312
X58.712 Y47.606
X59.281 Y47.949
X59.825 Y48.34
X60.339 Y48.776
X60.82 Y49.256
X61.264 Y49.776
X61.666 Y50.332
X62.024 Y50.92
X62.333 Y51.536
X62.592 Y52.175
X62.799 Y52.832
X62.952 Y53.501
X63.05 Y54.18
X63.094 Y54.862
X63.082 Y55.544
X63.016 Y56.221
X62.897 Y56.89
X62.724 Y57.545
X62.5 Y58.184
X62.225 Y58.803
X61.901 Y59.397
X61.531 Y59.964
X61.116 Y60.499
X60.658 Y61.001
X60.161 Y61.464
X59.627 Y61.888
X59.059 Y62.268
X58.461 Y62.602
X57.837 Y62.888
X57.189 Y63.124
X56.522 Y63.308
X55.841 Y63.438
X55.149 Y63.513
X54.45 Y63.532
X53.75 Y63.495
X53.053 Y63.402
X52.364 Y63.253
X51.686 Y63.048
X51.025 Y62.789
X50.386 Y62.476
X49.771 Y62.112
X49.186 Y61.699
X48.635 Y61.239
X48.122 Y60.736
X47.649 Y60.191
X47.221 Y59.609
X46.84 Y58.994
X46.509 Y58.349
X46.231 Y57.678
X46.007 Y56.986
X45.839 Y56.277
X45.728 Y55.556
X45.676 Y54.828
X45.682 Y54.098
X45.747 Y53.369
X45.87 Y52.647
X46.051 Y51.937
X46.288 Y51.244
X46.58 Y50.571
X46.926 Y49.924
X47.323 Y49.306
X47.768 Y48.721
X48.259 Y48.175
X48.792 Y47.669
X49.365 Y47.207
X49.972 Y46.793
X50.611 Y46.428
X51.278 Y46.116
X51.967 Y45.859
X52.675 Y45.658
X53.398 Y45.514
X54.129 Y45.428
X54.866 Y45.402
X55.603 Y45.435
X56.335 Y45.526
X57.057 Y45.677
X57.765 Y45.884
X58.455 Y46.146
X59.121 Y46.463
X59.761 Y46.83
X60.37 Y47.247
X60.946 Y47.709
X61.484 Y48.213
X61.982 Y48.758
X62.437 Y49.338
X62.847 Y49.951
X63.21 Y50.594
X63.524 Y51.261
X63.787 Y51.951
X63.997 Y52.658
X64.153 Y53.379
X64.254 Y54.11
X64.3 Y54.847
X64.288 Y55.584
X64.22 Y56.319
X64.096 Y57.046
X63.916 Y57.762
X63.682 Y58.462
X63.395 Y59.141
X63.058 Y59.797
X62.671 Y60.426
X62.237 Y61.022
X61.759 Y61.585
X61.24 Y62.109
X60.682 Y62.592
X60.089 Y63.031
X59.465 Y63.424
X58.813 Y63.769
X58.136 Y64.064
X57.44 Y64.307
X56.727 Y64.497
X56.002 Y64.634
X55.268 Y64.714
X54.531 Y64.739
X53.794 Y64.708
X53.061 Y64.623
X52.336 Y64.484
X51.624 Y64.293
X50.927 Y64.049
X50.25 Y63.756
X49.596 Y63.414
X48.969 Y63.026
X48.371 Y62.594
X47.807 Y62.118
X47.279 Y61.602
X46.791 Y61.049
X46.345 Y60.461
X45.942 Y59.843
X45.584 Y59.198
X45.274 Y58.529
X45.011 Y57.839
X44.798 Y57.133
X44.636 Y56.413
X44.526 Y55.684
X44.471 Y54.948
X44.47 Y54.21
X44.521 Y53.474
X44.625 Y52.743
X44.779 Y52.022
X44.984 Y51.313
X45.239 Y50.621
X45.541 Y49.948
X45.891 Y49.298
X46.289 Y48.677
X46.73 Y48.085
X47.212 Y47.527
X47.732 Y47.004
X48.288 Y46.519
X48.877 Y46.074
X49.495 Y45.671
X50.14 Y45.312
X50.809 Y45.002
X51.5 Y44.742
X52.207 Y44.531
X52.927 Y44.372
X53.657 Y44.264
X54.393 Y44.207
X55.13 Y44.201
X55.867 Y44.247
X56.598 Y44.345
X57.32 Y44.496
X58.03 Y44.699
X58.723 Y44.951
X59.397 Y45.251
X60.049 Y45.597
X60.676 Y45.986
X61.275 Y46.417
X61.843 Y46.888
X62.378 Y47.395
X62.876 Y47.94
X63.336 Y48.517
X63.755 Y49.124
X64.133 Y49.757
X64.469 Y50.415
X64.76 Y51.093
X65.005 Y51.789
X65.204 Y52.499
X65.356 Y53.221
X65.456 Y53.952
X65.506 Y54.688
X65.505 Y55.426
X65.454 Y56.162
X65.353 Y56.893
X65.204 Y57.615
X65.007 Y58.326
X64.762 Y59.023
X64.471 Y59.701
X64.133 Y60.356
X63.75 Y60.987
X63.325 Y61.59
X62.861 Y62.163
X62.359 Y62.704
X61.822 Y63.21
X61.253 Y63.679
X60.653 Y64.11
X60.026 Y64.499
X59.374 Y64.844
X58.7 Y65.143
X58.007 Y65.396
X57.298 Y65.602
X56.578 Y65.761
X55.848 Y65.872
X55.113 Y65.934
X54.375 Y65.948
X53.639 Y65.912
X52.906 Y65.827
X52.18 Y65.692
X51.465 Y65.509
X50.764 Y65.281
X50.079 Y65.007
X49.412 Y64.69
X48.768 Y64.331
X48.147 Y63.932
X47.554 Y63.494
X46.991 Y63.017
X46.462 Y62.502
X45.968 Y61.954
X45.511 Y61.375
X45.092 Y60.768
X44.712 Y60.135
X44.373 Y59.48
X44.077 Y58.804
X43.823 Y58.112
X43.613 Y57.404
X43.451 Y56.684
X43.338 Y55.955
X43.272 Y55.22
X43.254 Y54.483
X43.282 Y53.746
X43.357 Y53.012
X43.478 Y52.284
X43.645 Y51.565
X43.855 Y50.858
X44.111 Y50.166
X44.412 Y49.492
X44.757 Y48.84
X45.142 Y48.211
X45.568 Y47.608
X46.03 Y47.033
X46.528 Y46.488
X47.059 Y45.976
X47.621 Y45.498
X48.211 Y45.055
X48.829 Y44.653
X49.473 Y44.291
X50.138 Y43.972
X50.822 Y43.697
X51.523 Y43.465
X52.237 Y43.278
X52.961 Y43.137
X53.692 Y43.04
X54.428 Y42.989
X55.166 Y42.986
X55.903 Y43.03
X56.635 Y43.122
X57.359 Y43.261
X58.074 Y43.445
X58.775 Y43.674
X59.461 Y43.947
X60.128 Y44.261
X60.776 Y44.615
X61.4 Y45.007
X61.999 Y45.439
X62.57 Y45.906
X63.11 Y46.409
X63.618 Y46.944
X64.092 Y47.509
X64.531 Y48.102
X64.935 Y48.72
X65.3 Y49.361
X65.627 Y50.022
X65.915 Y50.702
X66.16 Y51.398
X66.362 Y52.107
X66.52 Y52.828
X66.633 Y53.557
X66.701 Y54.292
X66.724 Y55.029
X66.703 Y55.767
X66.638 Y56.502
X66.528 Y57.231
X66.375 Y57.953
X66.177 Y58.664
X65.936 Y59.361
X65.652 Y60.042
X65.326 Y60.704
X64.96 Y61.344
X64.555 Y61.961
X64.114 Y62.553
X63.639 Y63.117
X63.131 Y63.652
X62.591 Y64.156
X62.022 Y64.625
X61.425 Y65.058
X60.802 Y65.453
X60.156 Y65.81
X59.489 Y66.127
X58.805 Y66.403
X58.106 Y66.638
X57.394 Y66.83
X56.671 Y66.981
X55.941 Y67.088
X55.206 Y67.15
X54.468 Y67.166
X53.731 Y67.138
X52.997 Y67.066
X52.268 Y66.949
X51.548 Y66.79
X50.838 Y66.589
X50.141 Y66.346
X49.459 Y66.064
X48.795 Y65.744
X48.151 Y65.384
X47.529 Y64.987
X46.932 Y64.553
X46.362 Y64.084
X45.822 Y63.582
X45.312 Y63.049
X44.834 Y62.487
X44.389 Y61.898
X43.978 Y61.285
X43.604 Y60.65
X43.266 Y59.994
X42.968 Y59.319
X42.71 Y58.628
X42.492 Y57.923
X42.317 Y57.206
X42.184 Y56.48
X42.093 Y55.748
X42.045 Y55.012
X42.04 Y54.274
X42.076 Y53.537
X42.154 Y52.803
X42.275 Y52.075
X42.438 Y51.356
X42.642 Y50.647
X42.888 Y49.951
X43.173 Y49.271
X43.498 Y48.608
X43.86 Y47.965
X44.259 Y47.345
X44.692 Y46.748
X45.159 Y46.176
X45.658 Y45.632
X46.187 Y45.119
X46.746 Y44.636
X47.331 Y44.187
X47.941 Y43.773
X48.575 Y43.394
X49.229 Y43.053
X49.902 Y42.751
X50.591 Y42.487
X51.294 Y42.263
X52.008 Y42.079
X52.732 Y41.937
X53.463 Y41.837
X54.199 Y41.779
X54.937 Y41.764
X55.674 Y41.792
X56.408 Y41.862
X57.138 Y41.974
X57.859 Y42.128
X58.571 Y42.323
X59.271 Y42.557
X59.956 Y42.83
X60.624 Y43.142
X61.274 Y43.492
X61.903 Y43.878
X62.509 Y44.298
X63.091 Y44.752
X63.647 Y45.238
X64.174 Y45.754
X64.672 Y46.298
X65.14 Y46.869
X65.576 Y47.464
X65.978 Y48.082
X66.346 Y48.722
X66.677 Y49.381
X66.972 Y50.058
X67.23 Y50.749
X67.448 Y51.454
X67.628 Y52.169
X67.768 Y52.894
X67.867 Y53.625
X67.927 Y54.36
X67.946 Y55.098
X67.924 Y55.835
X67.86 Y56.57
X67.756 Y57.301
X67.612 Y58.024
X67.427 Y58.739
X67.203 Y59.441
X66.94 Y60.131
X66.639 Y60.805
X66.302 Y61.461
X65.928 Y62.097
X65.521 Y62.712
X65.08 Y63.304
X64.606 Y63.869
X64.102 Y64.408
X63.569 Y64.918
X63.008 Y65.398
X62.422 Y65.846
X61.812 Y66.261
X61.18 Y66.642
X60.528 Y66.987
X59.859 Y67.297
X59.173 Y67.57
X58.474 Y67.804
X57.762 Y67.999
X57.041 Y68.155
X56.312 Y68.271
X55.578 Y68.347
X54.841 Y68.382
X54.104 Y68.377
X53.367 Y68.332
X52.634 Y68.247
X51.907 Y68.123
X51.187 Y67.96
X50.478 Y67.758
X49.78 Y67.518
X49.096 Y67.241
X48.428 Y66.928
X47.778 Y66.58
X47.147 Y66.197
X46.538 Y65.781
X45.952 Y65.332
X45.391 Y64.853
X44.856 Y64.344
X44.35 Y63.808
X43.872 Y63.245
X43.426 Y62.658
X43.012 Y62.047
X42.631 Y61.415
X42.284 Y60.764
X41.971 Y60.096
X41.694 Y59.412
X41.454 Y58.714
X41.251 Y58.005
X41.086 Y57.286
X40.96 Y56.559
X40.871 Y55.827
X40.823 Y55.09
X40.814 Y54.353
X40.844 Y53.615
X40.912 Y52.881
X41.019 Y52.151
X41.165 Y51.427
X41.348 Y50.713
X41.568 Y50.008
X41.825 Y49.317
X42.118 Y48.64
X42.446 Y47.979
X42.809 Y47.337
X43.206 Y46.715
X43.636 Y46.115
X44.096 Y45.538
X44.586 Y44.986
X45.104 Y44.461
X45.649 Y43.964
X46.219 Y43.495
X46.813 Y43.058
X47.429 Y42.652
X48.066 Y42.278
X48.721 Y41.939
X49.393 Y41.636
X50.081 Y41.369
X50.782 Y41.138
X51.494 Y40.944
X52.215 Y40.788
X52.943 Y40.67
X53.677 Y40.59
X54.413 Y40.549
X55.151 Y40.546
X55.888 Y40.582
X56.622 Y40.656
X57.351 Y40.768
X58.073 Y40.92
X58.787 Y41.109
X59.489 Y41.336
X60.178 Y41.598
X60.854 Y41.895
X61.513 Y42.227
X62.154 Y42.593
X62.775 Y42.99
X63.376 Y43.419
X63.954 Y43.877
X64.507 Y44.365
X65.035 Y44.88
X65.536 Y45.423
X66.008 Y45.99
X66.451 Y46.58
X66.864 Y47.191
X67.245 Y47.823
X67.594 Y48.473
X67.911 Y49.139
X68.194 Y49.821
X68.442 Y50.515
X68.655 Y51.222
X68.833 Y51.938
X68.973 Y52.662
X69.075 Y53.393
X69.141 Y54.128
X69.169 Y54.865
X69.159 Y55.603
X69.113 Y56.339
X69.029 Y57.072
X68.908 Y57.8
X68.751 Y58.521
X68.557 Y59.233
X68.328 Y59.934
X68.063 Y60.623
X67.763 Y61.297
X67.428 Y61.954
X67.061 Y62.594
X66.661 Y63.215
X66.231 Y63.814
X65.771 Y64.391
X65.282 Y64.943
X64.767 Y65.471
X64.225 Y65.972
X63.659 Y66.445
X63.07 Y66.889
X62.459 Y67.303
X61.827 Y67.685
X61.177 Y68.034
X60.51 Y68.349
X59.828 Y68.631
X59.133 Y68.878
X58.427 Y69.09
X57.71 Y69.267
X56.986 Y69.407
X56.255 Y69.511
X55.521 Y69.578
X54.783 Y69.609
X54.046 Y69.603
X53.309 Y69.559
X52.576 Y69.477
X51.847 Y69.36
X51.126 Y69.206
X50.413 Y69.017
X49.71 Y68.793
X49.018 Y68.535
X48.341 Y68.244
X47.678 Y67.92
X47.032 Y67.563
X46.404 Y67.176
X45.796 Y66.758
X45.209 Y66.31
X44.646 Y65.833
X44.108 Y65.329
X43.595 Y64.799
X43.108 Y64.244
X42.649 Y63.667
X42.219 Y63.067
X41.819 Y62.447
X41.448 Y61.809
X41.109 Y61.154
X40.802 Y60.483
X40.528 Y59.798
X40.288 Y59.1
X40.083 Y58.392
X39.913 Y57.674
X39.779 Y56.948
X39.68 Y56.217
X39.617 Y55.482
X39.589 Y54.745
X39.598 Y54.007
X39.642 Y53.27
X39.721 Y52.537
X39.835 Y51.808
X39.984 Y51.085
X40.168 Y50.371
X40.387 Y49.666
X40.641 Y48.973
X40.928 Y48.294
X41.247 Y47.628
X41.599 Y46.98
X41.981 Y46.349
X42.394 Y45.737
X42.836 Y45.146
X43.305 Y44.577
X43.802 Y44.031
X44.324 Y43.51
X44.87 Y43.014
X45.44 Y42.545
X46.032 Y42.105
X46.645 Y41.695
X47.277 Y41.314
X47.927 Y40.965
X48.593 Y40.648
X49.274 Y40.363
X49.968 Y40.112
X50.673 Y39.894
X51.387 Y39.71
X52.11 Y39.561
X52.838 Y39.446
X53.572 Y39.366
X54.309 Y39.323
X55.046 Y39.316
X55.784 Y39.345
X56.519 Y39.409
X57.25 Y39.508
X57.975 Y39.643
X58.693 Y39.813
X59.402 Y40.016
X60.101 Y40.253
X60.788 Y40.523
X61.461 Y40.825
X62.119 Y41.158
X62.761 Y41.523
X63.384 Y41.918
X63.987 Y42.343
X64.57 Y42.795
X65.131 Y43.274
X65.669 Y43.779
X66.182 Y44.309
X66.67 Y44.862
X67.132 Y45.438
X67.567 Y46.034
X67.974 Y46.649
X68.352 Y47.283
X68.7 Y47.934
X69.017 Y48.6
X69.303 Y49.28
X69.556 Y49.973
X69.777 Y50.677
X69.965 Y51.39
X70.12 Y52.112
X70.24 Y52.84
X70.327 Y53.572
X70.379 Y54.308
X70.397 Y55.046
X70.38 Y55.784
X70.33 Y56.52
X70.245 Y57.253
X70.125 Y57.981
X69.971 Y58.702
X69.784 Y59.416
X69.563 Y60.12
X69.309 Y60.813
X69.023 Y61.493
X68.705 Y62.158
X68.357 Y62.809
X67.978 Y63.442
X67.571 Y64.057
X67.135 Y64.653
X66.673 Y65.228
X66.184 Y65.78
X65.669 Y66.309
X65.13 Y66.813
X64.568 Y67.291
X63.984 Y67.742
X63.38 Y68.166
X62.757 Y68.561
X62.116 Y68.926
X61.459 Y69.262
X60.787 Y69.567
X60.102 Y69.84
X59.405 Y70.081
X58.697 Y70.291
X57.981 Y70.467
X57.257 Y70.609
X56.527 Y70.717
X55.793 Y70.791
X55.056 Y70.831
X54.318 Y70.837
X53.581 Y70.808
X52.846 Y70.746
X52.114 Y70.65
X51.388 Y70.521
X50.668 Y70.358
X49.956 Y70.164
X49.254 Y69.937
X48.563 Y69.679
X47.885 Y69.389
X47.22 Y69.068
X46.571 Y68.717
X45.939 Y68.337
X45.324 Y67.929
X44.729 Y67.493
X44.154 Y67.03
X43.601 Y66.542
X43.071 Y66.029
X42.565 Y65.492
X42.083 Y64.933
X41.627 Y64.353
X41.197 Y63.753
X40.796 Y63.134
X40.423 Y62.498
X40.079 Y61.845
X39.764 Y61.178
X39.48 Y60.497
X39.227 Y59.804
X39.006 Y59.1
X38.816 Y58.387
X38.659 Y57.666
X38.535 Y56.939
X38.443 Y56.207
X38.384 Y55.471
X38.358 Y54.734
X38.366 Y53.996
X38.407 Y53.259
X38.482 Y52.525
X38.589 Y51.795
X38.728 Y51.071
X38.9 Y50.353
X39.104 Y49.644
X39.339 Y48.945
X39.606 Y48.257
X39.903 Y47.582
X40.23 Y46.92
X40.587 Y46.274
X40.971 Y45.645
X41.384 Y45.033
X41.824 Y44.441
X42.291 Y43.869
X42.782 Y43.319
X43.298 Y42.791
X43.836 Y42.287
X44.397 Y41.807
X44.978 Y41.353
X45.58 Y40.926
X46.2 Y40.525
X46.837 Y40.153
X47.49 Y39.81
X48.157 Y39.496
X48.838 Y39.212
X49.531 Y38.959
X50.235 Y38.738
X50.949 Y38.549
X51.67 Y38.392
X52.397 Y38.267
X53.129 Y38.174
X53.864 Y38.115
X54.601 Y38.088
X55.339 Y38.095
X56.076 Y38.134
X56.81 Y38.205
X57.541 Y38.31
X58.266 Y38.446
X58.984 Y38.615
X59.694 Y38.817
X60.394 Y39.05
X61.083 Y39.313
X61.76 Y39.607
X62.423 Y39.93
X63.072 Y40.282
X63.704 Y40.662
X64.319 Y41.069
X64.916 Y41.503
X65.493 Y41.962
X66.05 Y42.446
X66.585 Y42.954
X67.098 Y43.485
X67.587 Y44.037
X68.051 Y44.611
X68.49 Y45.204
X68.903 Y45.816
X69.289 Y46.444
X69.648 Y47.089
X69.978 Y47.749
X70.28 Y48.422
X70.553 Y49.107
X70.796 Y49.804
X71.009 Y50.511
X71.191 Y51.226
X71.342 Y51.948
X71.462 Y52.676
X71.549 Y53.408
X71.604 Y54.144
X71.627 Y54.882
X71.619 Y55.619
X71.578 Y56.356
X71.506 Y57.09
X71.402 Y57.821
X71.266 Y58.546
X71.098 Y59.264
X70.9 Y59.975
X70.672 Y60.677
X70.413 Y61.368
X70.124 Y62.047
X69.806 Y62.712
X69.459 Y63.363
X69.083 Y63.998
X68.681 Y64.617
X68.252 Y65.217
X67.798 Y65.798
X67.318 Y66.36
X66.815 Y66.899
X66.29 Y67.417
X65.742 Y67.911
X65.173 Y68.381
X64.585 Y68.827
X63.978 Y69.246
X63.354 Y69.64
X62.713 Y70.005
X62.057 Y70.342
X61.386 Y70.65
X60.703 Y70.929
X60.009 Y71.179
X59.304 Y71.398
X58.591 Y71.587
X57.871 Y71.745
X57.144 Y71.872
X56.412 Y71.968
X55.677 Y72.032
X54.94 Y72.065
X54.202 Y72.066
X53.465 Y72.036
X52.73 Y71.974
X51.998 Y71.88
X51.271 Y71.754
X50.55 Y71.598
X49.836 Y71.411
X49.131 Y71.195
X48.435 Y70.949
X47.75 Y70.674
X47.078 Y70.37
X46.419 Y70.038
X45.775 Y69.678
X45.146 Y69.292
X44.535 Y68.88
X43.941 Y68.442
X43.366 Y67.979
X42.812 Y67.492
X42.28 Y66.981
X41.769 Y66.448
X41.281 Y65.895
X40.817 Y65.322
X40.377 Y64.729
X39.963 Y64.119
X39.574 Y63.491
X39.212 Y62.849
X38.877 Y62.191
X38.57 Y61.52
X38.291 Y60.837
X38.041 Y60.143
X37.82 Y59.439
X37.629 Y58.726
X37.469 Y58.006
X37.34 Y57.28
X37.241 Y56.549
X37.172 Y55.814
X37.134 Y55.077
X37.127 Y54.339
X37.151 Y53.602
X37.206 Y52.866
X37.291 Y52.133
X37.407 Y51.405
X37.552 Y50.681
X37.728 Y49.965
X37.933 Y49.256
X38.167 Y48.556
X38.432 Y47.868
X38.725 Y47.191
X39.046 Y46.526
X39.395 Y45.876
X39.77 Y45.241
X40.172 Y44.622
X40.599 Y44.02
X41.05 Y43.437
X41.526 Y42.873
X42.024 Y42.328
X42.545 Y41.805
X43.086 Y41.304
X43.648 Y40.826
X44.23 Y40.372
X44.83 Y39.943
X45.448 Y39.54
X46.082 Y39.163
X46.731 Y38.812
X47.394 Y38.489
X48.07 Y38.194
X48.758 Y37.927
X49.457 Y37.689
X50.164 Y37.48
X50.88 Y37.301
X51.603 Y37.151
X52.331 Y37.031
X53.063 Y36.942
X53.798 Y36.883
X54.536 Y36.855
X55.274 Y36.858
X56.011 Y36.893
X56.746 Y36.957
X57.477 Y37.052
X58.204 Y37.178
X58.926 Y37.333
X59.64 Y37.518
X60.346 Y37.732
X61.042 Y37.976
X61.728 Y38.247
X62.403 Y38.546
X63.064 Y38.873
X63.712 Y39.226
X64.345 Y39.606
X64.961 Y40.012
X65.56 Y40.443
X66.141 Y40.897
X66.703 Y41.375
X67.245 Y41.876
X67.767 Y42.398
X68.267 Y42.94
X68.744 Y43.503
X69.198 Y44.084
X69.629 Y44.683
X70.035 Y45.299
X70.417 Y45.931
X70.773 Y46.577
X71.103 Y47.237
X71.405 Y47.91
X71.68 Y48.595
X71.926 Y49.29
X72.145 Y49.995
X72.335 Y50.708
X72.496 Y51.428
X72.629 Y52.153
X72.731 Y52.884
X72.804 Y53.618
X72.847 Y54.355
X72.861 Y55.093
X72.844 Y55.83
X72.799 Y56.567
X72.723 Y57.301
X72.618 Y58.031
X72.484 Y58.756
X72.319 Y59.475
X72.125 Y60.187
X71.902 Y60.891
X71.652 Y61.585
X71.373 Y62.268
X71.067 Y62.939
X70.734 Y63.598
X70.375 Y64.242
X69.989 Y64.871
X69.579 Y65.484
X69.145 Y66.081
X68.687 Y66.659
X68.206 Y67.219
X67.703 Y67.758
X67.178 Y68.277
X66.632 Y68.773
X66.067 Y69.247
X65.483 Y69.698
X64.881 Y70.126
X64.263 Y70.528
X63.629 Y70.906
X62.98 Y71.257
X62.318 Y71.582
X61.643 Y71.88
X60.957 Y72.151
X60.26 Y72.395
X59.554 Y72.61
X58.841 Y72.797
X58.12 Y72.955
X57.394 Y73.084
X56.662 Y73.183
X55.928 Y73.252
X55.191 Y73.292
X54.453 Y73.303
X53.716 Y73.284
X52.98 Y73.235
X52.246 Y73.158
X51.516 Y73.051
X50.791 Y72.915
X50.071 Y72.751
X49.359 Y72.558
X48.655 Y72.338
X47.96 Y72.09
X47.275 Y71.815
X46.602 Y71.512
X45.942 Y71.183
X45.295 Y70.828
X44.663 Y70.448
X44.046 Y70.043
X43.446 Y69.614
X42.863 Y69.162
X42.299 Y68.686
X41.753 Y68.189
X41.228 Y67.671
X40.724 Y67.133
X40.241 Y66.575
X39.78 Y65.999
X39.342 Y65.405
X38.928 Y64.794
X38.538 Y64.168
X38.173 Y63.526
X37.834 Y62.871
X37.521 Y62.203
X37.234 Y61.523
X36.974 Y60.833
X36.741 Y60.133
X36.536 Y59.424
X36.358 Y58.708
X36.21 Y57.985
X36.089 Y57.258
X35.997 Y56.525
X35.933 Y55.79
X35.898 Y55.053
X35.892 Y54.316
X35.915 Y53.578
X35.967 Y52.842
X36.048 Y52.109
X36.157 Y51.379
X36.295 Y50.654
X36.46 Y49.935
X36.654 Y49.223
X36.875 Y48.519
X37.124 Y47.825
X37.399 Y47.14
X37.701 Y46.467
X38.029 Y45.806
X38.383 Y45.159
X38.761 Y44.525
X39.163 Y43.907
X39.59 Y43.305
X40.04 Y42.72
X40.513 Y42.154
X41.007 Y41.606
X41.522 Y41.078
X42.057 Y40.57
X42.612 Y40.083
X43.185 Y39.618
X43.776 Y39.176
X44.383 Y38.758
X45.007 Y38.363
X45.645 Y37.993
X46.297 Y37.648
X46.962 Y37.329
X47.639 Y37.035
X48.327 Y36.768
X49.025 Y36.529
X49.732 Y36.317
X50.446 Y36.133
X51.167 Y35.977
X51.894 Y35.848
X52.625 Y35.748
X53.359 Y35.677
X54.096 Y35.634
X54.833 Y35.62
X55.571 Y35.634
X56.308 Y35.677
X57.042 Y35.749
X57.773 Y35.849
X58.5 Y35.976
X59.221 Y36.132
X59.935 Y36.317
X60.642 Y36.529
X61.34 Y36.768
X62.028 Y37.034
X62.706 Y37.326
X63.372 Y37.644
X64.025 Y37.987
X64.665 Y38.354
X65.29 Y38.746
X65.899 Y39.162
X66.492 Y39.601
X67.068 Y40.062
X67.627 Y40.544
X68.166 Y41.047
X68.687 Y41.571
X69.187 Y42.113
X69.665 Y42.675
X70.122 Y43.254
X70.556 Y43.851
X70.968 Y44.463
X71.356 Y45.09
X71.721 Y45.731
X72.062 Y46.386
X72.377 Y47.053
X72.667 Y47.731
X72.931 Y48.42
X73.169 Y49.119
X73.381 Y49.826
X73.566 Y50.54
X73.724 Y51.26
X73.854 Y51.987
X73.957 Y52.717
X74.032 Y53.451
X74.078 Y54.188
X74.097 Y54.925
X74.087 Y55.663
X74.05 Y56.4
X73.985 Y57.135
X73.893 Y57.867
X73.773 Y58.595
X73.625 Y59.318
X73.449 Y60.034
X73.247 Y60.744
X73.018 Y61.445
X72.763 Y62.137
X72.481 Y62.82
X72.175 Y63.491
X71.842 Y64.149
X71.484 Y64.795
X71.102 Y65.426
X70.697 Y66.042
X70.268 Y66.643
X69.817 Y67.227
X69.345 Y67.793
X68.852 Y68.342
X68.338 Y68.871
X67.804 Y69.381
X67.251 Y69.869
X66.681 Y70.337
X66.093 Y70.783
X65.489 Y71.207
X64.869 Y71.607
X64.235 Y71.984
X63.587 Y72.337
X62.925 Y72.664
X62.252 Y72.966
X61.568 Y73.242
X60.874 Y73.493
X60.171 Y73.717
X59.46 Y73.915
X58.743 Y74.086
X58.019 Y74.23
X57.29 Y74.347
X56.558 Y74.436
X55.823 Y74.497
X55.086 Y74.531
X54.348 Y74.538
X53.61 Y74.517
X52.874 Y74.468
X52.14 Y74.392
X51.41 Y74.287
X50.684 Y74.156
X49.963 Y73.997
X49.249 Y73.812
X48.542 Y73.601
X47.844 Y73.364
X47.154 Y73.101
X46.475 Y72.813
X45.807 Y72.499
X45.151 Y72.161
X44.508 Y71.799
X43.879 Y71.414
X43.265 Y71.006
X42.666 Y70.575
X42.083 Y70.122
X41.518 Y69.648
X40.971 Y69.153
X40.443 Y68.637
X39.934 Y68.103
X39.446 Y67.55
X38.978 Y66.98
X38.531 Y66.393
X38.106 Y65.79
X37.703 Y65.171
X37.324 Y64.538
X36.968 Y63.892
X36.636 Y63.233
X36.329 Y62.562
X36.046 Y61.881
X35.788 Y61.19
X35.555 Y60.49
X35.349 Y59.781
X35.17 Y59.065
X35.018 Y58.343
X34.892 Y57.616
X34.793 Y56.885
X34.72 Y56.151
X34.674 Y55.415
X34.656 Y54.677
X34.664 Y53.939
X34.7 Y53.202
X34.762 Y52.467
X34.851 Y51.735
X34.967 Y51.006
X35.11 Y50.282
X35.278 Y49.564
X35.473 Y48.852
X35.693 Y48.148
X35.941 Y47.453
X36.213 Y46.767
X36.511 Y46.092
X36.833 Y45.428
X37.179 Y44.777
X37.548 Y44.138
X37.941 Y43.513
X38.356 Y42.903
X38.793 Y42.309
X39.252 Y41.731
X39.731 Y41.171
X40.231 Y40.628
X40.75 Y40.103
X41.288 Y39.598
X41.843 Y39.112
X42.416 Y38.648
X43.006 Y38.205
X43.612 Y37.784
X44.233 Y37.386
X44.869 Y37.01
X45.517 Y36.658
X46.178 Y36.33
X46.85 Y36.026
X47.533 Y35.747
X48.226 Y35.493
X48.928 Y35.265
X49.637 Y35.062
X50.353 Y34.886
X51.076 Y34.735
X51.803 Y34.611
X52.534 Y34.513
X53.269 Y34.442
X54.005 Y34.398
X54.743 Y34.382
X55.48 Y34.392
X56.217 Y34.43
X56.952 Y34.494
X57.685 Y34.585
X58.413 Y34.702
X59.137 Y34.846
X59.855 Y35.016
X60.566 Y35.212
X61.27 Y35.434
X61.965 Y35.681
X62.651 Y35.953
X63.326 Y36.249
X63.991 Y36.57
X64.644 Y36.914
X65.284 Y37.281
X65.909 Y37.672
X66.521 Y38.085
X67.117 Y38.52
X67.697 Y38.976
X68.26 Y39.452
X68.806 Y39.948
X69.335 Y40.463
X69.844 Y40.997
X70.334 Y41.549
X70.804 Y42.118
X71.253 Y42.703
X71.682 Y43.303
X72.089 Y43.919
X72.474 Y44.548
X72.837 Y45.19
X73.177 Y45.845
X73.493 Y46.512
X73.785 Y47.19
X74.052 Y47.877
X74.294 Y48.574
X74.512 Y49.279
X74.705 Y49.991
X74.873 Y50.71
X75.015 Y51.434
X75.131 Y52.162
X75.221 Y52.895
X75.285 Y53.63
X75.322 Y54.367
X75.334 Y55.104
X75.319 Y55.842
X75.279 Y56.579
X75.212 Y57.314
X75.119 Y58.045
X75. Y58.774
X74.854 Y59.497
X74.682 Y60.214
X74.485 Y60.925
X74.263 Y61.629
X74.016 Y62.324
X73.744 Y63.01
X73.449 Y63.686
X73.129 Y64.351
X72.785 Y65.004
X72.419 Y65.644
X72.03 Y66.271
X71.619 Y66.884
X71.186 Y67.482
X70.733 Y68.064
X70.259 Y68.63
X69.766 Y69.178
X69.253 Y69.709
X68.721 Y70.22
X68.171 Y70.712
X67.604 Y71.184
X67.021 Y71.636
X66.422 Y72.067
X65.809 Y72.477
X65.181 Y72.865
X64.54 Y73.23
X63.886 Y73.571
X63.22 Y73.89
X62.544 Y74.185
X61.858 Y74.455
X61.162 Y74.702
X60.459 Y74.924
X59.748 Y75.121
X59.03 Y75.292
X58.307 Y75.438
X57.579 Y75.557
X56.847 Y75.651
X56.112 Y75.718
X55.375 Y75.76
X54.638 Y75.776
X53.9 Y75.766
X53.163 Y75.73
X52.428 Y75.668
X51.695 Y75.581
X50.966 Y75.467
X50.242 Y75.328
X49.522 Y75.164
X48.809 Y74.975
X48.103 Y74.761
X47.404 Y74.523
X46.715 Y74.261
X46.035 Y73.974
X45.366 Y73.663
X44.708 Y73.329
X44.062 Y72.973
X43.429 Y72.594
X42.809 Y72.193
X42.204 Y71.772
X41.614 Y71.329
X41.039 Y70.866
X40.482 Y70.383
X39.941 Y69.88
X39.418 Y69.36
X38.914 Y68.821
X38.429 Y68.266
X37.963 Y67.694
X37.516 Y67.106
X37.091 Y66.503
X36.688 Y65.885
X36.306 Y65.254
X35.946 Y64.61
X35.609 Y63.953
X35.295 Y63.286
X35.003 Y62.608
X34.736 Y61.921
X34.492 Y61.224
X34.272 Y60.52
X34.078 Y59.808
X33.908 Y59.09
X33.763 Y58.367
X33.643 Y57.639
X33.548 Y56.907
X33.479 Y56.172
X33.434 Y55.436
X33.416 Y54.698
X33.423 Y53.961
X33.456 Y53.224
X33.514 Y52.488
X33.598 Y51.755
X33.707 Y51.025
X33.841 Y50.3
X34. Y49.579
X34.183 Y48.864
X34.391 Y48.156
X34.623 Y47.456
X34.88 Y46.764
X35.16 Y46.082
X35.464 Y45.409
X35.79 Y44.748
X36.139 Y44.098
X36.51 Y43.46
X36.902 Y42.835
X37.317 Y42.225
X37.752 Y41.629
X38.208 Y41.049
X38.684 Y40.485
X39.179 Y39.938
X39.692 Y39.407
X40.223 Y38.895
X40.771 Y38.401
X41.335 Y37.926
X41.916 Y37.472
X42.513 Y37.037
X43.124 Y36.624
X43.749 Y36.231
X44.387 Y35.861
X45.037 Y35.512
X45.699 Y35.186
X46.371 Y34.882
X47.054 Y34.603
X47.746 Y34.347
X48.447 Y34.116
X49.155 Y33.909
X49.87 Y33.726
X50.59 Y33.568
X51.316 Y33.435
X52.046 Y33.326
X52.779 Y33.242
X53.514 Y33.184
X54.251 Y33.152
X54.989 Y33.145
X55.727 Y33.163
X56.463 Y33.206
X57.198 Y33.275
X57.93 Y33.368
X58.658 Y33.487
X59.382 Y33.63
X60.1 Y33.799
X60.812 Y33.992
X61.517 Y34.21
X62.214 Y34.452
X62.903 Y34.717
X63.582 Y35.006
X64.251 Y35.317
X64.909 Y35.65
X65.555 Y36.006
X66.189 Y36.384
X66.81 Y36.783
X67.416 Y37.203
X68.008 Y37.643
X68.585 Y38.103
X69.147 Y38.581
X69.692 Y39.079
X70.22 Y39.594
X70.73 Y40.127
X71.221 Y40.678
X71.694 Y41.244
X72.147 Y41.827
X72.58 Y42.424
X72.994 Y43.035
X73.387 Y43.659
X73.759 Y44.296
X74.109 Y44.946
X74.437 Y45.606
X74.743 Y46.278
X75.027 Y46.959
X75.287 Y47.65
X75.524 Y48.348
X75.737 Y49.054
X75.927 Y49.767
X76.094 Y50.486
X76.236 Y51.21
X76.353 Y51.939
X76.445 Y52.671
X76.512 Y53.405
X76.555 Y54.142
X76.573 Y54.88
X76.566 Y55.617
X76.535 Y56.355
X76.479 Y57.09
X76.399 Y57.824
X76.293 Y58.554
X76.164 Y59.28
X76.009 Y60.002
X75.831 Y60.718
X75.628 Y61.427
X75.402 Y62.129
X75.153 Y62.824
X74.88 Y63.51
X74.585 Y64.186
X74.266 Y64.851
X73.925 Y65.505
X73.562 Y66.148
X73.178 Y66.777
X72.772 Y67.394
X72.347 Y67.997
X71.901 Y68.585
X71.437 Y69.158
X70.953 Y69.715
X70.451 Y70.256
X69.93 Y70.779
X69.393 Y71.284
X68.839 Y71.771
X68.269 Y72.24
X67.683 Y72.689
X67.083 Y73.118
X66.469 Y73.527
X65.842 Y73.915
X65.202 Y74.282
X64.549 Y74.626
X63.885 Y74.949
X63.211 Y75.249
X62.528 Y75.526
X61.835 Y75.781
X61.135 Y76.013
X60.427 Y76.221
X59.713 Y76.406
X58.992 Y76.566
X58.267 Y76.702
X57.538 Y76.814
X56.805 Y76.901
X56.07 Y76.964
X55.333 Y77.002
X54.596 Y77.017
X53.858 Y77.007
X53.121 Y76.972
X52.386 Y76.912
X51.653 Y76.827
X50.923 Y76.718
X50.197 Y76.585
X49.476 Y76.428
X48.761 Y76.247
X48.052 Y76.044
X47.35 Y75.817
X46.655 Y75.567
X45.97 Y75.294
X45.294 Y74.999
X44.628 Y74.681
X43.973 Y74.342
X43.329 Y73.981
X42.698 Y73.599
X42.079 Y73.197
X41.474 Y72.775
X40.883 Y72.333
X40.308 Y71.872
X39.748 Y71.391
X39.204 Y70.892
X38.677 Y70.376
X38.168 Y69.842
X37.676 Y69.292
X37.202 Y68.727
X36.746 Y68.146
X36.31 Y67.551
X35.894 Y66.942
X35.499 Y66.319
X35.123 Y65.684
X34.769 Y65.036
X34.436 Y64.378
X34.125 Y63.709
X33.835 Y63.031
X33.568 Y62.343
X33.324 Y61.647
X33.103 Y60.943
X32.905 Y60.232
X32.731 Y59.515
X32.581 Y58.793
X32.454 Y58.066
X32.351 Y57.335
X32.271 Y56.602
X32.216 Y55.866
X32.184 Y55.129
X32.177 Y54.391
X32.193 Y53.653
X32.234 Y52.917
X32.299 Y52.182
X32.388 Y51.449
X32.501 Y50.72
X32.637 Y49.995
X32.796 Y49.274
X32.979 Y48.56
X33.185 Y47.851
X33.415 Y47.15
X33.668 Y46.457
X33.943 Y45.773
X34.241 Y45.097
X34.56 Y44.432
X34.9 Y43.778
X35.262 Y43.134
X35.644 Y42.503
X36.046 Y41.885
X36.469 Y41.28
X36.911 Y40.69
X37.373 Y40.114
X37.852 Y39.553
X38.35 Y39.008
X38.865 Y38.48
X39.396 Y37.968
X39.944 Y37.474
X40.508 Y36.999
X41.088 Y36.542
X41.682 Y36.105
X42.29 Y35.687
X42.912 Y35.289
X43.546 Y34.912
X44.191 Y34.555
X44.848 Y34.219
X45.516 Y33.905
X46.193 Y33.613
X46.88 Y33.343
X47.575 Y33.096
X48.278 Y32.871
X48.988 Y32.67
X49.704 Y32.491
X50.425 Y32.336
X51.151 Y32.204
X51.881 Y32.095
X52.614 Y32.011
X53.349 Y31.951
X54.086 Y31.915
X54.824 Y31.903
X55.561 Y31.915
X56.298 Y31.951
X57.034 Y32.011
X57.767 Y32.094
X58.497 Y32.201
X59.223 Y32.332
X59.945 Y32.486
X60.661 Y32.664
X61.371 Y32.865
X62.074 Y33.089
X62.769 Y33.335
X63.457 Y33.603
X64.135 Y33.893
X64.804 Y34.205
X65.462 Y34.538
X66.109 Y34.892
X66.745 Y35.267
X67.367 Y35.663
X67.977 Y36.078
X68.573 Y36.513
X69.155 Y36.967
X69.723 Y37.438
X70.275 Y37.928
X70.811 Y38.434
X71.331 Y38.958
X71.834 Y39.498
X72.319 Y40.054
X72.786 Y40.625
X73.235 Y41.21
X73.665 Y41.81
X74.076 Y42.422
X74.468 Y43.047
X74.84 Y43.685
X75.191 Y44.334
X75.521 Y44.993
X75.83 Y45.664
X76.117 Y46.343
X76.383 Y47.032
X76.627 Y47.728
X76.848 Y48.432
X77.048 Y49.142
X77.225 Y49.858
X77.379 Y50.58
X77.51 Y51.306
X77.617 Y52.036
X77.702 Y52.769
X77.763 Y53.504
X77.8 Y54.241
X77.814 Y54.979
X77.806 Y55.716
X77.773 Y56.454
X77.718 Y57.189
X77.639 Y57.923
X77.535 Y58.653
X77.409 Y59.38
X77.259 Y60.103
X77.087 Y60.82
X76.891 Y61.532
X76.674 Y62.237
X76.434 Y62.934
X76.172 Y63.624
X75.889 Y64.305
X75.584 Y64.977
X75.257 Y65.639
X74.909 Y66.289
X74.541 Y66.929
X74.153 Y67.556
X73.745 Y68.171
X73.318 Y68.773
X72.872 Y69.361
X72.408 Y69.934
X71.925 Y70.492
X71.425 Y71.034
X70.907 Y71.56
X70.373 Y72.069
X69.824 Y72.561
X69.258 Y73.036
X68.679 Y73.492
X68.085 Y73.93
X67.478 Y74.349
X66.857 Y74.749
X66.225 Y75.128
X65.58 Y75.487
X64.924 Y75.826
X64.258 Y76.143
X63.583 Y76.439
X62.898 Y76.714
X62.205 Y76.968
X61.505 Y77.199
X60.797 Y77.408
X60.083 Y77.594
X59.363 Y77.757
X58.639 Y77.898
X57.911 Y78.015
X57.179 Y78.109
X56.444 Y78.18
X55.708 Y78.228
X54.971 Y78.253
X54.233 Y78.255
X53.495 Y78.234
X52.759 Y78.189
X52.024 Y78.121
X51.292 Y78.03
X50.563 Y77.915
X49.838 Y77.779
X49.118 Y77.619
X48.403 Y77.438
X47.694 Y77.234
X46.991 Y77.008
X46.296 Y76.76
X45.61 Y76.49
X44.932 Y76.198
X44.264 Y75.886
X43.605 Y75.552
X42.958 Y75.199
X42.321 Y74.825
X41.697 Y74.433
X41.085 Y74.02
X40.486 Y73.589
X39.901 Y73.139
X39.331 Y72.671
X38.776 Y72.186
X38.236 Y71.683
X37.711 Y71.164
X37.203 Y70.629
X36.712 Y70.078
X36.238 Y69.513
X35.782 Y68.933
X35.345 Y68.338
X34.927 Y67.731
X34.527 Y67.11
X34.147 Y66.478
X33.787 Y65.834
X33.447 Y65.179
X33.127 Y64.514
X32.828 Y63.84
X32.55 Y63.156
X32.293 Y62.465
X32.058 Y61.765
X31.845 Y61.059
X31.654 Y60.346
X31.485 Y59.628
X31.338 Y58.905
X31.214 Y58.178
X31.112 Y57.447
X31.033 Y56.713
X30.977 Y55.978
X30.943 Y55.241
X30.933 Y54.503
X30.946 Y53.765
X30.982 Y53.028
X31.04 Y52.293
X31.121 Y51.559
X31.225 Y50.829
X31.351 Y50.102
X31.499 Y49.379
X31.669 Y48.661
X31.862 Y47.949
X32.076 Y47.243
X32.313 Y46.544
X32.571 Y45.853
X32.85 Y45.17
X33.15 Y44.496
X33.471 Y43.832
X33.812 Y43.177
X34.172 Y42.534
X34.553 Y41.902
X34.954 Y41.282
X35.374 Y40.675
X35.812 Y40.082
X36.268 Y39.502
X36.742 Y38.937
X37.233 Y38.386
X37.741 Y37.85
X38.265 Y37.331
X38.804 Y36.827
X39.359 Y36.341
X39.929 Y35.872
X40.513 Y35.421
X41.11 Y34.989
X41.721 Y34.575
X42.344 Y34.18
X42.979 Y33.804
X43.626 Y33.448
X44.282 Y33.112
X44.949 Y32.797
X45.626 Y32.502
X46.311 Y32.229
X47.005 Y31.978
X47.706 Y31.748
X48.414 Y31.539
X49.127 Y31.352
X49.847 Y31.187
X50.571 Y31.045
X51.298 Y30.924
X52.03 Y30.826
X52.764 Y30.751
X53.5 Y30.699
X54.237 Y30.669
X54.975 Y30.662
X55.712 Y30.678
X56.449 Y30.716
X57.184 Y30.777
X57.918 Y30.86
X58.648 Y30.966
X59.374 Y31.095
X60.096 Y31.246
X60.813 Y31.42
X61.525 Y31.615
X62.23 Y31.832
X62.928 Y32.071
X63.619 Y32.33
X64.301 Y32.611
X64.975 Y32.912
X65.639 Y33.233
X66.293 Y33.575
X66.936 Y33.936
X67.568 Y34.317
X68.188 Y34.717
X68.795 Y35.136
X69.39 Y35.573
X69.971 Y36.028
X70.538 Y36.499
X71.091 Y36.988
X71.628 Y37.494
X72.15 Y38.016
X72.655 Y38.553
X73.144 Y39.106
X73.616 Y39.673
X74.071 Y40.254
X74.508 Y40.849
X74.927 Y41.456
X75.328 Y42.075
X75.71 Y42.706
X76.073 Y43.349
X76.416 Y44.002
X76.74 Y44.665
X77.043 Y45.338
X77.326 Y46.019
X77.588 Y46.709
X77.829 Y47.406
X78.05 Y48.11
X78.249 Y48.82
X78.427 Y49.536
X78.583 Y50.258
X78.717 Y50.983
X78.828 Y51.712
X78.918 Y52.445
X78.985 Y53.18
X79.03 Y53.916
X79.053 Y54.653
X79.054 Y55.391
X79.033 Y56.129
X78.99 Y56.865
X78.925 Y57.6
X78.837 Y58.333
X78.727 Y59.062
X78.595 Y59.788
X78.441 Y60.51
X78.265 Y61.226
X78.068 Y61.937
X77.85 Y62.642
X77.61 Y63.34
X77.35 Y64.03
X77.068 Y64.712
X76.765 Y65.385
X76.443 Y66.049
X76.1 Y66.702
X75.738 Y67.345
X75.356 Y67.977
X74.956 Y68.596
X74.538 Y69.204
X74.101 Y69.799
X73.647 Y70.381
X73.176 Y70.948
X72.687 Y71.501
X72.182 Y72.038
X71.661 Y72.561
X71.124 Y73.067
X70.572 Y73.557
X70.006 Y74.03
X69.426 Y74.486
X68.833 Y74.925
X68.226 Y75.345
X67.607 Y75.747
X66.976 Y76.129
X66.334 Y76.492
X65.681 Y76.836
X65.019 Y77.16
X64.346 Y77.464
X63.665 Y77.748
X62.976 Y78.011
X62.279 Y78.254
X61.576 Y78.476
X60.866 Y78.676
X60.15 Y78.855
X59.429 Y79.012
X58.703 Y79.147
X57.974 Y79.261
X57.242 Y79.353
X56.508 Y79.422
X55.772 Y79.471
X55.034 Y79.497
X54.296 Y79.5
X53.559 Y79.481
X52.822 Y79.44
X52.087 Y79.377
X51.354 Y79.292
X50.624 Y79.185
X49.898 Y79.057
X49.175 Y78.907
X48.457 Y78.736
X47.745 Y78.544
X47.039 Y78.331
X46.339 Y78.096
X45.647 Y77.841
X44.962 Y77.566
X44.287 Y77.27
X43.62 Y76.954
X42.962 Y76.619
X42.315 Y76.264
X41.679 Y75.891
X41.054 Y75.499
X40.441 Y75.088
X39.841 Y74.659
X39.254 Y74.212
X38.68 Y73.748
X38.121 Y73.267
X37.576 Y72.77
X37.045 Y72.257
X36.53 Y71.728
X36.031 Y71.185
X35.548 Y70.627
X35.082 Y70.056
X34.633 Y69.47
X34.201 Y68.872
X33.788 Y68.261
X33.392 Y67.638
X33.016 Y67.003
X32.658 Y66.358
X32.318 Y65.703
X31.999 Y65.038
X31.699 Y64.364
X31.419 Y63.681
X31.16 Y62.991
X30.921 Y62.292
X30.703 Y61.587
X30.506 Y60.876
X30.331 Y60.16
X30.176 Y59.438
X30.042 Y58.713
X29.93 Y57.984
X29.839 Y57.251
X29.769 Y56.517
X29.722 Y55.781
X29.696 Y55.043
X29.692 Y54.305
X29.71 Y53.568
X29.749 Y52.831
X29.81 Y52.096
X29.893 Y51.363
X29.996 Y50.632
X30.121 Y49.905
X30.268 Y49.182
X30.436 Y48.463
X30.625 Y47.75
X30.835 Y47.043
X31.066 Y46.342
X31.318 Y45.649
X31.589 Y44.963
X31.881 Y44.285
X32.192 Y43.616
X32.523 Y42.956
X32.872 Y42.307
X33.241 Y41.668
X33.629 Y41.04
X34.035 Y40.424
X34.458 Y39.82
X34.9 Y39.228
X35.358 Y38.65
X35.833 Y38.086
X36.325 Y37.535
X36.832 Y37.
X37.355 Y36.479
X37.893 Y35.974
X38.445 Y35.485
X39.012 Y35.013
X39.593 Y34.558
X40.187 Y34.12
X40.793 Y33.699
X41.411 Y33.297
X42.041 Y32.912
X42.682 Y32.546
X43.333 Y32.199
X43.994 Y31.872
X44.664 Y31.563
X45.343 Y31.275
X46.031 Y31.007
X46.726 Y30.76
X47.428 Y30.532
X48.136 Y30.325
X48.85 Y30.139
X49.569 Y29.974
X50.293 Y29.83
X51.02 Y29.707
X51.751 Y29.607
X52.485 Y29.527
X53.22 Y29.47
X53.957 Y29.434
X54.695 Y29.419
X55.432 Y29.426
X56.17 Y29.455
X56.906 Y29.504
X57.64 Y29.575
X58.372 Y29.668
X59.101 Y29.782
X59.826 Y29.918
X60.547 Y30.075
X61.263 Y30.253
X61.974 Y30.451
X62.679 Y30.67
X63.376 Y30.91
X64.067 Y31.169
X64.75 Y31.448
X65.424 Y31.748
X66.09 Y32.067
X66.745 Y32.405
X67.391 Y32.762
X68.026 Y33.138
X68.649 Y33.532
X69.262 Y33.944
X69.862 Y34.374
X70.449 Y34.82
X71.024 Y35.283
X71.585 Y35.762
X72.131 Y36.258
X72.664 Y36.769
X73.181 Y37.295
X73.683 Y37.836
X74.169 Y38.391
X74.639 Y38.96
X75.092 Y39.542
X75.529 Y40.136
X75.949 Y40.743
X76.351 Y41.362
X76.734 Y41.992
X77.1 Y42.633
X77.447 Y43.284
X77.775 Y43.945
X78.084 Y44.615
X78.374 Y45.293
X78.644 Y45.98
X78.894 Y46.674
X79.125 Y47.375
X79.336 Y48.082
X79.526 Y48.795
X79.696 Y49.513
X79.845 Y50.235
X79.973 Y50.962
X80.08 Y51.692
X80.166 Y52.425
X80.231 Y53.16
X80.275 Y53.896
X80.298 Y54.634
X80.3 Y55.371
X80.281 Y56.109
X80.24 Y56.846
X80.178 Y57.581
X80.094 Y58.314
X79.99 Y59.044
X79.864 Y59.771
X79.718 Y60.495
X79.551 Y61.213
X79.364 Y61.927
X79.156 Y62.635
X78.928 Y63.337
X78.68 Y64.032
X78.412 Y64.719
X78.125 Y65.398
X77.817 Y66.069
X77.491 Y66.731
X77.145 Y67.383
X76.782 Y68.025
X76.4 Y68.656
X76. Y69.276
X75.582 Y69.884
X75.147 Y70.48
X74.695 Y71.063
X74.226 Y71.633
X73.742 Y72.189
X73.241 Y72.731
X72.725 Y73.258
X72.194 Y73.771
X71.648 Y74.268
X71.089 Y74.749
X70.516 Y75.214
X69.931 Y75.663
X69.332 Y76.094
X68.721 Y76.508
X68.099 Y76.904
X67.466 Y77.283
X66.822 Y77.643
X66.168 Y77.984
X65.504 Y78.307
X64.832 Y78.61
X64.151 Y78.895
X63.462 Y79.16
X62.766 Y79.404
X62.063 Y79.629
X61.354 Y79.833
X60.64 Y80.017
X59.92 Y80.18
X59.196 Y80.323
X58.469 Y80.445
X57.738 Y80.546
X57.004 Y80.627
X56.269 Y80.687
X55.532 Y80.726
X54.795 Y80.743
X54.057 Y80.74
X53.319 Y80.715
X52.583 Y80.67
X51.848 Y80.603
X51.116 Y80.516
X50.386 Y80.408
X49.659 Y80.279
X48.937 Y80.13
X48.219 Y79.961
X47.506 Y79.771
X46.798 Y79.56
X46.097 Y79.33
X45.403 Y79.08
X44.716 Y78.81
X44.038 Y78.521
X43.367 Y78.213
X42.705 Y77.887
X42.053 Y77.542
X41.411 Y77.179
X40.779 Y76.797
X40.159 Y76.398
X39.55 Y75.982
X38.953 Y75.548
X38.368 Y75.098
X37.797 Y74.631
X37.239 Y74.149
X36.695 Y73.65
X36.164 Y73.137
X35.649 Y72.609
X35.149 Y72.067
X34.664 Y71.511
X34.195 Y70.941
X33.743 Y70.358
X33.307 Y69.763
X32.888 Y69.155
X32.487 Y68.537
X32.102 Y67.907
X31.736 Y67.266
X31.387 Y66.616
X31.057 Y65.956
X30.746 Y65.287
X30.453 Y64.61
X30.18 Y63.925
X29.926 Y63.232
X29.692 Y62.532
X29.477 Y61.826
X29.283 Y61.115
X29.108 Y60.398
X28.953 Y59.676
X28.819 Y58.951
X28.705 Y58.222
X28.612 Y57.49
X28.54 Y56.756
X28.488 Y56.02
X28.457 Y55.283
X28.447 Y54.545
X28.457 Y53.807
X28.488 Y53.07
X28.54 Y52.334
X28.612 Y51.6
X28.704 Y50.868
X28.817 Y50.138
X28.95 Y49.413
X29.103 Y48.691
X29.277 Y47.974
X29.471 Y47.262
X29.684 Y46.556
X29.918 Y45.856
X30.171 Y45.163
X30.443 Y44.477
X30.733 Y43.799
X31.043 Y43.129
X31.372 Y42.469
X31.719 Y41.818
X32.085 Y41.177
X32.468 Y40.546
X32.869 Y39.927
X33.287 Y39.319
X33.722 Y38.723
X34.173 Y38.139
X34.64 Y37.568
X35.123 Y37.01
X35.621 Y36.466
X36.134 Y35.936
X36.662 Y35.42
X37.204 Y34.92
X37.76 Y34.435
X38.33 Y33.966
X38.912 Y33.513
X39.507 Y33.076
X40.113 Y32.656
X40.731 Y32.253
X41.36 Y31.867
X42. Y31.5
X42.65 Y31.15
X43.309 Y30.819
X43.978 Y30.507
X44.655 Y30.213
X45.339 Y29.939
X46.032 Y29.684
X46.731 Y29.448
X47.436 Y29.231
X48.147 Y29.034
X48.863 Y28.857
X49.584 Y28.7
X50.309 Y28.564
X51.038 Y28.447
X51.77 Y28.352
X52.504 Y28.276
X53.239 Y28.222
X53.976 Y28.187
X54.714 Y28.174
X55.452 Y28.18
X56.189 Y28.208
X56.925 Y28.256
X57.66 Y28.325
X58.392 Y28.414
X59.122 Y28.524
X59.848 Y28.654
X60.571 Y28.804
X61.289 Y28.974
X62.001 Y29.164
X62.709 Y29.374
X63.41 Y29.603
X64.105 Y29.852
X64.792 Y30.119
X65.472 Y30.406
X66.144 Y30.711
X66.807 Y31.035
X67.461 Y31.377
X68.105 Y31.737
X68.738 Y32.115
X69.362 Y32.51
X69.974 Y32.922
X70.574 Y33.351
X71.163 Y33.796
X71.738 Y34.257
X72.301 Y34.734
X72.851 Y35.226
X73.386 Y35.734
X73.908 Y36.256
X74.415 Y36.792
X74.907 Y37.341
X75.384 Y37.904
X75.846 Y38.48
X76.291 Y39.068
X76.721 Y39.668
X77.134 Y40.279
X77.53 Y40.902
X77.909 Y41.535
X78.27 Y42.178
X78.613 Y42.831
X78.939 Y43.493
X79.246 Y44.164
X79.535 Y44.843
X79.806 Y45.529
X80.057 Y46.223
X80.29 Y46.923
X80.503 Y47.63
X80.696 Y48.342
X80.87 Y49.059
X81.024 Y49.78
X81.159 Y50.506
X81.273 Y51.235
X81.368 Y51.966
X81.442 Y52.7
X81.497 Y53.436
X81.531 Y54.173
X81.546 Y54.911
X81.54 Y55.649
X81.513 Y56.386
X81.467 Y57.122
X81.4 Y57.857
X81.313 Y58.59
X81.206 Y59.32
X81.08 Y60.047
X80.933 Y60.77
X80.767 Y61.489
X80.581 Y62.203
X80.375 Y62.911
X80.15 Y63.614
X79.905 Y64.31
X79.642 Y64.999
X79.359 Y65.681
X79.058 Y66.354
X78.739 Y67.019
X78.401 Y67.675
X78.046 Y68.322
X77.674 Y68.959
X77.284 Y69.585
X76.877 Y70.201
X76.453 Y70.805
X76.013 Y71.397
X75.557 Y71.977
X75.085 Y72.544
X74.598 Y73.098
X74.096 Y73.639
X73.579 Y74.165
X73.048 Y74.678
X72.503 Y75.175
X71.945 Y75.658
X71.374 Y76.125
X70.79 Y76.576
X70.194 Y77.011
X69.586 Y77.429
X68.967 Y77.83
X68.337 Y78.215
X67.697 Y78.582
X67.047 Y78.931
X66.388 Y79.263
X65.721 Y79.577
X65.045 Y79.873
X64.361 Y80.15
X63.67 Y80.408
X62.972 Y80.647
X62.267 Y80.867
X61.557 Y81.068
X60.842 Y81.249
X60.122 Y81.41
X59.398 Y81.552
X58.671 Y81.675
X57.94 Y81.777
X57.207 Y81.86
X56.472 Y81.922
X55.735 Y81.964
X54.998 Y81.986
X54.26 Y81.988
X53.522 Y81.97
X52.785 Y81.932
X52.05 Y81.874
X51.316 Y81.796
X50.585 Y81.698
X49.856 Y81.58
X49.131 Y81.443
X48.41 Y81.287
X47.694 Y81.111
X46.982 Y80.915
X46.276 Y80.701
X45.577 Y80.467
X44.883 Y80.215
X44.197 Y79.944
X43.518 Y79.654
X42.848 Y79.347
X42.186 Y79.021
X41.533 Y78.678
X40.889 Y78.317
X40.256 Y77.939
X39.633 Y77.543
X39.021 Y77.131
X38.42 Y76.703
X37.831 Y76.259
X37.254 Y75.798
X36.69 Y75.323
X36.139 Y74.833
X35.601 Y74.328
X35.077 Y73.808
X34.567 Y73.275
X34.071 Y72.728
X33.591 Y72.169
X33.125 Y71.596
X32.676 Y71.011
X32.242 Y70.414
X31.824 Y69.806
X31.423 Y69.187
X31.039 Y68.557
X30.671 Y67.917
X30.321 Y67.268
X29.989 Y66.609
X29.674 Y65.942
X29.377 Y65.266
X29.099 Y64.583
X28.839 Y63.892
X28.598 Y63.195
X28.375 Y62.492
X28.172 Y61.782
X27.987 Y61.068
X27.822 Y60.349
X27.676 Y59.626
X27.549 Y58.899
X27.442 Y58.169
X27.354 Y57.436
X27.286 Y56.702
X27.238 Y55.965
X27.21 Y55.228
X27.201 Y54.49
X27.212 Y53.753
X27.242 Y53.016
X27.293 Y52.279
X27.363 Y51.545
X27.453 Y50.813
X27.562 Y50.083
X27.691 Y49.357
X27.84 Y48.634
X28.007 Y47.915
X28.194 Y47.202
X28.4 Y46.493
X28.625 Y45.79
X28.868 Y45.094
X29.13 Y44.404
X29.41 Y43.721
X29.708 Y43.046
X30.024 Y42.38
X30.358 Y41.722
X30.709 Y41.073
X31.078 Y40.434
X31.463 Y39.805
X31.865 Y39.186
X32.284 Y38.579
X32.719 Y37.982
X33.169 Y37.398
X33.635 Y36.826
X34.116 Y36.266
X34.612 Y35.72
X35.122 Y35.187
X35.646 Y34.668
X36.184 Y34.163
X36.736 Y33.673
X37.3 Y33.198
X37.877 Y32.737
X38.466 Y32.293
X39.066 Y31.864
X39.677 Y31.451
X40.3 Y31.055
X40.932 Y30.675
X41.575 Y30.313
X42.227 Y29.967
X42.888 Y29.64
X43.558 Y29.33
X44.236 Y29.038
X44.921 Y28.765
X45.613 Y28.509
X46.312 Y28.272
X47.017 Y28.055
X47.727 Y27.856
X48.443 Y27.676
X49.163 Y27.515
X49.887 Y27.374
X50.615 Y27.251
X51.345 Y27.149
X52.078 Y27.066
X52.813 Y27.002
X53.55 Y26.958
X54.287 Y26.934
X55.025 Y26.929
X55.763 Y26.944
X56.5 Y26.978
X57.236 Y27.033
X57.97 Y27.106
X58.702 Y27.2
X59.431 Y27.312
X60.157 Y27.444
X60.879 Y27.596
X61.597 Y27.766
X62.31 Y27.956
X63.018 Y28.164
X63.719 Y28.391
X64.415 Y28.637
X65.104 Y28.901
X65.786 Y29.184
X66.46 Y29.484
X67.125 Y29.802
X67.783 Y30.137
X68.431 Y30.49
X69.069 Y30.86
X69.698 Y31.246
X70.316 Y31.649
X70.924 Y32.067
X71.52 Y32.502
X72.104 Y32.952
X72.677 Y33.418
X73.237 Y33.898
X73.784 Y34.393
X74.318 Y34.902
X74.839 Y35.425
X75.345 Y35.961
X75.838 Y36.511
X76.315 Y37.073
X76.778 Y37.648
X77.226 Y38.234
X77.658 Y38.832
X78.074 Y39.441
X78.474 Y40.061
X78.858 Y40.691
X79.226 Y41.331
X79.576 Y41.98
X79.909 Y42.639
X80.225 Y43.305
X80.524 Y43.98
X80.805 Y44.662
X81.068 Y45.351
X81.313 Y46.047
X81.54 Y46.749
X81.748 Y47.457
X81.938 Y48.17
X82.109 Y48.888
X82.261 Y49.61
X82.394 Y50.336
X82.509 Y51.065
X82.604 Y51.796
X82.679 Y52.53
X82.736 Y53.266
X82.773 Y54.003
X82.791 Y54.74
X82.789 Y55.478
X82.768 Y56.216
X82.728 Y56.952
X82.669 Y57.688
X82.59 Y58.421
X82.492 Y59.153
X82.375 Y59.881
X82.239 Y60.606
X82.085 Y61.328
X81.911 Y62.045
X81.718 Y62.757
X81.507 Y63.464
X81.278 Y64.165
X81.03 Y64.86
X80.764 Y65.548
X80.48 Y66.229
X80.178 Y66.903
X79.859 Y67.568
X79.522 Y68.224
X79.169 Y68.872
X78.798 Y69.51
X78.411 Y70.138
X78.007 Y70.755
X77.587 Y71.362
X77.152 Y71.958
X76.701 Y72.542
X76.235 Y73.114
X75.754 Y73.673
X75.259 Y74.22
X74.75 Y74.754
X74.226 Y75.275
X73.69 Y75.781
X73.141 Y76.273
X72.578 Y76.751
X72.004 Y77.214
X71.417 Y77.662
X70.819 Y78.094
X70.21 Y78.51
X69.59 Y78.911
X68.961 Y79.295
X68.321 Y79.662
X67.672 Y80.013
X67.013 Y80.346
X66.347 Y80.662
X65.672 Y80.961
X64.99 Y81.242
X64.3 Y81.505
X63.604 Y81.75
X62.902 Y81.976
X62.194 Y82.184
X61.481 Y82.374
X60.764 Y82.545
X60.042 Y82.698
X59.316 Y82.832
X58.587 Y82.946
X57.856 Y83.042
X57.122 Y83.119
X56.386 Y83.176
X55.65 Y83.214
X54.912 Y83.234
X54.174 Y83.233
X53.437 Y83.214
X52.7 Y83.176
X51.964 Y83.118
X51.23 Y83.042
X50.499 Y82.946
X49.77 Y82.831
X49.044 Y82.698
X48.322 Y82.545
X47.605 Y82.375
X46.892 Y82.185
X46.184 Y81.977
X45.481 Y81.751
X44.785 Y81.507
X44.095 Y81.245
X43.412 Y80.966
X42.737 Y80.669
X42.069 Y80.355
X41.41 Y80.023
X40.76 Y79.675
X40.119 Y79.31
X39.487 Y78.928
X38.866 Y78.531
X38.255 Y78.117
X37.654 Y77.688
X37.066 Y77.244
X36.488 Y76.784
X35.923 Y76.31
X35.371 Y75.821
X34.831 Y75.318
X34.304 Y74.801
X33.791 Y74.271
X33.292 Y73.728
X32.807 Y73.172
X32.336 Y72.604
X31.88 Y72.024
X31.439 Y71.432
X31.013 Y70.83
X30.603 Y70.216
X30.209 Y69.593
X29.83 Y68.959
X29.468 Y68.316
X29.123 Y67.664
X28.795 Y67.003
X28.484 Y66.334
X28.19 Y65.658
X27.913 Y64.974
X27.654 Y64.283
X27.413 Y63.585
X27.19 Y62.882
X26.985 Y62.173
X26.799 Y61.46
X26.631 Y60.741
X26.481 Y60.019
X26.35 Y59.293
X26.237 Y58.563
X26.144 Y57.832
X26.069 Y57.097
X26.013 Y56.362
X25.976 Y55.625
X25.957 Y54.887
X25.958 Y54.15
X25.977 Y53.412
X26.015 Y52.675
X26.072 Y51.94
X26.148 Y51.206
X26.242 Y50.474
X26.355 Y49.745
X26.487 Y49.019
X26.637 Y48.297
X26.806 Y47.578
X26.993 Y46.865
X27.198 Y46.156
X27.422 Y45.453
X27.663 Y44.755
X27.922 Y44.065
X28.199 Y43.381
X28.494 Y42.704
X28.805 Y42.035
X29.134 Y41.375
X29.479 Y40.723
X29.841 Y40.08
X30.219 Y39.446
X30.613 Y38.822
X31.023 Y38.209
X31.448 Y37.606
X31.889 Y37.014
X32.344 Y36.434
X32.815 Y35.865
X33.299 Y35.309
X33.798 Y34.766
X34.311 Y34.235
X34.837 Y33.717
X35.375 Y33.213
X35.927 Y32.723
X36.491 Y32.247
X37.067 Y31.786
X37.655 Y31.34
X38.253 Y30.909
X38.863 Y30.494
X39.483 Y30.094
X40.113 Y29.71
X40.753 Y29.343
X41.402 Y28.991
X42.06 Y28.657
X42.726 Y28.339
X43.4 Y28.039
X44.081 Y27.756
X44.769 Y27.49
X45.464 Y27.242
X46.165 Y27.012
X46.872 Y26.799
X47.583 Y26.605
X48.3 Y26.429
X49.021 Y26.271
X49.745 Y26.132
X50.473 Y26.012
X51.204 Y25.909
X51.937 Y25.826
X52.672 Y25.761
X53.408 Y25.716
X54.146 Y25.689
X54.883 Y25.681
X55.621 Y25.692
X56.358 Y25.722
X57.095 Y25.77
X57.829 Y25.837
X58.562 Y25.923
X59.292 Y26.028
X60.02 Y26.151
X60.744 Y26.292
X61.464 Y26.452
X62.18 Y26.63
X62.892 Y26.826
X63.598 Y27.04
X64.298 Y27.272
X64.992 Y27.522
X65.68 Y27.789
X66.361 Y28.074
X67.034 Y28.375
X67.7 Y28.694
X68.357 Y29.029
X69.005 Y29.381
X69.645 Y29.75
X70.274 Y30.134
X70.894 Y30.534
X71.504 Y30.95
X72.103 Y31.381
X72.69 Y31.827
X73.267 Y32.288
X73.831 Y32.762
X74.384 Y33.251
X74.924 Y33.754
X75.451 Y34.27
X75.965 Y34.799
X76.466 Y35.341
X76.953 Y35.895
X77.426 Y36.462
X77.885 Y37.04
X78.329 Y37.629
X78.758 Y38.229
X79.172 Y38.84
X79.57 Y39.461
X79.953 Y40.092
X80.32 Y40.732
X80.671 Y41.381
X81.005 Y42.038
X81.323 Y42.704
X81.624 Y43.378
X81.908 Y44.059
X82.175 Y44.747
X82.424 Y45.441
X82.657 Y46.142
X82.871 Y46.847
X83.068 Y47.559
X83.247 Y48.274
X83.408 Y48.994
X83.551 Y49.718
X83.675 Y50.445
X83.782 Y51.175
X83.87 Y51.908
X83.94 Y52.643
X83.991 Y53.379
X84.024 Y54.116
X84.039 Y54.853
X84.035 Y55.591
X84.012 Y56.329
X83.971 Y57.065
X83.912 Y57.801
X83.834 Y58.534
X83.737 Y59.266
X83.622 Y59.995
X83.489 Y60.72
X83.338 Y61.442
X83.168 Y62.161
X82.981 Y62.874
X82.775 Y63.583
X82.552 Y64.286
X82.312 Y64.984
X82.054 Y65.675
X81.779 Y66.359
X81.486 Y67.037
X81.177 Y67.707
X80.851 Y68.369
X80.509 Y69.022
X80.15 Y69.667
X79.775 Y70.303
X79.385 Y70.928
X78.979 Y71.544
X78.557 Y72.15
X78.121 Y72.745
X77.669 Y73.329
X77.204 Y73.901
X76.724 Y74.461
X76.23 Y75.009
X75.722 Y75.545
X75.201 Y76.067
X74.667 Y76.576
X74.121 Y77.072
X73.562 Y77.554
X72.992 Y78.022
X72.41 Y78.475
X71.816 Y78.914
X71.213 Y79.338
X70.598 Y79.746
X69.974 Y80.14
X69.34 Y80.517
X68.697 Y80.878
X68.044 Y81.223
X67.384 Y81.552
X66.715 Y81.864
X66.039 Y82.16
X65.356 Y82.438
X64.666 Y82.699
X63.97 Y82.943
X63.267 Y83.17
X62.56 Y83.379
X61.847 Y83.57
X61.13 Y83.742
X60.408 Y83.897
X59.683 Y84.034
X58.955 Y84.153
X58.224 Y84.254
X57.491 Y84.336
X56.756 Y84.4
X56.02 Y84.446
X55.282 Y84.473
X54.545 Y84.482
X53.807 Y84.473
X53.07 Y84.446
X52.333 Y84.4
X51.598 Y84.336
X50.865 Y84.253
X50.134 Y84.152
X49.406 Y84.034
X48.681 Y83.897
X47.959 Y83.742
X47.242 Y83.57
X46.529 Y83.38
X45.821 Y83.172
X45.119 Y82.947
X44.422 Y82.704
X43.731 Y82.444
X43.048 Y82.167
X42.371 Y81.873
X41.701 Y81.563
X41.04 Y81.236
X40.387 Y80.892
X39.742 Y80.533
X39.107 Y80.158
X38.481 Y79.768
X37.865 Y79.362
X37.259 Y78.941
X36.664 Y78.505
X36.079 Y78.055
X35.506 Y77.59
X34.945 Y77.111
X34.395 Y76.618
X33.858 Y76.113
X33.334 Y75.594
X32.823 Y75.062
X32.324 Y74.518
X31.84 Y73.961
X31.369 Y73.393
X30.912 Y72.814
X30.47 Y72.223
X30.043 Y71.622
X29.63 Y71.01
X29.233 Y70.388
X28.851 Y69.757
X28.485 Y69.116
X28.135 Y68.467
X27.8 Y67.809
X27.482 Y67.143
X27.181 Y66.47
X26.896 Y65.79
X26.627 Y65.102
X26.376 Y64.409
X26.142 Y63.709
X25.925 Y63.004
X25.726 Y62.293
X25.544 Y61.578
X25.38 Y60.859
X25.233 Y60.136
X25.105 Y59.409
X24.994 Y58.68
X24.901 Y57.948
X24.826 Y57.214
X24.769 Y56.478
X24.73 Y55.741
X24.71 Y55.004
X24.708 Y54.266
X24.724 Y53.528
X24.758 Y52.791
X24.809 Y52.055
X24.879 Y51.321
X24.967 Y50.588
X25.073 Y49.858
X25.197 Y49.131
X25.338 Y48.407
X25.497 Y47.686
X25.674 Y46.97
X25.868 Y46.258
X26.08 Y45.551
X26.309 Y44.85
X26.555 Y44.154
X26.818 Y43.465
X27.098 Y42.782
X27.395 Y42.107
X27.708 Y41.439
X28.037 Y40.778
X28.382 Y40.126
X28.743 Y39.483
X29.12 Y38.849
X29.513 Y38.224
X29.921 Y37.609
X30.343 Y37.004
X30.781 Y36.41
X31.232 Y35.827
X31.698 Y35.255
X32.178 Y34.694
X32.671 Y34.146
X33.178 Y33.609
X33.698 Y33.085
X34.23 Y32.574
X34.774 Y32.076
X35.331 Y31.592
X35.899 Y31.121
X36.479 Y30.665
X37.069 Y30.223
X37.671 Y29.795
X38.282 Y29.383
X38.904 Y28.985
X39.535 Y28.603
X40.175 Y28.236
X40.824 Y27.885
X41.481 Y27.55
X42.147 Y27.231
X42.82 Y26.929
X43.5 Y26.644
X44.187 Y26.375
X44.881 Y26.123
X45.58 Y25.888
X46.285 Y25.671
X46.995 Y25.47
X47.71 Y25.287
X48.429 Y25.122
X49.152 Y24.974
X49.878 Y24.844
X50.608 Y24.731
X51.339 Y24.637
X52.073 Y24.56
X52.809 Y24.502
X53.545 Y24.461
X54.283 Y24.439
X55.021 Y24.434
X55.758 Y24.448
X56.495 Y24.479
X57.232 Y24.529
X57.966 Y24.596
X58.699 Y24.682
X59.43 Y24.785
X60.157 Y24.906
X60.882 Y25.046
X61.603 Y25.202
X62.32 Y25.377
X63.032 Y25.568
X63.74 Y25.777
X64.442 Y26.004
X65.139 Y26.247
X65.829 Y26.507
X66.513 Y26.783
X67.191 Y27.076
X67.86 Y27.386
X68.522 Y27.711
X69.176 Y28.053
X69.822 Y28.41
X70.459 Y28.783
X71.086 Y29.171
X71.704 Y29.575
X72.312 Y29.993
X72.909 Y30.425
X73.496 Y30.872
X74.072 Y31.333
X74.637 Y31.808
X75.19 Y32.296
X75.731 Y32.798
X76.26 Y33.313
X76.776 Y33.84
X77.279 Y34.38
X77.77 Y34.931
X78.246 Y35.494
X78.71 Y36.068
X79.159 Y36.654
X79.594 Y37.25
X80.014 Y37.856
X80.42 Y38.472
X80.811 Y39.098
X81.187 Y39.732
X81.548 Y40.376
X81.893 Y41.028
X82.223 Y41.688
X82.536 Y42.356
X82.833 Y43.032
X83.114 Y43.714
X83.378 Y44.403
X83.626 Y45.098
X83.858 Y45.798
X84.072 Y46.504
X84.269 Y47.215
X84.449 Y47.931
X84.612 Y48.65
X84.757 Y49.374
X84.885 Y50.1
X84.995 Y50.83
X85.088 Y51.562
X85.163 Y52.296
X85.22 Y53.032
X85.26 Y53.768
X85.282 Y54.506
X85.286 Y55.244
X85.273 Y55.981
X85.242 Y56.718
X85.193 Y57.455
X85.127 Y58.189
X85.043 Y58.922
X84.941 Y59.653
X84.821 Y60.381
X84.684 Y61.106
X84.53 Y61.828
X84.358 Y62.545
X84.17 Y63.259
X83.964 Y63.967
X83.741 Y64.67
X83.501 Y65.368
X83.244 Y66.06
X82.971 Y66.745
X82.681 Y67.424
X82.375 Y68.095
X82.053 Y68.759
X81.715 Y69.415
X81.361 Y70.062
X80.992 Y70.701
X80.607 Y71.331
X80.208 Y71.951
X79.793 Y72.561
X79.365 Y73.162
X78.922 Y73.752
X78.465 Y74.331
X77.994 Y74.899
X77.509 Y75.456
X77.011 Y76.
X76.501 Y76.533
X75.978 Y77.053
X75.442 Y77.56
X74.894 Y78.055
X74.335 Y78.536
X73.764 Y79.003
X73.182 Y79.457
X72.59 Y79.897
X71.987 Y80.322
X71.374 Y80.732
X70.751 Y81.128
X70.119 Y81.508
X69.477 Y81.873
X68.828 Y82.223
X68.17 Y82.557
X67.504 Y82.875
X66.831 Y83.178
X66.151 Y83.464
X65.464 Y83.733
X64.771 Y83.986
X64.072 Y84.223
X63.368 Y84.443
X62.659 Y84.645
X61.945 Y84.831
X61.226 Y84.999
X60.504 Y85.151
X59.778 Y85.284
X59.05 Y85.401
X58.319 Y85.5
X57.585 Y85.582
X56.85 Y85.646
X56.114 Y85.692
X55.377 Y85.721
X54.639 Y85.732
X53.901 Y85.725
X53.164 Y85.7
X52.427 Y85.658
X51.692 Y85.599
X50.958 Y85.522
X50.226 Y85.427
X49.497 Y85.315
X48.771 Y85.186
X48.048 Y85.039
X47.328 Y84.876
X46.613 Y84.695
X45.902 Y84.498
X45.196 Y84.284
X44.495 Y84.053
X43.8 Y83.805
X43.111 Y83.541
X42.429 Y83.26
X41.753 Y82.964
X41.085 Y82.651
X40.424 Y82.323
X39.771 Y81.979
X39.127 Y81.62
X38.491 Y81.246
X37.864 Y80.856
X37.247 Y80.452
X36.64 Y80.033
X36.043 Y79.6
X35.456 Y79.152
X34.88 Y78.691
X34.315 Y78.217
X33.761 Y77.729
X33.22 Y77.228
X32.69 Y76.715
X32.172 Y76.189
X31.667 Y75.651
X31.175 Y75.101
X30.696 Y74.54
X30.23 Y73.968
X29.778 Y73.384
X29.34 Y72.791
X28.917 Y72.187
X28.507 Y71.573
X28.112 Y70.95
X27.732 Y70.317
X27.367 Y69.676
X27.018 Y69.026
X26.683 Y68.369
X26.364 Y67.703
X26.062 Y67.031
X25.775 Y66.351
X25.504 Y65.664
X25.25 Y64.972
X25.012 Y64.273
X24.791 Y63.569
X24.586 Y62.86
X24.399 Y62.147
X24.228 Y61.429
X24.074 Y60.708
X23.937 Y59.983
X23.817 Y59.255
X23.714 Y58.524
X23.628 Y57.791
X23.56 Y57.057
X23.509 Y56.32
X23.476 Y55.583
X23.46 Y54.846
X23.461 Y54.108
X23.48 Y53.37
X23.516 Y52.633
X23.57 Y51.898
X23.64 Y51.163
X23.728 Y50.431
X23.833 Y49.7
X23.956 Y48.973
X24.095 Y48.248
X24.252 Y47.527
X24.426 Y46.81
X24.616 Y46.097
X24.823 Y45.389
X25.047 Y44.686
X25.287 Y43.989
X25.544 Y43.297
X25.817 Y42.611
X26.106 Y41.932
X26.411 Y41.261
X26.731 Y40.596
X27.067 Y39.939
X27.418 Y39.29
X27.785 Y38.65
X28.166 Y38.018
X28.562 Y37.396
X28.973 Y36.783
X29.398 Y36.18
X29.838 Y35.587
X30.291 Y35.005
X30.757 Y34.433
X31.237 Y33.873
X31.73 Y33.324
X32.235 Y32.786
X32.754 Y32.261
X33.284 Y31.748
X33.827 Y31.248
X34.381 Y30.761
X34.946 Y30.287
X35.522 Y29.826
X36.109 Y29.38
X36.707 Y28.946
X37.314 Y28.528
X37.931 Y28.123
X38.558 Y27.733
X39.193 Y27.358
X39.837 Y26.998
X40.489 Y26.653
X41.149 Y26.323
X41.817 Y26.01
X42.492 Y25.712
X43.174 Y25.43
X43.862 Y25.164
X44.556 Y24.914
X45.256 Y24.681
X45.961 Y24.464
X46.672 Y24.264
X47.386 Y24.08
X48.105 Y23.913
X48.827 Y23.764
X49.553 Y23.632
X50.282 Y23.516
X51.013 Y23.418
X51.747 Y23.337
X52.482 Y23.273
X53.218 Y23.227
X53.955 Y23.198
X54.693 Y23.186
X55.431 Y23.191
X56.168 Y23.214
X56.905 Y23.254
X57.641 Y23.311
X58.375 Y23.385
X59.107 Y23.477
X59.837 Y23.586
X60.564 Y23.712
X61.287 Y23.855
X62.008 Y24.015
X62.724 Y24.191
X63.436 Y24.385
X64.143 Y24.595
X64.846 Y24.821
X65.542 Y25.064
X66.233 Y25.323
X66.918 Y25.598
X67.596 Y25.889
X68.267 Y26.196
X68.93 Y26.518
X69.586 Y26.856
X70.234 Y27.209
X70.874 Y27.577
X71.504 Y27.96
X72.126 Y28.357
X72.738 Y28.769
X73.341 Y29.194
X73.934 Y29.634
X74.516 Y30.087
X75.088 Y30.554
X75.648 Y31.033
X76.198 Y31.526
X76.735 Y32.031
X77.261 Y32.549
X77.775 Y33.078
X78.276 Y33.62
X78.765 Y34.172
X79.241 Y34.736
X79.703 Y35.311
X80.153 Y35.896
X80.588 Y36.491
X81.01 Y37.097
X81.418 Y37.712
X81.811 Y38.336
X82.19 Y38.97
X82.553 Y39.611
X82.903 Y40.261
X83.237 Y40.919
X83.555 Y41.585
X83.859 Y42.257
X84.146 Y42.937
X84.418 Y43.622
X84.675 Y44.314
X84.915 Y45.012
X85.139 Y45.715
X85.347 Y46.423
X85.538 Y47.135
X85.713 Y47.852
X85.871 Y48.573
X86.013 Y49.297
X86.137 Y50.024
X86.245 Y50.754
X86.336 Y51.486
X86.41 Y52.22
X86.467 Y52.956
X86.508 Y53.693
X86.531 Y54.43
X86.537 Y55.168
X86.525 Y55.906
X86.497 Y56.643
X86.452 Y57.379
X86.389 Y58.115
X86.31 Y58.848
X86.214 Y59.58
X86.1 Y60.309
X85.97 Y61.035
X85.824 Y61.758
X85.66 Y62.477
X85.48 Y63.193
X85.284 Y63.904
X85.071 Y64.611
X84.842 Y65.312
X84.597 Y66.008
X84.335 Y66.698
X84.058 Y67.382
X83.765 Y68.059
X83.456 Y68.729
X83.132 Y69.392
X82.793 Y70.047
X82.439 Y70.694
X82.07 Y71.333
X81.686 Y71.963
X81.287 Y72.584
X80.875 Y73.196
X80.448 Y73.797
X80.007 Y74.389
X79.553 Y74.971
X79.086 Y75.542
X78.605 Y76.101
X78.112 Y76.65
X77.606 Y77.187
X77.088 Y77.712
X76.558 Y78.226
X76.016 Y78.727
X75.463 Y79.215
X74.899 Y79.69
X74.324 Y80.153
X73.738 Y80.601
X73.142 Y81.037
X72.537 Y81.458
X71.921 Y81.865
X71.297 Y82.258
X70.663 Y82.636
X70.021 Y83.
X69.371 Y83.349
X68.713 Y83.683
X68.048 Y84.001
X67.375 Y84.304
X66.695 Y84.592
X66.009 Y84.863
X65.317 Y85.119
X64.62 Y85.358
X63.916 Y85.582
X63.208 Y85.789
X62.496 Y85.98
X61.779 Y86.154
X61.058 Y86.312
X60.334 Y86.454
X60.199 Y86.477
X60.158 Y86.483
X60.116 Y86.486
X60.074 Y86.487
X50.299
X49.562 Y86.451
X48.826 Y86.393
X48.096 Y86.287
X47.371 Y86.148
X46.652 Y85.985
X45.937 Y85.8
X45.228 Y85.597
X44.524 Y85.377
X43.825 Y85.14
X43.132 Y84.887
X42.445 Y84.618
X41.764 Y84.334
X41.09 Y84.034
X40.423 Y83.718
X39.763 Y83.388
X39.111 Y83.043
X38.468 Y82.683
X37.832 Y82.308
X37.205 Y81.919
X36.588 Y81.515
X35.979 Y81.097
X35.381 Y80.666
X34.793 Y80.22
X34.215 Y79.762
X33.647 Y79.29
X33.091 Y78.806
X32.546 Y78.309
X32.012 Y77.799
X31.489 Y77.278
X30.979 Y76.745
X30.481 Y76.201
X29.995 Y75.646
X29.522 Y75.079
X29.063 Y74.502
X28.616 Y73.915
X28.183 Y73.318
X27.763 Y72.711
X27.358 Y72.094
X26.966 Y71.469
X26.589 Y70.835
X26.226 Y70.193
X25.877 Y69.542
X25.544 Y68.884
X25.226 Y68.219
X24.923 Y67.546
X24.635 Y66.866
X24.363 Y66.18
X24.107 Y65.489
X23.867 Y64.791
X23.643 Y64.088
X23.434 Y63.38
X23.242 Y62.668
X23.066 Y61.951
X22.906 Y61.231
X22.763 Y60.507
X22.636 Y59.781
X22.525 Y59.051
X22.431 Y58.319
X22.353 Y57.586
X22.292 Y56.85
X22.248 Y56.114
X22.221 Y55.376
X22.21 Y54.639
X22.216 Y53.901
X22.238 Y53.163
X22.278 Y52.427
X22.333 Y51.691
X22.406 Y50.957
X22.495 Y50.224
X22.6 Y49.494
X22.722 Y48.766
X22.861 Y48.042
X23.017 Y47.321
X23.188 Y46.603
X23.376 Y45.89
X23.581 Y45.181
X23.801 Y44.476
X24.037 Y43.777
X24.289 Y43.084
X24.556 Y42.396
X24.839 Y41.715
X25.137 Y41.04
X25.45 Y40.372
X25.779 Y39.711
X26.122 Y39.058
X26.479 Y38.413
X26.852 Y37.776
X27.238 Y37.147
X27.639 Y36.528
X28.054 Y35.917
X28.482 Y35.317
X28.924 Y34.726
X29.379 Y34.145
X29.847 Y33.574
X30.327 Y33.015
X30.82 Y32.466
X31.326 Y31.928
X31.844 Y31.403
X32.373 Y30.889
X32.914 Y30.387
X33.467 Y29.898
X34.03 Y29.422
X34.604 Y28.958
X35.189 Y28.508
X35.783 Y28.071
X36.387 Y27.647
X37.001 Y27.237
X37.623 Y26.841
X38.254 Y26.459
X38.894 Y26.092
X39.542 Y25.739
X40.198 Y25.401
X40.861 Y25.077
X41.531 Y24.769
X42.208 Y24.476
X42.892 Y24.198
X43.581 Y23.936
X44.277 Y23.689
X44.978 Y23.458
X45.683 Y23.243
X46.394 Y23.044
X47.109 Y22.861
X47.827 Y22.695
X47.907 Y22.678
X47.957 Y22.669
X48.007 Y22.664
X48.058 Y22.662
X60.353
X61.09 Y22.699
X61.824 Y22.775
X62.551 Y22.903
X63.27 Y23.066
X63.984 Y23.255
X64.691 Y23.464
X65.393 Y23.691
X66.09 Y23.935
X66.78 Y24.196
X67.464 Y24.472
X68.141 Y24.764
X68.812 Y25.071
X69.476 Y25.393
X70.132 Y25.73
X70.781 Y26.082
X71.421 Y26.448
X72.053 Y26.829
X72.677 Y27.224
X73.291 Y27.632
X73.896 Y28.054
X74.492 Y28.49
X75.078 Y28.939
X75.653 Y29.4
X76.218 Y29.875
X76.773 Y30.361
X77.316 Y30.86
X77.848 Y31.371
X78.369 Y31.894
X78.878 Y32.428
X79.375 Y32.974
X79.86 Y33.53
X80.332 Y34.097
X80.791 Y34.674
X81.238 Y35.261
X81.671 Y35.858
X82.091 Y36.465
X82.498 Y37.081
X82.891 Y37.706
X83.269 Y38.339
X83.634 Y38.98
X83.984 Y39.63
X84.319 Y40.287
X84.64 Y40.951
X84.946 Y41.623
X85.236 Y42.301
X85.512 Y42.985
X85.773 Y43.676
X86.018 Y44.372
X86.248 Y45.073
X86.462 Y45.779
X86.66 Y46.489
X86.833 Y47.168
X86.846 Y47.229
X86.854 Y47.29
X86.857 Y47.352
Y61.558
X86.82 Y62.295
X86.726 Y63.027
X86.58 Y63.75
X86.398 Y64.465
X86.191 Y65.173
X85.963 Y65.875
X85.718 Y66.57
X85.455 Y67.26
X85.177 Y67.943
X84.883 Y68.62
X84.574 Y69.29
X84.25 Y69.953
X83.911 Y70.608
X83.558 Y71.256
X83.19 Y71.896
X82.808 Y72.527
X82.412 Y73.149
X82.002 Y73.763
X81.578 Y74.367
X81.141 Y74.962
X80.691 Y75.546
X80.229 Y76.121
X79.753 Y76.685
X79.265 Y77.239
X78.765 Y77.781
X78.253 Y78.312
X77.73 Y78.832
X77.195 Y79.34
X76.649 Y79.837
X76.092 Y80.321
X75.524 Y80.792
X74.947 Y81.251
X74.359 Y81.697
X73.761 Y82.129
X73.154 Y82.549
X72.538 Y82.955
X71.913 Y83.347
X71.279 Y83.725
X70.637 Y84.088
X69.988 Y84.438
X69.33 Y84.773
X68.665 Y85.093
X67.994 Y85.398
X67.315 Y85.688
X66.631 Y85.963
X65.94 Y86.223
X65.305 Y86.446
X65.225 Y86.469
X65.143 Y86.483
X65.06 Y86.487
X60.074
G3 X59.897 Y85.914 I0.011 J-0.317
G1 X59.954 Y85.872 Z37.614
X60.009 Y85.833 Z37.638
X60.057 Y85.797 Z37.675
X60.098 Y85.767 Z37.726
X60.128 Y85.745 Z37.786
X60.147 Y85.731 Z37.853
X60.153 Y85.726 Z37.924
G0 Z44.106
X86.473 Y60.531
Z38.241
G1 Z37.924 F1016.
X86.477 Y60.538 Z37.853
X86.489 Y60.558 Z37.786
X86.508 Y60.591 Z37.726
X86.534 Y60.634 Z37.675
X86.565 Y60.686 Z37.638
X86.599 Y60.744 Z37.614
X86.635 Y60.804 Z37.606
G3 X86.857 Y61.558 I-1.36 J0.809
G1 Y65.749
X86.833 Y66.224
X86.773 Y66.682
X86.639 Y67.308
X86.427 Y68.014
X86.172 Y68.707
X85.887 Y69.387
X85.58 Y70.058
X85.256 Y70.721
X84.915 Y71.375
X84.559 Y72.022
X84.189 Y72.66
X83.805 Y73.29
X83.407 Y73.911
X82.996 Y74.524
X82.572 Y75.128
X82.135 Y75.722
X81.685 Y76.307
X81.223 Y76.882
X80.748 Y77.447
X80.262 Y78.002
X79.764 Y78.546
X79.254 Y79.079
X78.732 Y79.601
X78.2 Y80.112
X77.657 Y80.612
X77.104 Y81.1
X76.54 Y81.576
X75.966 Y82.04
X75.383 Y82.491
X74.79 Y82.93
X74.188 Y83.356
X73.576 Y83.77
X72.956 Y84.17
X72.328 Y84.556
X71.691 Y84.93
X71.047 Y85.289
X70.395 Y85.635
X69.736 Y85.966
X69.07 Y86.284
X68.762 Y86.422
X68.664 Y86.458
X68.562 Y86.48
X68.458 Y86.487
X65.06
G3 X64.883 Y85.914 I0.011 J-0.317
G1 X64.94 Y85.872 Z37.614
X64.994 Y85.833 Z37.638
X65.043 Y85.797 Z37.675
X65.084 Y85.767 Z37.726
X65.114 Y85.745 Z37.786
X65.133 Y85.731 Z37.853
X65.139 Y85.726 Z37.924
G0 Z44.106
X86.473 Y64.723
Z38.241
G1 Z37.924 F1016.
X86.477 Y64.73 Z37.853
X86.489 Y64.75 Z37.786
X86.508 Y64.783 Z37.726
X86.534 Y64.826 Z37.675
X86.565 Y64.877 Z37.638
X86.599 Y64.935 Z37.614
X86.635 Y64.996 Z37.606
G3 X86.857 Y65.749 I-1.36 J0.809
G1 Y68.935
X86.839 Y69.284
X86.793 Y69.634
X86.698 Y70.082
X86.519 Y70.676
X86.252 Y71.364
X85.939 Y72.032
X85.598 Y72.686
X85.235 Y73.329
X84.855 Y73.961
X84.459 Y74.584
X84.05 Y75.198
X83.627 Y75.803
X83.192 Y76.398
X82.744 Y76.985
X82.284 Y77.562
X81.812 Y78.129
X81.328 Y78.686
X80.833 Y79.233
X80.327 Y79.769
X79.81 Y80.296
X79.282 Y80.811
X78.743 Y81.315
X78.194 Y81.808
X77.636 Y82.29
X77.067 Y82.761
X76.489 Y83.219
X75.902 Y83.665
X75.305 Y84.1
X74.7 Y84.522
X74.086 Y84.931
X73.464 Y85.328
X72.834 Y85.711
X72.196 Y86.082
X71.631 Y86.395
X71.517 Y86.446
X71.396 Y86.477
X71.272 Y86.487
X68.458
G3 X68.281 Y85.914 I0.011 J-0.317
G1 X68.338 Y85.872 Z37.614
X68.392 Y85.833 Z37.638
X68.441 Y85.797 Z37.675
X68.482 Y85.767 Z37.726
X68.512 Y85.745 Z37.786
X68.531 Y85.731 Z37.853
X68.537 Y85.726 Z37.924
G0 Z44.106
X86.473 Y67.909
Z38.241
G1 Z37.924 F1016.
X86.477 Y67.915 Z37.853
X86.489 Y67.936 Z37.786
X86.508 Y67.968 Z37.726
X86.534 Y68.011 Z37.675
X86.565 Y68.063 Z37.638
X86.599 Y68.121 Z37.614
X86.635 Y68.182 Z37.606
G3 X86.857 Y68.935 I-1.36 J0.809
G1 Y71.618
X86.841 Y71.93
X86.803 Y72.219
X86.724 Y72.588
X86.589 Y73.04
X86.354 Y73.644
X86.032 Y74.307
X85.669 Y74.95
X85.28 Y75.577
X84.872 Y76.191
X84.447 Y76.795
X84.009 Y77.388
X83.557 Y77.972
X83.094 Y78.546
X82.618 Y79.11
X82.132 Y79.665
X81.634 Y80.209
X81.125 Y80.744
X80.606 Y81.268
X80.077 Y81.782
X79.537 Y82.285
X78.988 Y82.778
X78.429 Y83.259
X77.861 Y83.73
X77.283 Y84.189
X76.696 Y84.636
X76.1 Y85.071
X75.496 Y85.495
X74.883 Y85.906
X74.263 Y86.305
X74.144 Y86.378
X74.022 Y86.438
X73.892 Y86.475
X73.756 Y86.487
X71.272
G3 X71.095 Y85.914 I0.011 J-0.317
G1 X71.152 Y85.872 Z37.614
X71.206 Y85.833 Z37.638
X71.255 Y85.797 Z37.675
X71.295 Y85.767 Z37.726
X71.326 Y85.745 Z37.786
X71.345 Y85.731 Z37.853
X71.351 Y85.726 Z37.924
G0 Z44.106
X86.473 Y70.591
Z38.241
G1 Z37.924 F1016.
X86.477 Y70.598 Z37.853
X86.489 Y70.618 Z37.786
X86.508 Y70.651 Z37.726
X86.534 Y70.694 Z37.675
X86.565 Y70.746 Z37.638
X86.599 Y70.803 Z37.614
X86.635 Y70.864 Z37.606
G3 X86.857 Y71.618 I-1.36 J0.809
G1 Y73.965
X86.839 Y74.311
X86.806 Y74.566
X86.737 Y74.886
X86.625 Y75.262
X86.434 Y75.751
X86.12 Y76.399
X85.746 Y77.034
X85.338 Y77.649
X84.907 Y78.249
X84.46 Y78.835
X83.998 Y79.41
X83.523 Y79.975
X83.036 Y80.53
X82.539 Y81.075
X82.031 Y81.61
X81.512 Y82.135
X80.984 Y82.649
X80.445 Y83.154
X79.897 Y83.647
X79.339 Y84.131
X78.773 Y84.603
X78.197 Y85.064
X77.612 Y85.514
X77.019 Y85.953
X76.459 Y86.351
X76.326 Y86.426
X76.181 Y86.472
X76.03 Y86.487
X73.756
G3 X73.579 Y85.914 I0.011 J-0.317
G1 X73.636 Y85.872 Z37.614
X73.691 Y85.833 Z37.638
X73.739 Y85.797 Z37.675
X73.78 Y85.767 Z37.726
X73.81 Y85.745 Z37.786
X73.829 Y85.731 Z37.853
X73.835 Y85.726 Z37.924
G0 Z44.106
X86.473 Y72.939
Z38.241
G1 Z37.924 F1016.
X86.477 Y72.945 Z37.853
X86.489 Y72.966 Z37.786
X86.508 Y72.998 Z37.726
X86.534 Y73.041 Z37.675
X86.565 Y73.093 Z37.638
X86.599 Y73.151 Z37.614
X86.635 Y73.211 Z37.606
G3 X86.857 Y73.965 I-1.36 J0.809
G1 Y76.312
X86.848 Y76.492
X86.817 Y76.727
X86.755 Y77.014
X86.656 Y77.344
X86.492 Y77.766
X86.231 Y78.305
X85.856 Y78.941
X85.438 Y79.549
X84.992 Y80.137
X84.527 Y80.71
X84.047 Y81.27
X83.553 Y81.818
X83.049 Y82.356
X82.533 Y82.884
X82.008 Y83.402
X81.472 Y83.91
X80.927 Y84.407
X80.373 Y84.894
X79.81 Y85.371
X79.238 Y85.837
X78.657 Y86.292
X78.597 Y86.338
X78.46 Y86.42
X78.309 Y86.47
X78.151 Y86.487
X76.03
G3 X75.824 Y85.939 I0.011 J-0.317
G1 X75.852 Y85.912
X86.279 Y76.132
X86.322 Y76.092
G3 X86.857 Y76.312 I0.217 J0.232
G1 Y78.324
X86.845 Y78.558
X86.815 Y78.782
X86.76 Y79.039
X86.67 Y79.342
X86.524 Y79.715
X86.299 Y80.179
X85.948 Y80.775
X85.524 Y81.379
X85.067 Y81.958
X84.587 Y82.519
X84.091 Y83.065
X83.582 Y83.599
X83.061 Y84.121
X82.53 Y84.634
X81.989 Y85.135
X81.439 Y85.627
X80.88 Y86.109
X80.629 Y86.317
X80.486 Y86.41
X80.326 Y86.468
X80.156 Y86.487
X78.151
G3 X77.923 Y85.948 I0. J-0.317
G1 X77.952 Y85.919
X86.135 Y77.512
G3 X86.635 Y77.571 I0.228 J0.221
X86.857 Y78.324 I-1.36 J0.809
G1 Y80.336
X86.848 Y80.513
X86.819 Y80.73
X86.77 Y80.962
X86.684 Y81.247
X86.553 Y81.585
X86.352 Y81.999
X86.049 Y82.514
X85.625 Y83.117
X85.16 Y83.69
X84.67 Y84.242
X84.161 Y84.776
X83.639 Y85.297
X83.105 Y85.806
X82.573 Y86.293
X82.425 Y86.399
X82.254 Y86.465
X82.073 Y86.487
G3 X81.832 Y85.977 I0.011 J-0.317
G1 X81.887 Y85.905
X86.283 Y80.159
X86.287 Y80.154
G3 X86.857 Y80.336 I0.252 J0.193
G1 Y82.181
X86.846 Y82.397
X86.82 Y82.595
X86.772 Y82.817
X86.69 Y83.09
X86.571 Y83.397
X86.385 Y83.779
X86.117 Y84.235
X85.695 Y84.836
X85.223 Y85.404
X84.723 Y85.947
X84.404 Y86.268
X84.25 Y86.387
X84.07 Y86.462
X83.878 Y86.487
G3 X83.625 Y85.994 I0.011 J-0.317
G1 X83.686 Y85.902
X86.275 Y82.016
G3 X86.857 Y82.181 I0.264 J0.176
G1 Y84.025
X86.847 Y84.212
X86.823 Y84.392
X86.777 Y84.608
X86.698 Y84.871
X86.588 Y85.154
X86.415 Y85.511
X86.172 Y85.924
X85.998 Y86.172
X85.879 Y86.304
X85.733 Y86.404
X85.567 Y86.466
X85.391 Y86.487
G3 X85.122 Y86.021 I0.011 J-0.317
G1 X85.189 Y85.895
X86.259 Y83.887
G3 X86.857 Y84.025 I0.28 J0.149
G1 Y85.702
X86.847 Y85.883
X86.793 Y86.075
X86.687 Y86.244
X86.537 Y86.375
X86.356 Y86.459
X86.159 Y86.487
G3 X85.923 Y85.971 I0.011 J-0.317
G1 X85.975 Y85.907
X86.283 Y85.525
X86.292 Y85.513
G3 X86.857 Y85.702 I0.247 J0.199
G1 Y86.037
X86.852 Y86.205
X86.844 Y86.239
X86.831 Y86.274
X86.82 Y86.299
X86.805 Y86.323
X86.769 Y86.372
X86.743 Y86.4
X86.716 Y86.423
X86.69 Y86.441
X86.664 Y86.455
X86.622 Y86.472
X86.58 Y86.483
X86.538 Y86.487
X80.156
G3 X79.979 Y85.914 I0.011 J-0.317
G1 X80.036 Y85.872 Z37.614
X80.091 Y85.833 Z37.638
X80.139 Y85.797 Z37.675
X80.18 Y85.767 Z37.726
X80.21 Y85.745 Z37.786
X80.229 Y85.731 Z37.853
X80.235 Y85.726 Z37.924
G0 Z44.106
X59.327 Y23.046
Z38.241
G1 Z37.924 F1016.
X59.334 Y23.042 Z37.853
X59.354 Y23.03 Z37.786
X59.386 Y23.011 Z37.726
X59.43 Y22.985 Z37.675
X59.481 Y22.954 Z37.638
X59.539 Y22.92 Z37.614
X59.6 Y22.884 Z37.606
G3 X60.353 Y22.662 I0.809 J1.36
G1 X64.878
X65.401 Y22.689
X65.898 Y22.754
X66.571 Y22.898
X67.277 Y23.109
X67.971 Y23.361
X68.654 Y23.64
X69.328 Y23.94
X69.994 Y24.258
X70.652 Y24.592
X71.301 Y24.941
X71.943 Y25.305
X72.577 Y25.683
X73.202 Y26.075
X73.819 Y26.48
X74.427 Y26.898
X75.026 Y27.329
X75.615 Y27.773
X76.195 Y28.23
X76.764 Y28.698
X77.324 Y29.179
X77.873 Y29.672
X78.411 Y30.177
X78.939 Y30.693
X79.455 Y31.22
X79.96 Y31.758
X80.453 Y32.306
X80.935 Y32.865
X81.404 Y33.435
X81.861 Y34.014
X82.306 Y34.602
X82.738 Y35.201
X83.157 Y35.808
X83.563 Y36.424
X83.955 Y37.049
X84.335 Y37.682
X84.7 Y38.323
X85.051 Y38.971
X85.389 Y39.628
X85.711 Y40.291
X86.02 Y40.961
X86.314 Y41.638
X86.594 Y42.32
X86.807 Y42.873
X86.834 Y42.96
X86.851 Y43.049
X86.857 Y43.139
Y47.352
G3 X86.283 Y47.528 I-0.317 J-0.011
G1 X86.241 Y47.471 Z37.614
X86.202 Y47.417 Z37.638
X86.166 Y47.369 Z37.675
X86.136 Y47.328 Z37.726
X86.114 Y47.298 Z37.786
X86.1 Y47.279 Z37.853
X86.095 Y47.272 Z37.924
G0 Z44.106
X63.852 Y23.046
Z38.241
G1 Z37.924 F1016.
X63.858 Y23.042 Z37.853
X63.879 Y23.03 Z37.786
X63.911 Y23.011 Z37.726
X63.954 Y22.985 Z37.675
X64.006 Y22.954 Z37.638
X64.064 Y22.92 Z37.614
X64.125 Y22.884 Z37.606
G3 X64.878 Y22.662 I0.809 J1.36
G1 X68.23
X68.551 Y22.679
X68.914 Y22.726
X69.378 Y22.825
X70. Y23.012
X70.687 Y23.279
X71.357 Y23.589
X72.013 Y23.927
X72.658 Y24.285
X73.293 Y24.661
X73.919 Y25.051
X74.536 Y25.455
X75.144 Y25.873
X75.743 Y26.303
X76.333 Y26.746
X76.914 Y27.202
X77.485 Y27.669
X78.046 Y28.148
X78.597 Y28.639
X79.138 Y29.141
X79.668 Y29.654
X80.188 Y30.178
X80.697 Y30.712
X81.194 Y31.257
X81.68 Y31.812
X82.155 Y32.376
X82.618 Y32.951
X83.069 Y33.535
X83.508 Y34.128
X83.935 Y34.73
X84.349 Y35.341
X84.75 Y35.96
X85.138 Y36.587
X85.514 Y37.222
X85.876 Y37.865
X86.224 Y38.515
X86.559 Y39.173
X86.783 Y39.634
X86.823 Y39.738
X86.848 Y39.846
X86.857 Y39.957
Y43.139
G3 X86.283 Y43.316 I-0.317 J-0.011
G1 X86.241 Y43.259 Z37.614
X86.202 Y43.205 Z37.638
X86.166 Y43.156 Z37.675
X86.136 Y43.116 Z37.726
X86.114 Y43.085 Z37.786
X86.1 Y43.066 Z37.853
X86.095 Y43.06 Z37.924
G0 Z44.106
X67.203 Y23.046
Z38.241
G1 Z37.924 F1016.
X67.21 Y23.042 Z37.853
X67.23 Y23.03 Z37.786
X67.263 Y23.011 Z37.726
X67.306 Y22.985 Z37.675
X67.358 Y22.954 Z37.638
X67.415 Y22.92 Z37.614
X67.476 Y22.884 Z37.606
G3 X68.23 Y22.662 I0.809 J1.36
G1 X70.911
X71.25 Y22.679
X71.545 Y22.718
X71.922 Y22.799
X72.389 Y22.939
X73.015 Y23.182
X73.679 Y23.504
X74.323 Y23.865
X74.951 Y24.251
X75.568 Y24.656
X76.174 Y25.076
X76.77 Y25.511
X77.357 Y25.959
X77.934 Y26.419
X78.501 Y26.89
X79.059 Y27.373
X79.607 Y27.867
X80.145 Y28.372
X80.673 Y28.888
X81.19 Y29.414
X81.697 Y29.95
X82.193 Y30.496
X82.678 Y31.052
X83.152 Y31.618
X83.615 Y32.192
X84.066 Y32.776
X84.505 Y33.369
X84.932 Y33.97
X85.347 Y34.58
X85.75 Y35.198
X86.141 Y35.825
X86.518 Y36.458
X86.76 Y36.882
X86.813 Y36.998
X86.846 Y37.122
X86.857 Y37.249
Y39.957
G3 X86.283 Y40.134 I-0.317 J-0.011
G1 X86.241 Y40.077 Z37.614
X86.202 Y40.023 Z37.638
X86.166 Y39.974 Z37.675
X86.136 Y39.934 Z37.726
X86.114 Y39.903 Z37.786
X86.1 Y39.884 Z37.853
X86.095 Y39.878 Z37.924
G0 Z44.106
X69.885 Y23.046
Z38.241
G1 Z37.924 F1016.
X69.891 Y23.042 Z37.853
X69.912 Y23.03 Z37.786
X69.944 Y23.011 Z37.726
X69.987 Y22.985 Z37.675
X70.039 Y22.954 Z37.638
X70.097 Y22.92 Z37.614
X70.157 Y22.884 Z37.606
G3 X70.911 Y22.662 I0.809 J1.36
G1 X73.425
X73.65 Y22.674
X73.909 Y22.708
X74.236 Y22.778
X74.62 Y22.893
X75.123 Y23.089
X75.787 Y23.411
X76.423 Y23.784
X77.04 Y24.19
X77.641 Y24.618
X78.23 Y25.062
X78.807 Y25.521
X79.375 Y25.992
X79.933 Y26.475
X80.481 Y26.97
X81.019 Y27.474
X81.547 Y27.99
X82.065 Y28.515
X82.572 Y29.051
X83.069 Y29.596
X83.556 Y30.151
X84.031 Y30.715
X84.496 Y31.288
X84.95 Y31.87
X85.392 Y32.46
X85.823 Y33.059
X86.242 Y33.666
X86.649 Y34.282
X86.741 Y34.427
X86.805 Y34.551
X86.843 Y34.685
X86.857 Y34.824
Y37.249
G3 X86.283 Y37.425 I-0.317 J-0.011
G1 X86.241 Y37.369 Z37.614
X86.202 Y37.314 Z37.638
X86.166 Y37.266 Z37.675
X86.136 Y37.225 Z37.726
X86.114 Y37.195 Z37.786
X86.1 Y37.176 Z37.853
X86.095 Y37.17 Z37.924
G0 Z44.106
X72.398 Y23.046
Z38.241
G1 Z37.924 F1016.
X72.405 Y23.042 Z37.853
X72.425 Y23.03 Z37.786
X72.458 Y23.011 Z37.726
X72.501 Y22.985 Z37.675
X72.553 Y22.954 Z37.638
X72.61 Y22.92 Z37.614
X72.671 Y22.884 Z37.606
G3 X73.425 Y22.662 I0.809 J1.36
G1 X75.603
X75.872 Y22.676
X76.109 Y22.707
X76.4 Y22.769
X76.735 Y22.87
X77.165 Y23.037
X77.717 Y23.305
X78.353 Y23.679
X78.962 Y24.096
X79.552 Y24.539
X80.127 Y25.002
X80.689 Y25.48
X81.24 Y25.97
X81.781 Y26.472
X82.311 Y26.985
X82.832 Y27.508
X83.342 Y28.04
X83.843 Y28.583
X84.333 Y29.134
X84.812 Y29.695
X85.281 Y30.264
X85.74 Y30.843
X86.187 Y31.429
X86.623 Y32.024
X86.721 Y32.163
X86.795 Y32.295
X86.841 Y32.439
X86.857 Y32.59
Y34.824
G3 X86.283 Y35. I-0.317 J-0.011
G1 X86.241 Y34.943 Z37.614
X86.202 Y34.889 Z37.638
X86.166 Y34.841 Z37.675
X86.136 Y34.8 Z37.726
X86.114 Y34.77 Z37.786
X86.1 Y34.751 Z37.853
X86.095 Y34.744 Z37.924
G0 Z44.106
X74.577 Y23.046
Z38.241
G1 Z37.924 F1016.
X74.584 Y23.042 Z37.853
X74.604 Y23.03 Z37.786
X74.636 Y23.011 Z37.726
X74.68 Y22.985 Z37.675
X74.731 Y22.954 Z37.638
X74.789 Y22.92 Z37.614
X74.85 Y22.884 Z37.606
G3 X75.603 Y22.662 I0.809 J1.36
G1 X77.782
X77.942 Y22.67
X78.168 Y22.7
X78.43 Y22.756
X78.737 Y22.848
X79.117 Y22.996
X79.591 Y23.226
X80.205 Y23.587
X80.809 Y24.012
X81.389 Y24.468
X81.951 Y24.946
X82.499 Y25.439
X83.035 Y25.946
X83.56 Y26.465
X84.075 Y26.993
X84.579 Y27.532
X85.074 Y28.08
X85.558 Y28.636
X86.031 Y29.202
X86.495 Y29.776
X86.7 Y30.04
X86.786 Y30.179
X86.839 Y30.333
X86.857 Y30.495
Y32.59
G3 X86.313 Y32.813 I-0.317 J0.
G1 X86.288 Y32.788
X76.965 Y23.38
G3 X77.028 Y22.884 I0.226 J-0.223
X77.782 Y22.662 I0.809 J1.36
G1 X79.793
X79.943 Y22.67
X80.166 Y22.702
X80.406 Y22.756
X80.702 Y22.849
X81.053 Y22.99
X81.493 Y23.21
X82.039 Y23.541
X82.638 Y23.972
X83.208 Y24.44
X83.758 Y24.932
X84.293 Y25.441
X84.814 Y25.963
X85.324 Y26.496
X85.823 Y27.04
X86.312 Y27.592
X86.68 Y28.024
X86.776 Y28.169
X86.836 Y28.332
X86.857 Y28.505
Y30.495
G3 X86.314 Y30.72 I-0.317 J0.
G1 X86.288 Y30.693
X78.977 Y23.381
G3 X79.039 Y22.884 I0.225 J-0.224
X79.793 Y22.662 I0.809 J1.36
G1 X81.636
X81.808 Y22.671
X82.018 Y22.699
X82.238 Y22.746
X82.507 Y22.826
X82.826 Y22.95
X83.204 Y23.134
X83.673 Y23.41
X84.277 Y23.834
X84.845 Y24.305
X85.389 Y24.803
X85.915 Y25.321
X86.425 Y25.854
X86.662 Y26.112
X86.768 Y26.261
X86.834 Y26.431
X86.857 Y26.612
G3 X86.35 Y26.856 I-0.317 J-0.011
G1 X86.274 Y26.8
X81.459 Y23.236
X81.458 Y23.235
G3 X81.636 Y22.662 I0.189 J-0.255
G1 X83.48
X83.637 Y22.67
X83.82 Y22.694
X84.036 Y22.74
X84.301 Y22.82
X84.588 Y22.932
X84.948 Y23.106
X85.368 Y23.354
X85.913 Y23.737
X86.481 Y24.208
X86.622 Y24.34
X86.749 Y24.497
X86.829 Y24.681
X86.857 Y24.881
G3 X86.372 Y25.14 I-0.317 J-0.011
G1 X86.269 Y25.076
X83.323 Y23.25
G3 X83.48 Y22.662 I0.167 J-0.27
G1 X85.155
X85.4 Y22.675
X85.578 Y22.698
X85.793 Y22.744
X86.042 Y22.819
X86.291 Y22.916
X86.439 Y22.987
X86.611 Y23.103
X86.744 Y23.261
X86.828 Y23.449
X86.857 Y23.654
G3 X86.401 Y23.929 I-0.317 J-0.011
G1 X86.262 Y23.861
X85.028 Y23.266
G3 X85.155 Y22.662 I0.138 J-0.286
G1 X86.538 Y22.663
X86.58 Y22.667
X86.622 Y22.678
X86.664 Y22.695
X86.7 Y22.716
X86.737 Y22.743
X86.759 Y22.762
X86.781 Y22.785
X86.811 Y22.827
X86.831 Y22.867
X86.843 Y22.899
X86.851 Y22.931
X86.855 Y22.963
X86.857 Y22.995
Y28.505
G3 X86.283 Y28.682 I-0.317 J-0.011
G1 X86.241 Y28.625 Z37.614
X86.202 Y28.571 Z37.638
X86.166 Y28.522 Z37.675
X86.136 Y28.481 Z37.726
X86.114 Y28.451 Z37.786
X86.1 Y28.432 Z37.853
X86.095 Y28.426 Z37.924
G0 Z44.106
X51.325 Y86.104
Z38.241
G1 Z37.924 F1016.
X51.318 Y86.108 Z37.853
X51.298 Y86.12 Z37.786
X51.265 Y86.139 Z37.726
X51.222 Y86.165 Z37.675
X51.17 Y86.196 Z37.638
X51.113 Y86.23 Z37.614
X51.052 Y86.266 Z37.606
G3 X50.299 Y86.487 I-0.809 J-1.36
G1 X45.271
X44.699 Y86.459
X44.161 Y86.388
X43.439 Y86.234
X42.732 Y86.023
X42.037 Y85.776
X41.351 Y85.504
X40.674 Y85.211
X40.005 Y84.901
X39.343 Y84.575
X38.689 Y84.234
X38.042 Y83.878
X37.404 Y83.508
X36.774 Y83.124
X36.153 Y82.726
X35.541 Y82.314
X34.938 Y81.889
X34.344 Y81.45
X33.761 Y80.999
X33.187 Y80.535
X32.624 Y80.058
X32.071 Y79.569
X31.529 Y79.068
X30.999 Y78.556
X30.479 Y78.032
X29.971 Y77.497
X29.475 Y76.951
X28.991 Y76.394
X28.519 Y75.827
X28.06 Y75.25
X27.613 Y74.662
X27.179 Y74.065
X26.759 Y73.459
X26.352 Y72.844
X25.959 Y72.219
X25.579 Y71.587
X25.213 Y70.946
X24.862 Y70.297
X24.524 Y69.641
X24.201 Y68.978
X23.893 Y68.308
X23.6 Y67.631
X23.321 Y66.947
X23.058 Y66.258
X22.809 Y65.563
X22.576 Y64.863
X22.359 Y64.158
X22.157 Y63.449
X21.97 Y62.735
X21.799 Y62.017
X21.644 Y61.296
X21.504 Y60.571
X21.38 Y59.844
X21.272 Y59.114
X21.18 Y58.382
X21.103 Y57.648
X21.043 Y56.913
X20.999 Y56.177
X20.971 Y55.439
X20.959 Y54.702
X20.963 Y53.964
X20.984 Y53.226
X21.02 Y52.489
X21.073 Y51.753
X21.142 Y51.019
X21.226 Y50.286
X21.327 Y49.555
X21.443 Y48.826
X21.576 Y48.1
X21.724 Y47.378
X21.888 Y46.658
X22.068 Y45.943
X22.264 Y45.231
X22.475 Y44.524
X22.701 Y43.822
X22.943 Y43.125
X23.199 Y42.433
X23.471 Y41.747
X23.757 Y41.067
X24.058 Y40.394
X24.374 Y39.727
X24.704 Y39.067
X25.048 Y38.414
X25.407 Y37.769
X25.779 Y37.132
X26.165 Y36.504
X26.565 Y35.884
X26.978 Y35.273
X27.405 Y34.671
X27.845 Y34.078
X28.297 Y33.495
X28.762 Y32.922
X29.239 Y32.36
X29.729 Y31.808
X30.23 Y31.266
X30.743 Y30.736
X31.268 Y30.218
X31.804 Y29.71
X32.351 Y29.215
X32.908 Y28.732
X33.476 Y28.261
X34.054 Y27.802
X34.642 Y27.357
X35.24 Y26.924
X35.846 Y26.504
X36.462 Y26.097
X37.086 Y25.704
X37.719 Y25.324
X38.36 Y24.958
X39.008 Y24.607
X39.664 Y24.269
X40.327 Y23.946
X40.998 Y23.637
X41.674 Y23.343
X42.357 Y23.064
X43.046 Y22.8
X43.309 Y22.706
X43.39 Y22.682
X43.474 Y22.667
X43.559 Y22.662
X48.058
G3 X48.235 Y23.236 I-0.011 J0.317
G1 X48.178 Y23.278 Z37.614
X48.124 Y23.317 Z37.638
X48.075 Y23.353 Z37.675
X48.035 Y23.383 Z37.726
X48.004 Y23.405 Z37.786
X47.985 Y23.419 Z37.853
X47.979 Y23.424 Z37.924
G0 Z44.106
X46.298 Y86.104
Z38.241
G1 Z37.924 F1016.
X46.291 Y86.108 Z37.853
X46.271 Y86.12 Z37.786
X46.238 Y86.139 Z37.726
X46.195 Y86.165 Z37.675
X46.143 Y86.196 Z37.638
X46.085 Y86.23 Z37.614
X46.025 Y86.266 Z37.606
G3 X45.271 Y86.487 I-0.809 J-1.36
G1 X41.752
X41.445 Y86.472
X41.067 Y86.422
X40.582 Y86.319
X39.925 Y86.122
X39.237 Y85.854
X38.566 Y85.548
X37.907 Y85.215
X37.26 Y84.862
X36.621 Y84.492
X35.992 Y84.106
X35.372 Y83.707
X34.76 Y83.294
X34.158 Y82.868
X33.565 Y82.429
X32.981 Y81.977
X32.407 Y81.514
X31.844 Y81.038
X31.29 Y80.55
X30.747 Y80.051
X30.214 Y79.54
X29.693 Y79.018
X29.182 Y78.485
X28.683 Y77.942
X28.196 Y77.388
X27.72 Y76.824
X27.256 Y76.251
X26.804 Y75.667
X26.365 Y75.075
X25.938 Y74.473
X25.524 Y73.862
X25.123 Y73.242
X24.736 Y72.615
X24.361 Y71.979
X24. Y71.335
X23.653 Y70.684
X23.32 Y70.026
X23. Y69.361
X22.695 Y68.69
X22.403 Y68.012
X22.127 Y67.328
X21.865 Y66.638
X21.617 Y65.943
X21.384 Y65.243
X21.166 Y64.538
X20.963 Y63.829
X20.775 Y63.115
X20.602 Y62.398
X20.444 Y61.677
X20.302 Y60.953
X20.174 Y60.227
X20.062 Y59.497
X19.966 Y58.766
X19.884 Y58.033
X19.818 Y57.298
X19.768 Y56.562
X19.732 Y55.825
X19.713 Y55.087
X19.709 Y54.349
X19.721 Y53.612
X19.748 Y52.874
X19.79 Y52.138
X19.848 Y51.402
X19.922 Y50.668
X20.011 Y49.936
X20.115 Y49.205
X20.235 Y48.477
X20.37 Y47.752
X20.52 Y47.029
X20.685 Y46.31
X20.866 Y45.595
X21.062 Y44.884
X21.272 Y44.176
X21.498 Y43.474
X21.738 Y42.776
X21.993 Y42.084
X22.262 Y41.397
X22.546 Y40.716
X22.844 Y40.041
X23.156 Y39.372
X23.482 Y38.71
X23.821 Y38.056
X24.175 Y37.408
X24.542 Y36.768
X24.922 Y36.135
X25.315 Y35.511
X25.722 Y34.896
X26.141 Y34.288
X26.573 Y33.69
X27.018 Y33.102
X27.475 Y32.522
X27.943 Y31.952
X28.424 Y31.393
X28.916 Y30.843
X29.42 Y30.304
X29.935 Y29.776
X30.461 Y29.258
X30.998 Y28.752
X31.545 Y28.257
X32.103 Y27.774
X32.671 Y27.303
X33.248 Y26.844
X33.835 Y26.397
X34.431 Y25.962
X35.037 Y25.541
X35.651 Y25.132
X36.273 Y24.735
X36.904 Y24.352
X37.542 Y23.983
X38.189 Y23.626
X38.842 Y23.284
X39.502 Y22.955
X39.971 Y22.733
X40.073 Y22.694
X40.179 Y22.67
X40.288 Y22.662
X43.559
G3 X43.735 Y23.236 I-0.011 J0.317
G1 X43.678 Y23.278 Z37.614
X43.624 Y23.317 Z37.638
X43.576 Y23.353 Z37.675
X43.535 Y23.383 Z37.726
X43.505 Y23.405 Z37.786
X43.486 Y23.419 Z37.853
X43.479 Y23.424 Z37.924
G0 Z44.106
X42.778 Y86.104
Z38.241
G1 Z37.924 F1016.
X42.772 Y86.108 Z37.853
X42.751 Y86.12 Z37.786
X42.719 Y86.139 Z37.726
X42.676 Y86.165 Z37.675
X42.624 Y86.196 Z37.638
X42.566 Y86.23 Z37.614
X42.505 Y86.266 Z37.606
G3 X41.752 Y86.487 I-0.809 J-1.36
G1 X39.071
X38.68 Y86.468
X38.377 Y86.428
X37.99 Y86.345
X37.504 Y86.2
X36.852 Y85.946
X36.188 Y85.624
X35.543 Y85.265
X34.913 Y84.882
X34.294 Y84.48
X33.686 Y84.063
X33.087 Y83.631
X32.499 Y83.186
X31.92 Y82.729
X31.35 Y82.26
X30.791 Y81.779
X30.241 Y81.287
X29.702 Y80.783
X29.173 Y80.269
X28.654 Y79.744
X28.146 Y79.209
X27.65 Y78.663
X27.164 Y78.108
X26.69 Y77.542
X26.227 Y76.968
X25.776 Y76.384
X25.338 Y75.791
X24.911 Y75.189
X24.497 Y74.578
X24.095 Y73.959
X23.706 Y73.332
X23.33 Y72.697
X22.967 Y72.055
X22.617 Y71.405
X22.281 Y70.749
X21.958 Y70.085
X21.648 Y69.416
X21.353 Y68.74
X21.071 Y68.058
X20.803 Y67.37
X20.549 Y66.678
X20.309 Y65.98
X20.083 Y65.277
X19.872 Y64.57
X19.676 Y63.859
X19.494 Y63.144
X19.326 Y62.426
X19.173 Y61.704
X19.035 Y60.979
X18.911 Y60.252
X18.802 Y59.522
X18.708 Y58.79
X18.629 Y58.057
X18.565 Y57.322
X18.515 Y56.586
X18.481 Y55.849
X18.461 Y55.111
X18.457 Y54.373
X18.467 Y53.636
X18.493 Y52.898
X18.534 Y52.162
X18.589 Y51.426
X18.66 Y50.691
X18.746 Y49.959
X18.846 Y49.228
X18.961 Y48.499
X19.091 Y47.773
X19.236 Y47.049
X19.396 Y46.329
X19.57 Y45.612
X19.758 Y44.898
X19.961 Y44.189
X20.179 Y43.484
X20.411 Y42.784
X20.657 Y42.088
X20.917 Y41.398
X21.191 Y40.712
X21.478 Y40.033
X21.78 Y39.36
X22.095 Y38.692
X22.423 Y38.032
X22.765 Y37.378
X23.119 Y36.731
X23.487 Y36.091
X23.868 Y35.459
X24.261 Y34.835
X24.667 Y34.219
X25.086 Y33.611
X25.517 Y33.013
X25.96 Y32.423
X26.415 Y31.842
X26.882 Y31.27
X27.36 Y30.708
X27.849 Y30.156
X28.35 Y29.614
X28.861 Y29.082
X29.383 Y28.561
X29.916 Y28.05
X30.459 Y27.551
X31.012 Y27.062
X31.574 Y26.585
X32.146 Y26.119
X32.728 Y25.665
X33.319 Y25.223
X33.918 Y24.793
X34.527 Y24.375
X35.143 Y23.97
X35.768 Y23.577
X36.4 Y23.197
X37.04 Y22.83
X37.179 Y22.753
X37.292 Y22.703
X37.412 Y22.673
X37.535 Y22.662
X40.288
G3 X40.464 Y23.236 I-0.011 J0.317
G1 X40.407 Y23.278 Z37.614
X40.353 Y23.317 Z37.638
X40.305 Y23.353 Z37.675
X40.264 Y23.383 Z37.726
X40.234 Y23.405 Z37.786
X40.215 Y23.419 Z37.853
X40.208 Y23.424 Z37.924
G0 Z44.106
X40.097 Y86.104
Z38.241
G1 Z37.924 F1016.
X40.09 Y86.108 Z37.853
X40.07 Y86.12 Z37.786
X40.038 Y86.139 Z37.726
X39.994 Y86.165 Z37.675
X39.943 Y86.196 Z37.638
X39.885 Y86.23 Z37.614
X39.824 Y86.266 Z37.606
G3 X39.071 Y86.487 I-0.809 J-1.36
G1 X36.557
X36.24 Y86.472
X35.977 Y86.437
X35.645 Y86.366
X35.253 Y86.249
X34.737 Y86.048
X34.074 Y85.726
X33.437 Y85.354
X32.819 Y84.95
X32.216 Y84.525
X31.625 Y84.083
X31.045 Y83.627
X30.476 Y83.157
X29.917 Y82.676
X29.367 Y82.184
X28.828 Y81.68
X28.299 Y81.166
X27.779 Y80.642
X27.271 Y80.107
X26.773 Y79.563
X26.286 Y79.008
X25.81 Y78.445
X25.346 Y77.872
X24.892 Y77.29
X24.45 Y76.699
X24.02 Y76.099
X23.602 Y75.492
X23.196 Y74.876
X22.802 Y74.252
X22.42 Y73.62
X22.051 Y72.981
X21.695 Y72.335
X21.351 Y71.682
X21.02 Y71.023
X20.703 Y70.357
X20.398 Y69.685
X20.107 Y69.007
X19.829 Y68.323
X19.565 Y67.635
X19.314 Y66.941
X19.077 Y66.242
X18.854 Y65.539
X18.645 Y64.831
X18.449 Y64.12
X18.268 Y63.405
X18.101 Y62.686
X17.948 Y61.964
X17.809 Y61.24
X17.684 Y60.512
X17.574 Y59.783
X17.478 Y59.051
X17.396 Y58.318
X17.329 Y57.583
X17.276 Y56.847
X17.238 Y56.111
X17.214 Y55.373
X17.205 Y54.635
X17.21 Y53.898
X17.23 Y53.16
X17.264 Y52.423
X17.313 Y51.687
X17.376 Y50.952
X17.454 Y50.218
X17.546 Y49.486
X17.652 Y48.756
X17.773 Y48.028
X17.908 Y47.303
X18.057 Y46.58
X18.22 Y45.86
X18.397 Y45.144
X18.589 Y44.432
X18.794 Y43.723
X19.013 Y43.019
X19.246 Y42.318
X19.493 Y41.623
X19.753 Y40.933
X20.027 Y40.248
X20.314 Y39.568
X20.615 Y38.894
X20.928 Y38.226
X21.255 Y37.565
X21.595 Y36.91
X21.947 Y36.261
X22.312 Y35.62
X22.689 Y34.986
X23.079 Y34.36
X23.481 Y33.741
X23.895 Y33.131
X24.321 Y32.528
X24.759 Y31.934
X25.209 Y31.349
X25.67 Y30.773
X26.142 Y30.206
X26.625 Y29.648
X27.119 Y29.1
X27.623 Y28.562
X28.138 Y28.033
X28.663 Y27.515
X29.199 Y27.008
X29.744 Y26.51
X30.299 Y26.024
X30.863 Y25.549
X31.436 Y25.084
X32.019 Y24.631
X32.61 Y24.19
X33.21 Y23.76
X33.818 Y23.342
X34.434 Y22.936
X34.687 Y22.777
X34.811 Y22.714
X34.944 Y22.675
X35.082 Y22.662
X37.535
G3 X37.712 Y23.236 I-0.011 J0.317
G1 X37.655 Y23.278 Z37.614
X37.601 Y23.317 Z37.638
X37.552 Y23.353 Z37.675
X37.511 Y23.383 Z37.726
X37.481 Y23.405 Z37.786
X37.462 Y23.419 Z37.853
X37.456 Y23.424 Z37.924
G0 Z44.106
X37.583 Y86.104
Z38.241
G1 Z37.924 F1016.
X37.577 Y86.108 Z37.853
X37.556 Y86.12 Z37.786
X37.524 Y86.139 Z37.726
X37.481 Y86.165 Z37.675
X37.429 Y86.196 Z37.638
X37.371 Y86.23 Z37.614
X37.31 Y86.266 Z37.606
G3 X36.557 Y86.487 I-0.809 J-1.36
G1 X34.211
X34.01 Y86.477
X33.77 Y86.446
X33.475 Y86.383
X33.134 Y86.281
X32.697 Y86.11
X32.133 Y85.837
X31.497 Y85.462
X30.887 Y85.047
X30.296 Y84.605
X29.72 Y84.144
X29.157 Y83.668
X28.604 Y83.179
X28.062 Y82.679
X27.53 Y82.167
X27.009 Y81.645
X26.498 Y81.113
X25.997 Y80.572
X25.506 Y80.021
X25.026 Y79.46
X24.557 Y78.891
X24.099 Y78.312
X23.652 Y77.725
X23.216 Y77.13
X22.792 Y76.526
X22.379 Y75.915
X21.978 Y75.296
X21.589 Y74.669
X21.212 Y74.035
X20.847 Y73.393
X20.494 Y72.745
X20.154 Y72.091
X19.826 Y71.43
X19.511 Y70.763
X19.208 Y70.09
X18.919 Y69.411
X18.642 Y68.727
X18.378 Y68.038
X18.128 Y67.344
X17.891 Y66.645
X17.667 Y65.942
X17.456 Y65.235
X17.26 Y64.524
X17.077 Y63.809
X16.907 Y63.091
X16.751 Y62.37
X16.609 Y61.646
X16.481 Y60.919
X16.367 Y60.19
X16.266 Y59.459
X16.18 Y58.727
X16.107 Y57.993
X16.048 Y57.257
X16.004 Y56.521
X15.973 Y55.783
X15.956 Y55.046
X15.953 Y54.308
X15.965 Y53.57
X15.99 Y52.833
X16.029 Y52.096
X16.083 Y51.36
X16.15 Y50.626
X16.231 Y49.892
X16.326 Y49.161
X16.435 Y48.431
X16.558 Y47.703
X16.695 Y46.978
X16.845 Y46.256
X17.009 Y45.537
X17.187 Y44.82
X17.378 Y44.108
X17.583 Y43.399
X17.801 Y42.694
X18.033 Y41.994
X18.278 Y41.298
X18.536 Y40.607
X18.807 Y39.92
X19.091 Y39.24
X19.388 Y38.564
X19.698 Y37.895
X20.021 Y37.231
X20.356 Y36.574
X20.704 Y35.923
X21.063 Y35.279
X21.435 Y34.642
X21.819 Y34.011
X22.215 Y33.389
X22.622 Y32.774
X23.042 Y32.167
X23.472 Y31.567
X23.914 Y30.977
X24.367 Y30.394
X24.831 Y29.821
X25.306 Y29.256
X25.792 Y28.7
X26.287 Y28.154
X26.794 Y27.617
X27.31 Y27.09
X27.836 Y26.573
X28.372 Y26.066
X28.917 Y25.569
X29.472 Y25.082
X30.035 Y24.606
X30.608 Y24.141
X31.19 Y23.687
X31.78 Y23.244
X32.379 Y22.813
X32.405 Y22.794
X32.536 Y22.722
X32.679 Y22.677
X32.827 Y22.662
X35.082
G3 X35.259 Y23.236 I-0.011 J0.317
G1 X35.202 Y23.278 Z37.614
X35.148 Y23.317 Z37.638
X35.099 Y23.353 Z37.675
X35.059 Y23.383 Z37.726
X35.028 Y23.405 Z37.786
X35.009 Y23.419 Z37.853
X35.003 Y23.424 Z37.924
G0 Z44.106
X35.237 Y86.104
Z38.241
G1 Z37.924 F1016.
X35.23 Y86.108 Z37.853
X35.21 Y86.12 Z37.786
X35.178 Y86.139 Z37.726
X35.134 Y86.165 Z37.675
X35.083 Y86.196 Z37.638
X35.025 Y86.23 Z37.614
X34.964 Y86.266 Z37.606
G3 X34.211 Y86.487 I-0.809 J-1.36
G1 X32.2
X31.909 Y86.473
X31.683 Y86.443
X31.419 Y86.387
X31.109 Y86.294
X30.725 Y86.145
X30.245 Y85.911
X29.622 Y85.545
X29.018 Y85.121
X28.438 Y84.665
X27.875 Y84.188
X27.326 Y83.695
X26.79 Y83.189
X26.264 Y82.671
X25.749 Y82.143
X25.244 Y81.604
X24.75 Y81.057
X24.266 Y80.5
X23.792 Y79.934
X23.329 Y79.36
X22.877 Y78.777
X22.435 Y78.186
X22.004 Y77.587
X21.585 Y76.98
X21.177 Y76.365
X20.78 Y75.743
X20.395 Y75.114
X20.021 Y74.478
X19.659 Y73.835
X19.309 Y73.185
X18.972 Y72.529
X18.646 Y71.867
X18.332 Y71.199
X18.031 Y70.526
X17.742 Y69.847
X17.466 Y69.163
X17.203 Y68.473
X16.952 Y67.78
X16.714 Y67.081
X16.489 Y66.378
X16.277 Y65.672
X16.079 Y64.961
X15.894 Y64.247
X15.721 Y63.529
X15.563 Y62.809
X15.417 Y62.086
X15.285 Y61.36
X15.166 Y60.631
X15.061 Y59.901
X14.969 Y59.169
X14.89 Y58.436
X14.825 Y57.701
X14.774 Y56.965
X14.736 Y56.228
X14.712 Y55.49
X14.701 Y54.753
X14.703 Y54.015
X14.72 Y53.277
X14.75 Y52.54
X14.793 Y51.803
X14.85 Y51.068
X14.921 Y50.333
X15.005 Y49.6
X15.102 Y48.869
X15.213 Y48.14
X15.337 Y47.412
X15.475 Y46.687
X15.625 Y45.965
X15.79 Y45.246
X15.967 Y44.53
X16.157 Y43.817
X16.361 Y43.108
X16.578 Y42.402
X16.808 Y41.701
X17.051 Y41.005
X17.306 Y40.313
X17.575 Y39.625
X17.856 Y38.943
X18.149 Y38.266
X18.455 Y37.595
X18.773 Y36.929
X19.103 Y36.269
X19.446 Y35.616
X19.8 Y34.968
X20.166 Y34.328
X20.544 Y33.694
X20.933 Y33.067
X21.334 Y32.448
X21.746 Y31.836
X22.169 Y31.231
X22.604 Y30.635
X23.049 Y30.047
X23.505 Y29.467
X23.971 Y28.895
X24.448 Y28.332
X24.935 Y27.778
X25.433 Y27.233
X25.94 Y26.697
X26.457 Y26.171
X26.983 Y25.654
X27.519 Y25.146
X28.064 Y24.649
X28.618 Y24.162
X29.181 Y23.685
X29.753 Y23.219
X30.262 Y22.82
X30.401 Y22.734
X30.556 Y22.681
X30.719 Y22.662
X32.827
G3 X33.004 Y23.236 I-0.011 J0.317
G1 X32.947 Y23.278 Z37.614
X32.893 Y23.317 Z37.638
X32.844 Y23.353 Z37.675
X32.804 Y23.383 Z37.726
X32.773 Y23.405 Z37.786
X32.754 Y23.419 Z37.853
X32.748 Y23.424 Z37.924
G0 Z44.106
X33.226 Y86.104
Z38.241
G1 Z37.924 F1016.
X33.219 Y86.108 Z37.853
X33.199 Y86.12 Z37.786
X33.167 Y86.139 Z37.726
X33.123 Y86.165 Z37.675
X33.072 Y86.196 Z37.638
X33.014 Y86.23 Z37.614
X32.953 Y86.266 Z37.606
G3 X32.2 Y86.487 I-0.809 J-1.36
G1 X30.189
X29.927 Y86.474
X29.709 Y86.446
X29.47 Y86.395
X29.183 Y86.309
X28.837 Y86.174
X28.414 Y85.969
X27.883 Y85.656
X27.279 Y85.232
X26.705 Y84.769
X26.152 Y84.281
X25.614 Y83.775
X25.091 Y83.255
X24.579 Y82.724
X24.078 Y82.182
X23.588 Y81.631
X23.108 Y81.07
X22.638 Y80.501
X22.179 Y79.924
X21.73 Y79.338
X21.292 Y78.745
X20.864 Y78.143
X20.447 Y77.534
X20.042 Y76.918
X19.647 Y76.295
X19.263 Y75.665
X18.891 Y75.027
X18.53 Y74.384
X18.181 Y73.734
X17.844 Y73.078
X17.518 Y72.416
X17.204 Y71.748
X16.902 Y71.075
X16.612 Y70.396
X16.335 Y69.713
X16.069 Y69.024
X15.817 Y68.331
X15.576 Y67.634
X15.348 Y66.932
X15.133 Y66.226
X14.931 Y65.517
X14.741 Y64.804
X14.565 Y64.087
X14.401 Y63.368
X14.25 Y62.646
X14.112 Y61.921
X13.986 Y61.194
X13.874 Y60.464
X13.775 Y59.733
X13.689 Y59.001
X13.616 Y58.266
