;FLAVOR:Marlin
;TIME:2076
;Filament used: 1.32211m
;Layer height: 0.1
;Generated with Cura_SteamEngine 1.2.1
M190 S35
M104 S220
M109 S220
G28
G1 Z50.00 F400
G92 E0
G1 F200 E3
G92 E0
M132 X Y Z A
M907 X100 Y100 Z50 A100
;LAYER_COUNT:62
;LAYER:0
M107
G0 F3600 X29.991 Y7.623 Z0.3
;TYPE:SKIRT
G1 F1500 X-29.991 Y7.623 E2.99251
G1 X-30.609 Y7.583 E3.02341
G1 X-31.217 Y7.464 E3.05432
G1 X-31.804 Y7.267 E3.08521
G1 X-32.361 Y6.997 E3.11609
G1 X-32.879 Y6.657 E3.147
G1 X-33.349 Y6.253 E3.17793
G1 X-33.762 Y5.792 E3.2088
G1 X-34.113 Y5.282 E3.23969
G1 X-34.396 Y4.731 E3.2706
G1 X-34.605 Y4.148 E3.30149
G1 X-34.737 Y3.542 E3.33244
G1 X-34.791 Y2.822 E3.36846
G1 X-34.79 Y-2.823 E3.65009
G1 X-34.77 Y-3.258 E3.67181
G1 X-34.362 Y-7.732 E3.89595
G1 X-34.138 Y-13.145 E4.16624
G1 X-34.219 Y-18.543 E4.43557
G1 X-34.372 Y-21.189 E4.5678
G1 X-34.77 Y-25.431 E4.78037
G1 X-34.791 Y-25.879 E4.80274
G1 X-34.791 Y-31.523 E5.08432
G1 X-34.751 Y-32.141 E5.11522
G1 X-34.632 Y-32.749 E5.14613
G1 X-34.435 Y-33.336 E5.17702
G1 X-34.165 Y-33.893 E5.2079
G1 X-33.825 Y-34.411 E5.23881
G1 X-33.421 Y-34.881 E5.26973
G1 X-32.96 Y-35.294 E5.30061
G1 X-32.45 Y-35.645 E5.3315
G1 X-31.899 Y-35.928 E5.3624
G1 X-31.316 Y-36.137 E5.3933
G1 X-30.71 Y-36.269 E5.42424
G1 X-29.991 Y-36.323 E5.46022
G1 X29.991 Y-36.322 E8.45273
G1 X30.609 Y-36.282 E8.48363
G1 X31.217 Y-36.163 E8.51454
G1 X31.804 Y-35.966 E8.54543
G1 X32.361 Y-35.696 E8.57631
G1 X32.879 Y-35.356 E8.60722
G1 X33.349 Y-34.952 E8.63814
G1 X33.762 Y-34.491 E8.66902
G1 X34.113 Y-33.981 E8.69991
G1 X34.396 Y-33.43 E8.73081
G1 X34.605 Y-32.846 E8.76176
G1 X34.737 Y-32.241 E8.79265
G1 X34.791 Y-31.521 E8.82867
G1 X34.79 Y-25.877 E9.11025
G1 X34.77 Y-25.442 E9.13198
G1 X34.362 Y-20.968 E9.35611
G1 X34.138 Y-15.555 E9.6264
G1 X34.219 Y-10.157 E9.89574
G1 X34.372 Y-7.511 E10.02797
G1 X34.77 Y-3.27 E10.24048
G1 X34.791 Y-2.822 E10.26286
G1 X34.791 Y2.823 E10.54449
G1 X34.751 Y3.441 E10.57538
G1 X34.632 Y4.049 E10.60629
G1 X34.435 Y4.636 E10.63718
G1 X34.165 Y5.193 E10.66806
G1 X33.825 Y5.711 E10.69898
G1 X33.421 Y6.181 E10.7299
G1 X32.96 Y6.594 E10.76078
G1 X32.45 Y6.945 E10.79167
G1 X31.899 Y7.228 E10.82257
G1 X31.316 Y7.437 E10.85347
G1 X30.71 Y7.569 E10.88441
G1 X29.991 Y7.623 E10.92038
G0 F3600 X29.991 Y7.223
G1 F1500 X-29.991 Y7.223 E13.9129
G1 X-30.583 Y7.183 E13.9425
G1 X-31.163 Y7.064 E13.97204
G1 X-31.723 Y6.868 E14.00164
G1 X-32.251 Y6.598 E14.03122
G1 X-32.738 Y6.26 E14.0608
G1 X-33.175 Y5.859 E14.09039
G1 X-33.555 Y5.404 E14.11996
G1 X-33.869 Y4.901 E14.14955
G1 X-34.114 Y4.361 E14.17913
G1 X-34.283 Y3.792 E14.20874
G1 X-34.374 Y3.207 E14.23828
G1 X-34.391 Y2.822 E14.25751
G1 X-34.39 Y-2.823 E14.53914
G1 X-34.372 Y-3.221 E14.55901
G1 X-33.962 Y-7.718 E14.7843
G1 X-33.739 Y-13.116 E15.05384
G1 X-33.821 Y-18.572 E15.32607
G1 X-33.974 Y-21.22 E15.4584
G1 X-34.372 Y-25.468 E15.67126
G1 X-34.391 Y-25.879 E15.69179
G1 X-34.391 Y-31.523 E15.97337
G1 X-34.351 Y-32.115 E16.00297
G1 X-34.232 Y-32.695 E16.03251
G1 X-34.036 Y-33.255 E16.06211
G1 X-33.766 Y-33.783 E16.0917
G1 X-33.428 Y-34.27 E16.12127
G1 X-33.027 Y-34.707 E16.15086
G1 X-32.572 Y-35.087 E16.18044
G1 X-32.069 Y-35.401 E16.21002
G1 X-31.529 Y-35.646 E16.2396
G1 X-30.96 Y-35.815 E16.26922
G1 X-30.375 Y-35.906 E16.29875
G1 X-29.991 Y-35.923 E16.31793
G1 X29.991 Y-35.922 E19.31044
G1 X30.583 Y-35.882 E19.34005
G1 X31.164 Y-35.763 E19.36963
G1 X31.723 Y-35.567 E19.39919
G1 X32.251 Y-35.297 E19.42877
G1 X32.738 Y-34.959 E19.45835
G1 X33.175 Y-34.558 E19.48794
G1 X33.555 Y-34.103 E19.51751
G1 X33.869 Y-33.6 E19.5471
G1 X34.114 Y-33.06 E19.57668
G1 X34.283 Y-32.491 E19.60629
G1 X34.374 Y-31.905 E19.63588
G1 X34.391 Y-31.521 E19.65506
G1 X34.39 Y-25.877 E19.93664
G1 X34.372 Y-25.479 E19.95651
G1 X33.962 Y-20.982 E20.1818
G1 X33.739 Y-15.584 E20.45134
G1 X33.821 Y-10.128 E20.72357
G1 X33.974 Y-7.48 E20.8559
G1 X34.372 Y-3.233 E21.06871
G1 X34.391 Y-2.822 E21.08924
G1 X34.391 Y2.823 E21.37087
G1 X34.351 Y3.415 E21.40047
G1 X34.232 Y3.995 E21.43001
G1 X34.036 Y4.555 E21.45961
G1 X33.766 Y5.083 E21.4892
G1 X33.428 Y5.57 E21.51877
G1 X33.027 Y6.007 E21.54836
G1 X32.572 Y6.387 E21.57794
G1 X32.069 Y6.701 E21.60752
G1 X31.529 Y6.946 E21.6371
G1 X30.96 Y7.115 E21.66672
G1 X30.375 Y7.206 E21.69625
G1 X29.991 Y7.223 E21.71543
G0 F3600 X29.991 Y6.823
G1 F1500 X-29.991 Y6.823 E24.70794
G1 X-30.555 Y6.783 E24.73615
G1 X-31.108 Y6.664 E24.76437
G1 X-31.638 Y6.468 E24.79257
G1 X-32.135 Y6.2 E24.82074
G1 X-32.59 Y5.864 E24.84896
G1 X-32.993 Y5.467 E24.87718
G1 X-33.335 Y5.017 E24.90538
G1 X-33.611 Y4.524 E24.93356
G1 X-33.815 Y3.996 E24.9618
G1 X-33.942 Y3.446 E24.98997
G1 X-33.991 Y2.822 E25.02119
G1 X-33.99 Y-2.823 E25.30282
G1 X-33.973 Y-3.185 E25.3209
G1 X-33.565 Y-7.666 E25.54539
G1 X-33.339 Y-13.123 E25.81787
G1 X-33.421 Y-18.601 E26.0912
G1 X-33.573 Y-21.224 E26.22228
G1 X-33.974 Y-25.505 E26.4368
G1 X-33.991 Y-25.879 E26.45547
G1 X-33.991 Y-31.523 E26.73705
G1 X-33.951 Y-32.087 E26.76526
G1 X-33.832 Y-32.64 E26.79348
G1 X-33.636 Y-33.17 E26.82168
G1 X-33.368 Y-33.667 E26.84985
G1 X-33.032 Y-34.122 E26.87807
G1 X-32.635 Y-34.525 E26.90629
G1 X-32.185 Y-34.867 E26.93449
G1 X-31.692 Y-35.143 E26.96268
G1 X-31.164 Y-35.347 E26.99091
G1 X-30.614 Y-35.474 E27.01908
G1 X-29.991 Y-35.523 E27.05025
G1 X29.991 Y-35.522 E30.04277
G1 X30.555 Y-35.482 E30.07098
G1 X31.108 Y-35.363 E30.0992
G1 X31.638 Y-35.167 E30.12739
G1 X32.135 Y-34.899 E30.15556
G1 X32.59 Y-34.563 E30.18378
G1 X32.993 Y-34.166 E30.212
G1 X33.335 Y-33.716 E30.2402
G1 X33.611 Y-33.223 E30.26839
G1 X33.815 Y-32.695 E30.29663
G1 X33.942 Y-32.145 E30.32479
G1 X33.991 Y-31.521 E30.35602
G1 X33.99 Y-25.877 E30.6376
G1 X33.973 Y-25.515 E30.65568
G1 X33.565 Y-21.034 E30.88016
G1 X33.339 Y-15.577 E31.15264
G1 X33.421 Y-10.099 E31.42597
G1 X33.573 Y-7.476 E31.55706
G1 X33.974 Y-3.196 E31.77152
G1 X33.991 Y-2.822 E31.7902
G1 X33.991 Y2.823 E32.07183
G1 X33.951 Y3.387 E32.10004
G1 X33.832 Y3.94 E32.12826
G1 X33.636 Y4.47 E32.15645
G1 X33.368 Y4.967 E32.18462
G1 X33.032 Y5.422 E32.21284
G1 X32.635 Y5.825 E32.24106
G1 X32.185 Y6.167 E32.26926
G1 X31.692 Y6.443 E32.29745
G1 X31.164 Y6.647 E32.32569
G1 X30.614 Y6.774 E32.35385
G1 X29.991 Y6.823 E32.38503
G0 F3600 X29.991 Y6.423
G1 F1500 X-29.991 Y6.423 E35.37754
G1 X-30.526 Y6.383 E35.40431
G1 X-31.049 Y6.264 E35.43107
G1 X-31.548 Y6.069 E35.4578
G1 X-32.013 Y5.801 E35.48457
G1 X-32.433 Y5.468 E35.51131
G1 X-32.799 Y5.076 E35.53807
G1 X-33.102 Y4.634 E35.56481
G1 X-33.337 Y4.151 E35.5916
G1 X-33.497 Y3.64 E35.61832
G1 X-33.58 Y3.11 E35.64508
G1 X-33.591 Y2.822 E35.65946
G1 X-33.59 Y-2.823 E35.94109
G1 X-33.575 Y-3.149 E35.95737
G1 X-33.164 Y-7.654 E36.18306
G1 X-32.938 Y-13.113 E36.45564
G1 X-33.021 Y-18.606 E36.72972
G1 X-33.176 Y-21.286 E36.86365
G1 X-33.575 Y-25.543 E37.07697
G1 X-33.591 Y-25.879 E37.09375
G1 X-33.591 Y-31.523 E37.37533
G1 X-33.551 Y-32.058 E37.40209
G1 X-33.432 Y-32.581 E37.42885
G1 X-33.237 Y-33.08 E37.45558
G1 X-32.969 Y-33.545 E37.48236
G1 X-32.636 Y-33.965 E37.5091
G1 X-32.244 Y-34.331 E37.53585
G1 X-31.802 Y-34.634 E37.56259
G1 X-31.319 Y-34.869 E37.58939
G1 X-30.808 Y-35.029 E37.6161
G1 X-30.278 Y-35.112 E37.64287
G1 X-29.991 Y-35.123 E37.6572
G1 X29.991 Y-35.122 E40.64971
G1 X30.526 Y-35.082 E40.67648
G1 X31.049 Y-34.963 E40.70323
G1 X31.548 Y-34.768 E40.72996
G1 X32.013 Y-34.5 E40.75674
G1 X32.433 Y-34.167 E40.78348
G1 X32.799 Y-33.775 E40.81024
G1 X33.102 Y-33.333 E40.83697
G1 X33.337 Y-32.85 E40.86377
G1 X33.497 Y-32.339 E40.89048
G1 X33.58 Y-31.809 E40.91725
G1 X33.591 Y-31.521 E40.93163
G1 X33.59 Y-25.877 E41.21321
G1 X33.575 Y-25.551 E41.22949
G1 X33.164 Y-21.046 E41.45518
G1 X32.938 Y-15.587 E41.72776
G1 X33.021 Y-10.094 E42.00184
G1 X33.175 Y-7.42 E42.13547
G1 X33.575 Y-3.158 E42.34903
G1 X33.591 Y-2.822 E42.36582
G1 X33.591 Y2.823 E42.64745
G1 X33.551 Y3.358 E42.67421
G1 X33.432 Y3.881 E42.70097
G1 X33.237 Y4.38 E42.7277
G1 X32.969 Y4.845 E42.75448
G1 X32.636 Y5.265 E42.78122
G1 X32.244 Y5.631 E42.80797
G1 X31.802 Y5.934 E42.83471
G1 X31.319 Y6.169 E42.86151
G1 X30.808 Y6.329 E42.88822
G1 X30.278 Y6.412 E42.91498
G1 X29.991 Y6.423 E42.92931
G0 F3600 X29.991 Y6.023
G1 F1500 X-29.991 Y6.023 E45.92183
G1 X-30.495 Y5.983 E45.94705
G1 X-30.986 Y5.864 E45.97226
G1 X-31.453 Y5.67 E45.99749
G1 X-31.883 Y5.404 E46.02271
G1 X-32.266 Y5.074 E46.04793
G1 X-32.592 Y4.687 E46.07318
G1 X-32.853 Y4.254 E46.0984
G1 X-33.043 Y3.786 E46.1236
G1 X-33.156 Y3.293 E46.14884
G1 X-33.191 Y2.822 E46.1724
G1 X-33.19 Y-2.823 E46.45403
G1 X-33.177 Y-3.112 E46.46846
G1 X-32.764 Y-7.64 E46.6953
G1 X-32.538 Y-13.102 E46.96804
G1 X-32.621 Y-18.612 E47.24296
G1 X-32.777 Y-21.318 E47.37819
G1 X-33.177 Y-25.58 E47.59176
G1 X-33.191 Y-25.879 E47.60669
G1 X-33.191 Y-31.523 E47.88827
G1 X-33.151 Y-32.027 E47.91349
G1 X-33.032 Y-32.518 E47.9387
G1 X-32.838 Y-32.985 E47.96393
G1 X-32.572 Y-33.415 E47.98915
G1 X-32.242 Y-33.798 E48.01438
G1 X-31.855 Y-34.124 E48.03962
G1 X-31.422 Y-34.385 E48.06484
G1 X-30.954 Y-34.575 E48.09004
G1 X-30.461 Y-34.688 E48.11528
G1 X-29.991 Y-34.723 E48.13879
G1 X29.991 Y-34.722 E51.1313
G1 X30.495 Y-34.682 E51.15653
G1 X30.986 Y-34.563 E51.18173
G1 X31.453 Y-34.368 E51.20698
G1 X31.883 Y-34.103 E51.23218
G1 X32.266 Y-33.773 E51.2574
G1 X32.592 Y-33.386 E51.28265
G1 X32.853 Y-32.953 E51.30787
G1 X33.043 Y-32.485 E51.33307
G1 X33.156 Y-31.992 E51.3583
G1 X33.191 Y-31.521 E51.38187
G1 X33.19 Y-25.877 E51.66345
G1 X33.177 Y-25.588 E51.67788
G1 X32.764 Y-21.06 E51.90472
G1 X32.538 Y-15.598 E52.17745
G1 X32.621 Y-10.088 E52.45238
G1 X32.777 Y-7.382 E52.58761
G1 X33.177 Y-3.121 E52.80112
G1 X33.191 Y-2.822 E52.81606
G1 X33.191 Y2.823 E53.09769
G1 X33.151 Y3.327 E53.12291
G1 X33.032 Y3.818 E53.14812
G1 X32.838 Y4.285 E53.17335
G1 X32.572 Y4.715 E53.19857
G1 X32.242 Y5.098 E53.22379
G1 X31.855 Y5.424 E53.24904
G1 X31.422 Y5.685 E53.27426
G1 X30.954 Y5.875 E53.29946
G1 X30.461 Y5.988 E53.3247
G1 X29.991 Y6.023 E53.34821
G1 F1500 E51.34821
G0 F3600 X29.386 Y3.497
G0 X29.386 Y2.218
G0 X29 Y1.832
;TYPE:WALL-INNER
G1 F1500 E53.43136
G1 X22.542 Y1.832 E53.75355
G1 X-22.577 Y1.832 E56.00455
G1 X-29 Y1.832 E56.32499
G1 X-29 Y1.734 E56.32988
G1 X-22.577 Y1.734 E56.40839
G1 X-22.577 Y-1.74 E56.58171
G1 X-29 Y-1.74 E56.90215
G1 X-29 Y-1.832 E56.90674
G1 X-22.577 Y-1.832 E56.98045
G1 X22.542 Y-1.832 E59.23144
G1 X29 Y-1.832 E59.55363
G1 X29 Y-1.74 E59.55822
G1 X22.542 Y-1.74 E59.63233
G1 X22.542 Y1.734 E59.80564
G1 X29 Y1.734 E59.88458
G1 X29 Y1.832 E59.88947
G0 F3600 X29.4 Y2.232
G1 F1500 X-29.4 Y2.232 E62.82301
G1 X-29.4 Y1.334 E62.86782
G1 X-22.977 Y1.334 E63.18826
G1 X-22.977 Y-1.34 E63.32167
G1 X-29.4 Y-1.34 E63.64211
G1 X-29.4 Y-2.232 E63.68661
G1 X29.4 Y-2.232 E66.62016
G1 X29.4 Y-1.34 E66.66466
G1 X22.942 Y-1.34 E66.98685
G1 X22.942 Y1.334 E67.12026
G1 X29.4 Y1.334 E67.44245
G1 X29.4 Y2.232 E67.48725
G0 F3600 X29.8 Y2.632
;TYPE:WALL-OUTER
G1 F1500 X-29.8 Y2.632 E70.46071
G1 X-29.8 Y0.934 E70.54542
G1 X-23.377 Y0.934 E70.86586
G1 X-23.377 Y-.94 E70.95936
G1 X-29.8 Y-.94 E71.2798
G1 X-29.8 Y-2.632 E71.36422
G1 X29.8 Y-2.632 E74.33767
G1 X29.8 Y-.94 E74.42209
G1 X23.342 Y-.94 E74.74428
G1 X23.342 Y0.934 E74.83777
G1 X29.8 Y0.934 E75.15996
G1 X29.8 Y2.632 E75.24468
G0 F3600 X29.6 Y2.632
G0 X29.33 Y2.162
G0 X22.914 Y1.362
G0 X22.342 Y-1.632
G0 X22.087 Y-1.671
;TYPE:SKIN
G1 F1500 X22.381 Y-1.377 E75.26542
G0 F3600 X22.381 Y-.811
G1 F1500 X21.521 Y-1.671 E75.3261
G1 X21.451 Y-1.741
G0 F3600 X20.955 Y-1.671
G1 F1500 X22.381 Y-.246 E75.42668
G1 X22.451 Y-.176
G0 F3600 X22.381 Y0.319
G1 F1500 X20.39 Y-1.671 E75.56712
G1 X20.32 Y-1.741
G0 F3600 X19.824 Y-1.671
G1 F1500 X22.381 Y0.885 E75.74749
G1 X22.451 Y0.955
G0 F3600 X22.381 Y1.45
G1 F1500 X19.258 Y-1.671 E75.96776
G1 X19.188 Y-1.741
G0 F3600 X18.693 Y-1.671
G1 F1500 X22.036 Y1.671 E76.2036
G1 X22.106 Y1.741
G0 F3600 X21.47 Y1.671
G1 F1500 X18.127 Y-1.671 E76.43943
G1 X18.057 Y-1.741
G0 F3600 X17.561 Y-1.671
G1 F1500 X20.904 Y1.671 E76.67526
G1 X20.974 Y1.741
G0 F3600 X20.339 Y1.671
G1 F1500 X16.996 Y-1.671 E76.91109
G1 X16.926 Y-1.741
G0 F3600 X16.43 Y-1.671
G1 F1500 X19.773 Y1.671 E77.14692
G1 X19.843 Y1.741
G0 F3600 X19.207 Y1.671
G1 F1500 X15.864 Y-1.671 E77.38275
G1 X15.794 Y-1.741
G0 F3600 X15.298 Y-1.671
G1 F1500 X18.642 Y1.671 E77.61862
G1 X18.712 Y1.741
G0 F3600 X18.076 Y1.671
G1 F1500 X14.733 Y-1.671 E77.85445
G1 X14.663 Y-1.741
G0 F3600 X14.167 Y-1.671
G1 F1500 X17.51 Y1.671 E78.09028
G1 X17.58 Y1.741
G0 F3600 X16.945 Y1.671
G1 F1500 X13.601 Y-1.671 E78.32615
G1 X13.531 Y-1.741
G0 F3600 X13.036 Y-1.671
G1 F1500 X16.379 Y1.671 E78.56198
G1 X16.449 Y1.741
G0 F3600 X15.813 Y1.671
G1 F1500 X12.47 Y-1.671 E78.79781
G1 X12.4 Y-1.741
G0 F3600 X11.904 Y-1.671
G1 F1500 X15.248 Y1.671 E79.03368
G1 X15.318 Y1.741
G0 F3600 X14.682 Y1.671
G1 F1500 X11.339 Y-1.671 E79.26951
G1 X11.269 Y-1.741
G0 F3600 X10.773 Y-1.671
G1 F1500 X14.116 Y1.671 E79.50534
G1 X14.186 Y1.741
G0 F3600 X13.55 Y1.671
G1 F1500 X10.207 Y-1.671 E79.74117
G1 X10.137 Y-1.741
G0 F3600 X9.642 Y-1.671
G1 F1500 X12.985 Y1.671 E79.977
G1 X13.055 Y1.741
G0 F3600 X12.419 Y1.671
G1 F1500 X9.076 Y-1.671 E80.21284
G1 X9.006 Y-1.741
G0 F3600 X8.51 Y-1.671
G1 F1500 X11.853 Y1.671 E80.44867
G1 X11.923 Y1.741
G0 F3600 X11.288 Y1.671
G1 F1500 X7.945 Y-1.671 E80.6845
G1 X7.875 Y-1.741
G0 F3600 X7.379 Y-1.671
G1 F1500 X10.722 Y1.671 E80.92033
G1 X10.792 Y1.741
G0 F3600 X10.156 Y1.671
G1 F1500 X6.813 Y-1.671 E81.15616
G1 X6.743 Y-1.741
G0 F3600 X6.247 Y-1.671
G1 F1500 X9.591 Y1.671 E81.39203
G1 X9.661 Y1.741
G0 F3600 X9.025 Y1.671
G1 F1500 X5.682 Y-1.671 E81.62786
G1 X5.612 Y-1.741
G0 F3600 X5.116 Y-1.671
G1 F1500 X8.459 Y1.671 E81.86369
G1 X8.529 Y1.741
G0 F3600 X7.894 Y1.671
G1 F1500 X4.55 Y-1.671 E82.09956
G1 X4.48 Y-1.741
G0 F3600 X3.985 Y-1.671
G1 F1500 X7.328 Y1.671 E82.33539
G1 X7.398 Y1.741
G0 F3600 X6.762 Y1.671
G1 F1500 X3.419 Y-1.671 E82.57122
G1 X3.349 Y-1.741
G0 F3600 X2.853 Y-1.671
G1 F1500 X6.197 Y1.671 E82.80709
G1 X6.267 Y1.741
G0 F3600 X5.631 Y1.671
G1 F1500 X2.288 Y-1.671 E83.04292
G1 X2.218 Y-1.741
G0 F3600 X1.722 Y-1.671
G1 F1500 X5.065 Y1.671 E83.27875
G1 X5.135 Y1.741
G0 F3600 X4.5 Y1.671
G1 F1500 X1.156 Y-1.671 E83.51462
G1 X1.086 Y-1.741
G0 F3600 X0.591 Y-1.671
G1 F1500 X3.934 Y1.671 E83.75045
G1 X4.004 Y1.741
G0 F3600 X3.368 Y1.671
G1 F1500 X0.025 Y-1.671 E83.98628
G1 X-0.045 Y-1.741
G0 F3600 X-.54 Y-1.671
G1 F1500 X2.802 Y1.671 E84.22208
G1 X2.872 Y1.741
G0 F3600 X2.237 Y1.671
G1 F1500 X-1.105 Y-1.671 E84.45787
G1 X-1.175 Y-1.741
G0 F3600 X-1.671 Y-1.671
G1 F1500 X1.671 Y1.671 E84.69367
G1 X1.741 Y1.741
G0 F3600 X1.105 Y1.671
G1 F1500 X-2.237 Y-1.671 E84.92946
G1 X-2.307 Y-1.741
G0 F3600 X-2.802 Y-1.671
G1 F1500 X0.54 Y1.671 E85.16526
G1 X0.61 Y1.741
G0 F3600 X-0.025 Y1.671
G1 F1500 X-3.368 Y-1.671 E85.40109
G1 X-3.438 Y-1.741
G0 F3600 X-3.934 Y-1.671
G1 F1500 X-.591 Y1.671 E85.63692
G1 X-.521 Y1.741
G0 F3600 X-1.156 Y1.671
G1 F1500 X-4.5 Y-1.671 E85.87279
G1 X-4.57 Y-1.741
G0 F3600 X-5.065 Y-1.671
G1 F1500 X-1.722 Y1.671 E86.10862
G1 X-1.652 Y1.741
G0 F3600 X-2.288 Y1.671
G1 F1500 X-5.631 Y-1.671 E86.34445
G1 X-5.701 Y-1.741
G0 F3600 X-6.197 Y-1.671
G1 F1500 X-2.853 Y1.671 E86.58032
G1 X-2.783 Y1.741
G0 F3600 X-3.419 Y1.671
G1 F1500 X-6.762 Y-1.671 E86.81615
G1 X-6.832 Y-1.741
G0 F3600 X-7.328 Y-1.671
G1 F1500 X-3.985 Y1.671 E87.05198
G1 X-3.915 Y1.741
G0 F3600 X-4.55 Y1.671
G1 F1500 X-7.894 Y-1.671 E87.28785
G1 X-7.964 Y-1.741
G0 F3600 X-8.459 Y-1.671
G1 F1500 X-5.116 Y1.671 E87.52368
G1 X-5.046 Y1.741
G0 F3600 X-5.682 Y1.671
