(ELEVATOR)
(T1  D=0.792 CR=0. - ZMIN=-1. - FLAT END MILL)
G0 G90 G94 G17
G21
G53 G0 Z0.

(2D CONTOUR1)
M5
M9
T1
S16500 M3
G4 P4.
G55
M8
G0 X-9.476 Y-0.026
Z15.
Z5.
G1 Z1. F356.
Z-0.921 F51.
X-9.482 Z-0.951
X-9.499 Y-0.025 Z-0.977
X-9.525 Y-0.024 Z-0.994
X-9.555 Y-0.022 Z-1.
X-9.635 Y-0.019 F356.
X-9.665 Y-0.023
X-9.692 Y-0.039
X-9.71 Y-0.064
X-9.717 Y-0.094
G2 X-13.838 Y0. I-2.059 J0.094
G1 Y0.015
G2 X-11.776 Y2.061 I2.061 J-0.015
X-9.717 Y-0.094 I0. J-2.061
G1 X-9.713 Y-0.125
X-9.697 Y-0.151
X-9.672 Y-0.17
X-9.642 Y-0.177
X-9.563 Y-0.181
X-9.532 Y-0.182 Z-0.994
X-9.507 Y-0.183 Z-0.977
X-9.49 Y-0.184 Z-0.951
X-9.484 Z-0.921
G0 Z5.
X12.524 Y-3.039
G1 Z1. F51.
Z-0.921
Y-3.033 Z-0.951
X12.525 Y-3.016 Z-0.977
X12.527 Y-2.99 Z-0.994
X12.528 Y-2.96 Z-1.
X12.532 Y-2.881 F356.
X12.527 Y-2.85
X12.512 Y-2.823
X12.487 Y-2.805
X12.457 Y-2.797
X12.401 Y-2.795
X12.374 Y-2.792
X12.319 Y-2.786
X12.292 Y-2.782
X12.237 Y-2.771
X12.211 Y-2.765
X12.158 Y-2.751
X12.132 Y-2.744
X12.08 Y-2.726
X12.055 Y-2.717
X12.004 Y-2.696
X11.979 Y-2.685
X11.93 Y-2.66
X11.906 Y-2.648
X11.859 Y-2.62
X11.836 Y-2.606
X11.79 Y-2.575
X11.768 Y-2.559
X11.724 Y-2.525
X11.704 Y-2.507
X11.662 Y-2.47
X11.642 Y-2.451
X11.603 Y-2.411
X11.585 Y-2.391
X11.549 Y-2.348
X11.532 Y-2.327
X11.5 Y-2.282
X11.484 Y-2.26
X11.455 Y-2.213
X11.441 Y-2.19
X11.415 Y-2.142
X11.403 Y-2.117
X11.38 Y-2.067
X11.37 Y-2.042
X11.35 Y-1.99
X11.342 Y-1.965
X11.326 Y-1.912
X11.319 Y-1.885
X11.307 Y-1.831
X11.302 Y-1.806
X11.293 Y-1.751
X11.29 Y-1.724
X11.285 Y-1.669
X11.283 Y-1.641
X11.282 Y-1.586
X11.283 Y-1.559
X11.286 Y-1.504
X11.288 Y-1.476
X11.295 Y-1.421
X11.299 Y-1.395
X11.309 Y-1.34
X11.315 Y-1.314
X11.329 Y-1.261
X11.337 Y-1.235
X11.355 Y-1.182
X11.364 Y-1.158
X11.385 Y-1.107
X11.396 Y-1.083
X11.42 Y-1.034
X11.433 Y-1.01
X11.461 Y-0.962
X11.475 Y-0.94
X11.505 Y-0.894
X11.521 Y-0.872
X11.555 Y-0.828
X11.573 Y-0.807
X11.61 Y-0.766
X11.629 Y-0.746
X11.668 Y-0.708
X11.689 Y-0.689
X11.731 Y-0.653
X11.752 Y-0.637
X11.796 Y-0.604
X11.819 Y-0.589
X11.865 Y-0.559
X11.888 Y-0.545
X11.937 Y-0.519
X11.961 Y-0.507
X12.011 Y-0.484
X12.037 Y-0.473
X12.089 Y-0.454
X12.114 Y-0.445
X12.167 Y-0.429
X12.193 Y-0.422
X12.247 Y-0.41
X12.274 Y-0.405
X12.328 Y-0.396
X12.355 Y-0.393
X12.41 Y-0.388
X12.437 Y-0.387
X12.493 Y-0.386
X12.523 Y-0.379
X12.549 Y-0.361
X12.565 Y-0.335
X12.571 Y-0.305
X12.569 Y-0.226
Y-0.195 Z-0.994
X12.568 Y-0.169 Z-0.977
Y-0.152 Z-0.951
Y-0.146 Z-0.921
G0 Z5.
X20.388 Y-2.591
G1 Z-0.921 F51.
X20.382 Z-0.951 F356.
X20.365 Z-0.977
X20.339 Z-0.994
X20.309 Z-1.
X18.343
X18.312 Y-2.597
X18.287 Y-2.614
X18.27 Y-2.64
X18.264 Y-2.67
Y-3.1
G2 X17.909 Y-3.494 I-0.396 J0.
G1 X-1.502 Y-5.534
X-1.506
X-11.752 Y-6.501
X-11.79 Y-6.503
G2 X-11.801 Y6.503 I0.013 J6.503
G1 X-11.73 Y6.497
X-3.557 Y5.05
X-3.547 Y5.048
X4.14 Y3.499
X4.149 Y3.497
X11.198 Y1.902
X11.207 Y1.9
X17.98 Y0.199
G2 X18.28 Y-0.186 I-0.097 J-0.384
G1 Y-0.862
G2 X17.878 Y-1.258 I-0.396 J0.
G1 X12.501 Y-1.178
X12.5
X12.499 Y-1.179 Z-0.999
X12.498 Z-0.998
X12.497 Y-1.18 Z-0.997
Z-0.995
G0 Z15.

M9
G53 Z0.
M30
