(1001)
(T1  D=0.792 CR=0. - ZMIN=-2.6 - FLAT END MILL)
G0 G90 G94 G17
G21
G53 G0 Z0.

(2D CONTOUR1)
M5
M9
T1
S16500 M3
G4 P4.
G55
M8
G0 X-4.162 Y3.369
Z15.
Z5.
G1 Z1. F356.
Z-0.921 F51.
X-4.156 Z-0.951
X-4.138 Z-0.977
X-4.113 Z-0.994
X-4.082 Z-1.
X-4.003 F356.
X-3.973 Y3.375
X-3.947 Y3.392
X-3.93 Y3.418
X-3.924 Y3.448
Y8.742
G2 X-3.523 Y9.139 I0.396 J0.
G1 X-2.459 Y9.125
X-2.447
X1.917 Y8.936
X1.929
X7.838 Y8.495
X7.85 Y8.494
X14.808 Y7.763
X14.818 Y7.762
X22.201 Y6.796
X22.21 Y6.795
X30.005 Y5.595
X30.014 Y5.594
X32.175 Y5.211
X32.244 Y5.193
G2 X31.218 Y-7.293 I-2.256 J-6.099
G1 X31.18 Y-7.298
X27.136 Y-7.68
X27.129
X20.174 Y-8.212
G2 X19.748 Y-7.817 I-0.03 J0.395
G1 Y-2.576
G3 X18.92 I-0.414 J0.
G1 Y-7.941
G2 X18.554 Y-8.336 I-0.396 J0.
G1 X17.226 Y-8.438
X17.217
X8.739 Y-8.898
X8.729
X0.955 Y-9.133
X0.945
X-6.616 Y-9.171
X-6.626 Y-9.17
X-13.717 Y-9.018
X-13.728
X-18.047 Y-8.8
G2 X-18.423 Y-8.405 I0.02 J0.396
G1 Y-3.066
G3 X-19.251 I-0.414 J0.
G1 Y-8.323
G2 X-19.667 Y-8.719 I-0.396 J0.
G1 X-19.741 Y-8.715
X-19.754 Y-8.714
X-23.768 Y-8.382
X-23.781 Y-8.381
X-26.345 Y-8.08
X-26.359 Y-8.078
X-28.098 Y-7.813
X-28.111 Y-7.811
X-29.183 Y-7.612
X-29.195 Y-7.61
X-30.199 Y-7.391
X-30.212 Y-7.388
X-30.917 Y-7.21
X-30.93 Y-7.206
X-31.597 Y-7.015
X-31.608 Y-7.011
X-32.028 Y-6.877
X-32.039 Y-6.873
X-32.441 Y-6.732
X-32.452 Y-6.728
X-32.836 Y-6.581
X-32.848 Y-6.576
X-33.213 Y-6.423
X-33.223 Y-6.418
X-33.397 Y-6.34
X-33.403 Y-6.337
X-33.573 Y-6.256
X-33.58 Y-6.252
X-33.745 Y-6.17
X-33.752 Y-6.166
X-33.912 Y-6.083
X-33.92 Y-6.079
X-34.075 Y-5.993
X-34.082 Y-5.989
X-34.233 Y-5.901
X-34.241 Y-5.897
X-34.386 Y-5.808
X-34.393 Y-5.803
X-34.533 Y-5.713
X-34.542 Y-5.707
X-34.677 Y-5.615
X-34.685 Y-5.609
X-34.815 Y-5.515
X-34.824 Y-5.509
X-34.948 Y-5.414
X-34.957 Y-5.407
X-35.077 Y-5.31
X-35.086 Y-5.303
X-35.2 Y-5.205
X-35.209 Y-5.197
X-35.319 Y-5.097
X-35.328 Y-5.088
X-35.432 Y-4.987
X-35.441 Y-4.978
X-35.54 Y-4.875
X-35.55 Y-4.865
X-35.644 Y-4.759
X-35.651 Y-4.752
X-35.695 Y-4.7
X-35.7 Y-4.694
X-35.744 Y-4.641
X-35.748 Y-4.636
X-35.79 Y-4.582
X-35.795 Y-4.577
X-35.836 Y-4.523
X-35.841 Y-4.516
X-35.881 Y-4.462
X-35.885 Y-4.456
X-35.924 Y-4.401
X-35.928 Y-4.395
X-35.965 Y-4.34
X-35.97 Y-4.334
X-36.006 Y-4.278
X-36.01 Y-4.272
X-36.045 Y-4.216
X-36.049 Y-4.209
X-36.083 Y-4.153
X-36.087 Y-4.146
X-36.119 Y-4.09
X-36.123 Y-4.083
X-36.154 Y-4.026
X-36.158 Y-4.018
X-36.188 Y-3.961
X-36.191 Y-3.954
X-36.22 Y-3.896
X-36.224 Y-3.888
X-36.251 Y-3.83
X-36.254 Y-3.823
X-36.28 Y-3.764
X-36.284 Y-3.757
X-36.309 Y-3.697
X-36.312 Y-3.69
X-36.336 Y-3.63
X-36.339 Y-3.622
X-36.361 Y-3.562
X-36.364 Y-3.555
X-36.385 Y-3.495
X-36.388 Y-3.486
X-36.408 Y-3.425
X-36.41 Y-3.418
X-36.429 Y-3.357
X-36.432 Y-3.347
X-36.434 Y-3.339
G2 X-36.046 Y-2.837 I0.382 J0.107
G1 X-30.806 Y-2.914
G3 X-30.794 Y-2.087 I0.006 J0.414
G1 X-36.101 Y-2.008
G2 X-36.481 Y-1.523 I0.006 J0.396
G1 X-36.468 Y-1.467
X-36.467 Y-1.46
X-36.45 Y-1.391
X-36.448 Y-1.384
X-36.43 Y-1.316
X-36.428 Y-1.31
X-36.408 Y-1.241
X-36.406 Y-1.234
X-36.385 Y-1.166
X-36.382 Y-1.157
X-36.335 Y-1.018
X-36.33 Y-1.004
X-36.278 Y-0.865
X-36.273 Y-0.853
X-36.215 Y-0.713
X-36.21 Y-0.701
X-36.147 Y-0.56
X-36.141 Y-0.549
X-36.072 Y-0.407
X-36.066 Y-0.396
X-35.991 Y-0.252
X-35.985 Y-0.243
X-35.904 Y-0.098
X-35.898 Y-0.089
X-35.811 Y0.056
X-35.805 Y0.065
X-35.712 Y0.211
X-35.706 Y0.22
X-35.606 Y0.367
X-35.6 Y0.375
X-35.495 Y0.523
X-35.489 Y0.531
X-35.377 Y0.679
X-35.371 Y0.686
X-35.253 Y0.835
X-35.247 Y0.843
X-35.123 Y0.992
X-35.117 Y0.999
X-34.987 Y1.149
X-34.981 Y1.156
X-34.844 Y1.306
X-34.838 Y1.312
X-34.695 Y1.464
X-34.689 Y1.47
X-34.539 Y1.621
X-34.534 Y1.627
X-34.377 Y1.779
X-34.372 Y1.784
X-34.209 Y1.937
X-34.204 Y1.942
X-34.034 Y2.095
X-34.029 Y2.099
X-33.853 Y2.252
X-33.848 Y2.257
X-33.666 Y2.409
X-33.658 Y2.416
X-33.272 Y2.723
X-33.262 Y2.731
X-32.85 Y3.038
X-32.84 Y3.045
X-32.401 Y3.351
X-32.391 Y3.357
X-31.925 Y3.662
X-31.915 Y3.668
X-31.421 Y3.97
X-31.412 Y3.976
X-30.891 Y4.276
X-30.881 Y4.281
X-30.332 Y4.578
X-30.323 Y4.582
X-29.747 Y4.875
X-29.738 Y4.879
X-29.133 Y5.167
X-29.124 Y5.171
X-28.493 Y5.454
X-28.482 Y5.458
X-27.482 Y5.87
X-27.47 Y5.875
X-26.41 Y6.27
X-26.398 Y6.275
X-25.28 Y6.651
X-25.268 Y6.655
X-24.091 Y7.01
X-24.08 Y7.013
X-22.847 Y7.345
X-22.836 Y7.348
X-21.55 Y7.655
X-21.54 Y7.657
X-20.203 Y7.937
X-20.191 Y7.94
X-18.331 Y8.27
X-18.318 Y8.272
X-16.375 Y8.552
X-16.363 Y8.554
X-14.338 Y8.781
X-14.327 Y8.782
X-12.227 Y8.957
X-12.215 Y8.958
X-9.486 Y9.103
X-9.473
X-6.049 Y9.17
X-6.037 Y9.171
X-5.143 Y9.159
G2 X-4.752 Y8.763 I-0.005 J-0.396
G1 Y3.448
G3 X-3.924 I0.414 J0.
G1 X-3.93 Y3.478
X-3.947 Y3.504
X-3.973 Y3.521
X-4.003 Y3.527
X-4.082
X-4.113 Z-0.994
X-4.138 Z-0.977
X-4.156 Z-0.951
X-4.162 Z-0.921
G0 Z5.
X31.019 Y-0.986
G1 Z1. F51.
Z-0.921
X31.025 Z-0.951
X31.042 Z-0.977
X31.068 Z-0.994
X31.098 Z-1.
X31.178 F356.
X31.208 Y-0.98
X31.234 Y-0.963
X31.251 Y-0.937
X31.257 Y-0.907
G3 X28.719 I-1.269 J0.
X31.257 I1.269 J0.
G1 X31.251 Y-0.877
X31.234 Y-0.851
X31.208 Y-0.834
X31.178 Y-0.828
X31.098
X31.068 Z-0.994
X31.042 Z-0.977
X31.025 Z-0.951
X31.019 Z-0.921
G0 Z15.
X-4.162 Y3.369
Z5.
G1 Z1. F356.
Z-2.521 F51.
X-4.156 Z-2.551
X-4.138 Z-2.577
X-4.113 Z-2.594
X-4.082 Z-2.6
X-4.003 F356.
X-3.973 Y3.375
X-3.947 Y3.392
X-3.93 Y3.418
X-3.924 Y3.448
Y8.742
G2 X-3.523 Y9.139 I0.396 J0.
G1 X-2.459 Y9.125
X-2.447
X1.917 Y8.936
X1.929
X7.838 Y8.495
X7.85 Y8.494
X14.808 Y7.763
X14.818 Y7.762
X22.201 Y6.796
X22.21 Y6.795
X30.005 Y5.595
X30.014 Y5.594
X32.175 Y5.211
X32.244 Y5.193
G2 X31.218 Y-7.293 I-2.256 J-6.099
G1 X31.18 Y-7.298
X27.136 Y-7.68
X27.129
X20.174 Y-8.212
G2 X19.748 Y-7.817 I-0.03 J0.395
G1 Y-2.576
G3 X18.92 I-0.414 J0.
G1 Y-7.941
G2 X18.554 Y-8.336 I-0.396 J0.
G1 X17.226 Y-8.438
X17.217
X8.739 Y-8.898
X8.729
X0.955 Y-9.133
X0.945
X-6.616 Y-9.171
X-6.626 Y-9.17
X-13.717 Y-9.018
X-13.728
X-18.047 Y-8.8
G2 X-18.423 Y-8.405 I0.02 J0.396
G1 Y-3.066
G3 X-19.251 I-0.414 J0.
G1 Y-8.323
G2 X-19.667 Y-8.719 I-0.396 J0.
G1 X-19.741 Y-8.715
X-19.754 Y-8.714
X-23.768 Y-8.382
X-23.781 Y-8.381
X-26.345 Y-8.08
X-26.359 Y-8.078
X-28.098 Y-7.813
X-28.111 Y-7.811
X-29.183 Y-7.612
X-29.195 Y-7.61
X-30.199 Y-7.391
X-30.212 Y-7.388
X-30.917 Y-7.21
X-30.93 Y-7.206
X-31.597 Y-7.015
X-31.608 Y-7.011
X-32.028 Y-6.877
X-32.039 Y-6.873
X-32.441 Y-6.732
X-32.452 Y-6.728
X-32.836 Y-6.581
X-32.848 Y-6.576
X-33.213 Y-6.423
X-33.223 Y-6.418
X-33.397 Y-6.34
X-33.403 Y-6.337
X-33.573 Y-6.256
X-33.58 Y-6.252
X-33.745 Y-6.17
X-33.752 Y-6.166
X-33.912 Y-6.083
X-33.92 Y-6.079
X-34.075 Y-5.993
X-34.082 Y-5.989
X-34.233 Y-5.901
X-34.241 Y-5.897
X-34.386 Y-5.808
X-34.393 Y-5.803
X-34.533 Y-5.713
X-34.542 Y-5.707
X-34.677 Y-5.615
X-34.685 Y-5.609
X-34.815 Y-5.515
X-34.824 Y-5.509
X-34.948 Y-5.414
X-34.957 Y-5.407
X-35.077 Y-5.31
X-35.086 Y-5.303
X-35.2 Y-5.205
X-35.209 Y-5.197
X-35.319 Y-5.097
X-35.328 Y-5.088
X-35.432 Y-4.987
X-35.441 Y-4.978
X-35.54 Y-4.875
X-35.55 Y-4.865
X-35.644 Y-4.759
X-35.651 Y-4.752
X-35.695 Y-4.7
X-35.7 Y-4.694
X-35.744 Y-4.641
X-35.748 Y-4.636
X-35.79 Y-4.582
X-35.795 Y-4.577
X-35.836 Y-4.523
X-35.841 Y-4.516
X-35.881 Y-4.462
X-35.885 Y-4.456
X-35.924 Y-4.401
X-35.928 Y-4.395
X-35.965 Y-4.34
X-35.97 Y-4.334
X-36.006 Y-4.278
X-36.01 Y-4.272
X-36.045 Y-4.216
X-36.049 Y-4.209
X-36.083 Y-4.153
X-36.087 Y-4.146
X-36.119 Y-4.09
X-36.123 Y-4.083
X-36.154 Y-4.026
X-36.158 Y-4.018
X-36.188 Y-3.961
X-36.191 Y-3.954
X-36.22 Y-3.896
X-36.224 Y-3.888
X-36.251 Y-3.83
X-36.254 Y-3.823
X-36.28 Y-3.764
X-36.284 Y-3.757
X-36.309 Y-3.697
X-36.312 Y-3.69
X-36.336 Y-3.63
X-36.339 Y-3.622
X-36.361 Y-3.562
X-36.364 Y-3.555
X-36.385 Y-3.495
X-36.388 Y-3.486
X-36.408 Y-3.425
X-36.41 Y-3.418
X-36.429 Y-3.357
X-36.432 Y-3.347
X-36.434 Y-3.339
G2 X-36.046 Y-2.837 I0.382 J0.107
G1 X-30.806 Y-2.914
G3 X-30.794 Y-2.087 I0.006 J0.414
G1 X-36.101 Y-2.008
G2 X-36.481 Y-1.523 I0.006 J0.396
G1 X-36.468 Y-1.467
X-36.467 Y-1.46
X-36.45 Y-1.391
X-36.448 Y-1.384
X-36.43 Y-1.316
X-36.428 Y-1.31
X-36.408 Y-1.241
X-36.406 Y-1.234
X-36.385 Y-1.166
X-36.382 Y-1.157
X-36.335 Y-1.018
X-36.33 Y-1.004
X-36.278 Y-0.865
X-36.273 Y-0.853
X-36.215 Y-0.713
X-36.21 Y-0.701
X-36.147 Y-0.56
X-36.141 Y-0.549
X-36.072 Y-0.407
X-36.066 Y-0.396
X-35.991 Y-0.252
X-35.985 Y-0.243
X-35.904 Y-0.098
X-35.898 Y-0.089
X-35.811 Y0.056
X-35.805 Y0.065
X-35.712 Y0.211
X-35.706 Y0.22
X-35.606 Y0.367
X-35.6 Y0.375
X-35.495 Y0.523
X-35.489 Y0.531
X-35.377 Y0.679
X-35.371 Y0.686
X-35.253 Y0.835
X-35.247 Y0.843
X-35.123 Y0.992
X-35.117 Y0.999
X-34.987 Y1.149
X-34.981 Y1.156
X-34.844 Y1.306
X-34.838 Y1.312
X-34.695 Y1.464
X-34.689 Y1.47
X-34.539 Y1.621
X-34.534 Y1.627
X-34.377 Y1.779
X-34.372 Y1.784
X-34.209 Y1.937
X-34.204 Y1.942
X-34.034 Y2.095
X-34.029 Y2.099
X-33.853 Y2.252
X-33.848 Y2.257
X-33.666 Y2.409
X-33.658 Y2.416
X-33.272 Y2.723
X-33.262 Y2.731
X-32.85 Y3.038
X-32.84 Y3.045
X-32.401 Y3.351
X-32.391 Y3.357
X-31.925 Y3.662
X-31.915 Y3.668
X-31.421 Y3.97
X-31.412 Y3.976
X-30.891 Y4.276
X-30.881 Y4.281
X-30.332 Y4.578
X-30.323 Y4.582
X-29.747 Y4.875
X-29.738 Y4.879
X-29.133 Y5.167
X-29.124 Y5.171
X-28.493 Y5.454
X-28.482 Y5.458
X-27.482 Y5.87
X-27.47 Y5.875
X-26.41 Y6.27
X-26.398 Y6.275
X-25.28 Y6.651
X-25.268 Y6.655
X-24.091 Y7.01
X-24.08 Y7.013
X-22.847 Y7.345
X-22.836 Y7.348
X-21.55 Y7.655
X-21.54 Y7.657
X-20.203 Y7.937
X-20.191 Y7.94
X-18.331 Y8.27
X-18.318 Y8.272
X-16.375 Y8.552
X-16.363 Y8.554
X-14.338 Y8.781
X-14.327 Y8.782
X-12.227 Y8.957
X-12.215 Y8.958
X-9.486 Y9.103
X-9.473
X-6.049 Y9.17
X-6.037 Y9.171
X-5.143 Y9.159
G2 X-4.752 Y8.763 I-0.005 J-0.396
G1 Y3.448
G3 X-3.924 I0.414 J0.
G1 X-3.93 Y3.478
X-3.947 Y3.504
X-3.973 Y3.521
X-4.003 Y3.527
X-4.082
X-4.113 Z-2.594
X-4.138 Z-2.577
X-4.156 Z-2.551
X-4.162 Z-2.521
G0 Z15.

M9
G53 Z0.
M30
